;FLAVOR:Marlin
;TIME:461
;Filament used: 0.269667m
;Layer height: 0.2
;MINX:105.2
;MINY:105.2
;MINZ:0.3
;MAXX:119.8
;MAXY:114.8
;MAXZ:7.175
;Generated with Cura_SteamEngine 4.13.1
M140 S60
M105
M190 S60
M104 S200
M105
M109 S200
M82 ;absolute extrusion mode
G21                                        ; metric values
G90                                        ; absolute positioning
M82                                        ; set extruder to absolute mode
M107                                       ; start with the fan off
M190 S60                                   ; preheat and wait for bed
M109 S210                                  ; preheat and wait for hotend
M300 S1000 P500                            ; BEEP heating done
G28 X0 Y10 Z0                              ; move X/Y to min endstops
M420 S1                                    ; enable mesh leveling
G0 Z0.15                                   ; lift nozzle a bit
G0 X2                                      ; move away from clips
G92 E0                                     ; zero the extruded length
G1 Y50 E25 F500                            ; Extrude 25mm of filament in a 5cm line.
G92 E0                                     ; zero the extruded length again
G1 E-2 F500                                ; Retract a little
G1 Y120 F4000                              ; Quickly wipe away from the filament line
G92 E0
G92 E0
G1 F1500 E-6
;LAYER_COUNT:35
;LAYER:0
M106 S76.5
M205 X10 Y10
G1 F600 Z0.375
;MESH:osram-halostar-stecker-v3.stl
G0 F6000 X107.453 Y112.235 Z0.375
M205 X8 Y8
;TYPE:WALL-INNER
G1 F600 Z0.3
G1 F1500 E0
G1 F1200 X108.478 Y112.656 E0.05528
G1 X109.186 Y112.707 E0.0907
G1 X110.266 Y112.407 E0.14662
G1 X111.116 Y111.691 E0.20206
G1 X111.482 Y111.096 E0.23692
G1 X111.719 Y109.992 E0.29325
G1 X111.471 Y108.862 E0.35097
G1 X110.786 Y107.951 E0.40783
G1 X109.805 Y107.414 E0.46363
G1 X109.081 Y107.29 E0.50027
G1 X108.004 Y107.47 E0.55475
G1 X107.026 Y108.129 E0.61359
G1 X106.432 Y109.113 E0.67093
G1 X106.294 Y110.296 E0.73035
G1 X106.67 Y111.404 E0.78872
G1 X107.453 Y112.235 E0.84569
M205 X10 Y10
G0 F6000 X107.685 Y111.898
M205 X8 Y8
G1 F1200 X108.571 Y112.262 E0.89348
G1 X109.146 Y112.303 E0.92224
G1 X110.075 Y112.045 E0.97034
G1 X110.809 Y111.427 E1.01821
G1 X111.105 Y110.945 E1.04643
G1 X111.31 Y109.993 E1.09501
G1 X111.099 Y109.033 E1.14405
G1 X110.518 Y108.26 E1.19229
G1 X109.672 Y107.797 E1.24041
G1 X109.08 Y107.696 E1.27037
G1 X108.155 Y107.85 E1.31715
G1 X107.323 Y108.411 E1.36722
G1 X106.819 Y109.245 E1.41583
G1 X106.702 Y110.253 E1.46646
G1 X107.021 Y111.193 E1.51598
G1 X107.685 Y111.898 E1.5643
M205 X10 Y10
G0 F6000 X107.917 Y111.561
M205 X8 Y8
;TYPE:WALL-OUTER
G1 F1200 X108.663 Y111.868 E1.60455
G1 X109.105 Y111.899 E1.62665
G1 X109.884 Y111.683 E1.66698
G1 X110.502 Y111.163 E1.70728
G1 X110.728 Y110.794 E1.72887
G1 X110.901 Y109.994 E1.7697
G1 X110.727 Y109.204 E1.81006
G1 X110.25 Y108.569 E1.84968
G1 X109.539 Y108.18 E1.89012
G1 X109.079 Y108.102 E1.91339
G1 X108.306 Y108.23 E1.95248
G1 X107.62 Y108.693 E1.99377
G1 X107.206 Y109.377 E2.03366
G1 X107.11 Y110.21 E2.0755
G1 X107.372 Y110.982 E2.11617
G1 X107.917 Y111.561 E2.15584
M205 X10 Y10
G0 F6000 X108.102 Y111.637
G0 X107.934 Y112.044
G1 F1500 E-3.84416
G1 F600 Z0.375
G0 F6000 X114.453 Y112.235 Z0.375
M205 X8 Y8
;TYPE:WALL-INNER
G1 F600 Z0.3
G1 F1500 E2.15584
G1 F1200 X115.478 Y112.656 E2.21112
G1 X116.186 Y112.707 E2.24654
G1 X117.266 Y112.407 E2.30246
G1 X118.116 Y111.691 E2.3579
G1 X118.482 Y111.096 E2.39275
G1 X118.603 Y110.534 E2.42144
G1 X118.719 Y109.992 E2.44909
G1 X118.603 Y109.461 E2.4762
G1 X118.471 Y108.862 E2.50681
G1 X117.786 Y107.951 E2.56367
G1 X116.805 Y107.414 E2.61947
G1 X116.081 Y107.29 E2.65611
G1 X115.004 Y107.47 E2.71059
G1 X114.026 Y108.129 E2.76943
G1 X113.432 Y109.113 E2.82677
G1 X113.294 Y110.296 E2.88619
G1 X113.67 Y111.404 E2.94456
G1 X114.453 Y112.235 E3.00153
M205 X10 Y10
G0 F6000 X114.685 Y111.898
M205 X8 Y8
G1 F1200 X115.571 Y112.262 E3.04931
G1 X116.146 Y112.303 E3.07807
G1 X117.075 Y112.045 E3.12618
G1 X117.809 Y111.427 E3.17405
G1 X118.105 Y110.945 E3.20227
G1 X118.31 Y109.993 E3.25085
G1 X118.099 Y109.033 E3.29989
G1 X117.518 Y108.26 E3.34813
G1 X116.672 Y107.797 E3.39625
G1 X116.08 Y107.696 E3.42621
G1 X115.155 Y107.85 E3.47299
G1 X114.323 Y108.411 E3.52306
G1 X113.819 Y109.245 E3.57167
G1 X113.702 Y110.253 E3.6223
G1 X114.021 Y111.193 E3.67182
G1 X114.685 Y111.898 E3.72014
M205 X10 Y10
G0 F6000 X114.917 Y111.561
M205 X8 Y8
;TYPE:WALL-OUTER
G1 F1200 X115.663 Y111.868 E3.76039
G1 X116.105 Y111.899 E3.78249
G1 X116.884 Y111.683 E3.82282
G1 X117.502 Y111.163 E3.86312
G1 X117.728 Y110.794 E3.8847
G1 X117.901 Y109.994 E3.92554
G1 X117.727 Y109.204 E3.9659
G1 X117.25 Y108.569 E4.00552
G1 X116.539 Y108.18 E4.04595
G1 X116.079 Y108.102 E4.06923
G1 X115.306 Y108.23 E4.10832
G1 X114.62 Y108.693 E4.14961
G1 X114.206 Y109.377 E4.1895
G1 X114.11 Y110.21 E4.23133
G1 X114.372 Y110.982 E4.27201
G1 X114.917 Y111.561 E4.31168
M205 X10 Y10
G0 F6000 X115.102 Y111.637
G0 X114.934 Y112.044
G1 F1500 E-1.68832
G1 F600 Z0.375
G0 F6000 X119 Y114 Z0.375
M205 X8 Y8
;TYPE:WALL-INNER
G1 F600 Z0.3
G1 F1500 E4.31168
G1 F1200 X106 Y114 E4.96025
G1 X106 Y110.296 E5.14504
G1 X106 Y109.393 E5.1843
G1 X106 Y106 E5.35358
G1 X119 Y106 E6.00215
G1 X119 Y109.448 E6.17417
G1 X119 Y109.992 E6.19733
G1 X119 Y110.547 E6.22095
G1 X119 Y114 E6.39322
M205 X10 Y10
G0 F6000 X119.4 Y114.4
M205 X8 Y8
G1 F1200 X105.6 Y114.4 E7.0817
G1 X105.6 Y105.6 E7.52074
G1 X119.4 Y105.6 E8.20922
G1 X119.4 Y114.4 E8.64825
M205 X10 Y10
G0 F6000 X119.8 Y114.8
M205 X8 Y8
;TYPE:WALL-OUTER
G1 F1200 X105.2 Y114.8 E9.37665
G1 X105.2 Y105.2 E9.8556
G1 X119.8 Y105.2 E10.58399
G1 X119.8 Y114.8 E11.06294
M205 X10 Y10
G0 F6000 X119.6 Y114.8
G0 X119.36 Y114.36
G0 X118.61 Y113.61
M205 X8 Y8
;TYPE:SKIN
G1 F1200 X106.39 Y113.61 E11.6726
G1 X106.39 Y111.675 E11.76914
G1 X107.227 Y112.564 E11.83005
G1 X108.388 Y113.04 E11.89265
G1 X109.225 Y113.101 E11.93452
G1 X110.453 Y112.76 E11.99811
G1 X111.415 Y111.949 E12.06088
G1 X111.849 Y111.244 E12.10218
G1 X112.118 Y109.992 E12.16607
G1 X111.834 Y108.696 E12.23226
G1 X111.047 Y107.649 E12.29761
G1 X109.935 Y107.041 E12.36084
G1 X109.081 Y106.894 E12.40407
G1 X107.856 Y107.099 E12.46604
G1 X106.737 Y107.854 E12.53338
G1 X106.39 Y108.428 E12.56685
G1 X106.39 Y106.39 E12.66852
G1 X118.61 Y106.39 E13.27818
G1 X118.61 Y108.398 E13.37836
G1 X118.047 Y107.649 E13.42511
G1 X116.935 Y107.041 E13.48834
G1 X116.081 Y106.894 E13.53157
G1 X114.856 Y107.099 E13.59353
G1 X113.737 Y107.854 E13.66088
G1 X113.054 Y108.984 E13.72675
G1 X112.896 Y110.339 E13.79481
G1 X113.328 Y111.609 E13.86174
G1 X114.227 Y112.564 E13.92717
G1 X115.388 Y113.04 E13.98978
G1 X116.225 Y113.101 E14.03164
G1 X117.453 Y112.76 E14.09523
G1 X118.415 Y111.949 E14.158
G1 X118.61 Y111.632 E14.17657
G1 X118.61 Y113.61 E14.27525
M205 X10 Y10
G1 F1500 E8.27525
G1 F600 Z0.375
G0 F6000 X118.429 Y107.116 Z0.375
M205 X8 Y8
G1 F600 Z0.3
G1 F1500 E14.27525
G1 F1200 X117.883 Y106.57 E14.31378
M205 X10 Y10
G0 F6000 X117.318 Y106.57
M205 X8 Y8
G1 F1200 X118.429 Y107.681 E14.39216
G1 X118.499 Y107.751
M205 X10 Y10
G1 F1500 E8.39216
G1 F600 Z0.375
G0 F6000 X117.121 Y106.939 Z0.375
M205 X8 Y8
G1 F600 Z0.3
G1 F1500 E14.39216
G1 F1200 X116.752 Y106.57 E14.4182
M205 X10 Y10
G0 F6000 X116.38 Y106.763
M205 X8 Y8
G1 F1200 X116.186 Y106.57 E14.43185
M205 X10 Y10
G0 F6000 X115.808 Y106.757
M205 X8 Y8
G1 F1200 X115.621 Y106.57 E14.44504
M205 X10 Y10
G0 F6000 X115.323 Y106.838
M205 X8 Y8
G1 F1200 X115.055 Y106.57 E14.46395
M205 X10 Y10
G0 F6000 X114.838 Y106.918
M205 X8 Y8
G1 F1200 X114.489 Y106.57 E14.48854
M205 X10 Y10
G0 F6000 X114.484 Y107.13
M205 X8 Y8
G1 F1200 X113.924 Y106.57 E14.52805
M205 X10 Y10
G0 F6000 X113.358 Y106.57
M205 X8 Y8
G1 F1200 X114.147 Y107.359 E14.58372
M205 X10 Y10
G0 F6000 X113.809 Y107.587
M205 X8 Y8
G1 F1200 X112.792 Y106.57 E14.65548
M205 X10 Y10
G0 F6000 X112.227 Y106.57
M205 X8 Y8
G1 F1200 X113.521 Y107.864 E14.74677
M205 X10 Y10
G0 F6000 X113.307 Y108.216
M205 X8 Y8
G1 F1200 X111.661 Y106.57 E14.86291
M205 X10 Y10
G0 F6000 X111.095 Y106.57
M205 X8 Y8
G1 F1200 X113.094 Y108.569 E15.00395
M205 X10 Y10
G0 F6000 X112.881 Y108.922
M205 X8 Y8
G1 F1200 X110.529 Y106.57 E15.16989
M205 X10 Y10
G0 F6000 X109.964 Y106.57
M205 X8 Y8
G1 F1200 X110.589 Y107.195 E15.21399
G1 X110.659 Y107.265
M205 X10 Y10
G0 F6000 X109.635 Y106.807
M205 X8 Y8
G1 F1200 X109.398 Y106.57 E15.23071
M205 X10 Y10
G0 F6000 X108.989 Y106.726
M205 X8 Y8
G1 F1200 X108.832 Y106.57 E15.24176
M205 X10 Y10
G0 F6000 X108.504 Y106.807
M205 X8 Y8
G1 F1200 X108.267 Y106.57 E15.25848
M205 X10 Y10
G0 F6000 X108.019 Y106.888
M205 X8 Y8
G1 F1200 X107.701 Y106.57 E15.28091
M205 X10 Y10
G0 F6000 X107.611 Y107.046
M205 X8 Y8
G1 F1200 X107.135 Y106.57 E15.3145
M205 X10 Y10
G0 F6000 X106.569 Y106.569
M205 X8 Y8
G1 F1200 X107.273 Y107.273 E15.36417
M205 X10 Y10
G0 F6000 X106.935 Y107.501
M205 X8 Y8
G1 F1200 X106.569 Y107.135 E15.38999
M205 X10 Y10
G1 F1500 E9.38999
G1 F600 Z0.375
G0 F6000 X106.57 Y112.227 Z0.375
M205 X8 Y8
G1 F600 Z0.3
G1 F1500 E15.38999
G1 F1200 X107.772 Y113.429 E15.4748
M205 X10 Y10
G0 F6000 X107.97 Y113.062
M205 X8 Y8
G1 F1200 X108.337 Y113.429 E15.50069
M205 X10 Y10
G0 F6000 X108.718 Y113.243
M205 X8 Y8
G1 F1200 X108.903 Y113.429 E15.51378
M205 X10 Y10
G0 F6000 X109.305 Y113.265
M205 X8 Y8
G1 F1200 X109.469 Y113.429 E15.52535
M205 X10 Y10
G0 F6000 X109.748 Y113.142
M205 X8 Y8
G1 F1200 X110.035 Y113.429 E15.5456
M205 X10 Y10
G0 F6000 X110.191 Y113.019
M205 X8 Y8
G1 F1200 X110.6 Y113.429 E15.57449
M205 X10 Y10
G0 F6000 X110.604 Y112.867
M205 X8 Y8
G1 F1200 X111.166 Y113.429 E15.61415
M205 X10 Y10
G0 F6000 X111.732 Y113.429
M205 X8 Y8
G1 F1200 X110.911 Y112.608 E15.67207
M205 X10 Y10
G0 F6000 X111.218 Y112.35
M205 X8 Y8
G1 F1200 X112.297 Y113.429 E15.7482
M205 X10 Y10
G0 F6000 X112.863 Y113.429
M205 X8 Y8
G1 F1200 X111.524 Y112.09 E15.84268
M205 X10 Y10
G0 F6000 X111.748 Y111.748
M205 X8 Y8
G1 F1200 X113.429 Y113.429 E15.96128
M205 X10 Y10
G0 F6000 X113.994 Y113.429
M205 X8 Y8
G1 F1200 X111.963 Y111.398 E16.10458
M205 X10 Y10
G0 F6000 X112.091 Y110.96
M205 X8 Y8
G1 F1200 X114.56 Y113.429 E16.27878
M205 X10 Y10
G0 F6000 X114.614 Y112.917
M205 X8 Y8
G1 F1200 X115.126 Y113.429 E16.3149
M205 X10 Y10
G0 F6000 X115.49 Y113.227
M205 X8 Y8
G1 F1200 X115.691 Y113.429 E16.32912
M205 X10 Y10
G0 F6000 X116.101 Y113.273
M205 X8 Y8
G1 F1200 X116.257 Y113.429 E16.34013
M205 X10 Y10
G0 F6000 X116.583 Y113.189
M205 X8 Y8
G1 F1200 X116.823 Y113.429 E16.35706
M205 X10 Y10
G0 F6000 X117.026 Y113.066
M205 X8 Y8
G1 F1200 X117.388 Y113.429 E16.38264
M205 X10 Y10
G0 F6000 X117.468 Y112.942
M205 X8 Y8
G1 F1200 X117.954 Y113.429 E16.41696
M205 X10 Y10
G0 F6000 X118.429 Y113.337
M205 X8 Y8
G1 F1200 X117.796 Y112.705 E16.46159
M205 X10 Y10
G0 F6000 X118.103 Y112.446
M205 X8 Y8
G1 F1200 X118.429 Y112.772 E16.48459
M205 X10 Y10
G1 F1500 E10.48459
G1 F600 Z0.375
G0 F6000 X113.051 Y111.354 Z0.375
M205 X8 Y8
G1 F600 Z0.3
G1 F1500 E16.48459
G1 F1200 X112.192 Y110.495 E16.5452
M205 X10 Y10
G0 F6000 X112.292 Y110.03
M205 X8 Y8
G1 F1200 X112.758 Y110.495 E16.57804
M205 X10 Y10
G0 F6000 X112.761 Y109.933
M205 X8 Y8
G1 F1200 X112.154 Y109.326 E16.62087
M205 X10 Y10
G0 F6000 X112.821 Y109.426
M205 X8 Y8
G1 F1200 X111.961 Y108.567 E16.68151
G1 X111.891 Y108.497
M205 X10 Y10
G1 F1500 E10.68151
G1 F600 Z0.375
G0 F6000 X107.206 Y113.429 Z0.375
M205 X8 Y8
G1 F600 Z0.3
G1 F1500 E16.68151
G1 F1200 X106.57 Y112.792 E16.72642
M205 X10 Y10
G0 F6000 X106.57 Y113.358
M205 X8 Y8
G1 F1200 X106.64 Y113.429 E16.73139
M205 X10 Y10
G1 F1500 E10.73139
G1 F600 Z0.375
;MESH:NONMESH
G0 F6000 X107.984 Y112.524 Z0.375
;TIME_ELAPSED:23.359878
;LAYER:1
M106 S127.5
;MESH:osram-halostar-stecker-v3.stl
G0 X107.984 Y112.524 Z0.575
M205 X8 Y8
;TYPE:WALL-INNER
G1 F600 Z0.5
G1 F1500 E16.73139
G1 F1350 X109.153 Y112.717 E16.7708
G1 X110.251 Y112.414 E16.80868
G1 X111.108 Y111.704 E16.8457
G1 X111.487 Y111.08 E16.86998
G1 X111.718 Y110.013 E16.90629
G1 X111.476 Y108.876 E16.94496
G1 X110.831 Y108.003 E16.98106
G1 X110.18 Y107.561 E17.00723
G1 X109.25 Y107.309 E17.03928
G1 X109.006 Y107.3 E17.0474
G1 X108.069 Y107.455 E17.07899
G1 X107.433 Y107.788 E17.10286
G1 X106.669 Y108.597 E17.13987
G1 X106.298 Y109.686 E17.17814
G1 X106.415 Y110.846 E17.21692
G1 X107.013 Y111.857 E17.25598
G1 X107.984 Y112.524 E17.29516
M205 X10 Y10
G0 F6000 X108.137 Y112.144
M205 X8 Y8
G1 F1350 X109.131 Y112.308 E17.32867
G1 X110.062 Y112.051 E17.36079
G1 X110.801 Y111.439 E17.39271
G1 X111.11 Y110.93 E17.41251
G1 X111.309 Y110.012 E17.44376
G1 X111.103 Y109.044 E17.47667
G1 X110.55 Y108.296 E17.50761
G1 X110.011 Y107.93 E17.52928
G1 X109.189 Y107.707 E17.55761
G1 X109.031 Y107.701 E17.56287
G1 X108.198 Y107.839 E17.59095
G1 X107.678 Y108.111 E17.61047
G1 X107.02 Y108.808 E17.64235
G1 X106.705 Y109.733 E17.67485
G1 X106.804 Y110.718 E17.70778
G1 X107.312 Y111.577 E17.74097
G1 X108.137 Y112.144 E17.77427
M205 X10 Y10
G0 F6000 X108.29 Y111.764
M205 X8 Y8
;TYPE:WALL-OUTER
G1 F1350 X109.109 Y111.899 E17.80187
G1 X109.873 Y111.688 E17.82823
G1 X110.494 Y111.174 E17.85505
G1 X110.733 Y110.78 E17.87037
G1 X110.9 Y110.011 E17.89655
G1 X110.73 Y109.212 E17.92372
G1 X110.269 Y108.589 E17.94949
G1 X109.842 Y108.299 E17.96666
G1 X109.127 Y108.105 E17.9913
G1 X109.056 Y108.102 E17.99367
G1 X108.327 Y108.223 E18.01824
G1 X107.923 Y108.434 E18.0334
G1 X107.371 Y109.019 E18.06016
G1 X107.112 Y109.78 E18.08689
G1 X107.193 Y110.59 E18.11397
G1 X107.611 Y111.297 E18.14128
G1 X108.29 Y111.764 E18.16869
M205 X10 Y10
G0 F6000 X108.487 Y111.796
G0 X108.415 Y112.23
G1 F1500 E12.16869
G1 F600 Z0.575
G0 F6000 X114.981 Y112.522 Z0.575
M205 X8 Y8
;TYPE:WALL-INNER
G1 F600 Z0.5
G1 F1500 E18.16869
G1 F1350 X116.151 Y112.717 E18.20815
G1 X117.251 Y112.414 E18.24609
G1 X118.108 Y111.704 E18.28311
G1 X118.487 Y111.08 E18.30739
G1 X118.603 Y110.546 E18.32557
G1 X118.718 Y110.013 E18.3437
G1 X118.603 Y109.47 E18.36216
G1 X118.476 Y108.876 E18.38237
G1 X117.831 Y108.003 E18.41847
G1 X117.18 Y107.561 E18.44464
G1 X116.25 Y107.309 E18.47669
G1 X116.006 Y107.3 E18.48481
G1 X115.069 Y107.455 E18.5164
G1 X114.433 Y107.788 E18.54027
G1 X113.669 Y108.597 E18.57728
G1 X113.298 Y109.686 E18.61555
G1 X113.415 Y110.846 E18.65433
G1 X114.013 Y111.857 E18.69339
G1 X114.981 Y112.522 E18.73245
M205 X10 Y10
G0 F6000 X115.134 Y112.142
M205 X8 Y8
G1 F1350 X116.13 Y112.308 E18.76604
G1 X117.062 Y112.051 E18.79819
G1 X117.801 Y111.439 E18.83011
G1 X118.11 Y110.93 E18.84991
G1 X118.309 Y110.012 E18.88115
G1 X118.103 Y109.044 E18.91407
G1 X117.55 Y108.296 E18.94501
G1 X117.011 Y107.93 E18.96668
G1 X116.189 Y107.707 E18.99501
G1 X116.031 Y107.701 E19.00027
G1 X115.198 Y107.839 E19.02835
G1 X114.678 Y108.111 E19.04787
G1 X114.02 Y108.808 E19.07975
G1 X113.705 Y109.733 E19.11225
G1 X113.804 Y110.718 E19.14518
G1 X114.312 Y111.577 E19.17837
G1 X115.134 Y112.142 E19.21154
M205 X10 Y10
G0 F6000 X115.287 Y111.762
M205 X8 Y8
;TYPE:WALL-OUTER
G1 F1350 X116.109 Y111.899 E19.23926
G1 X116.873 Y111.688 E19.26562
G1 X117.494 Y111.174 E19.29243
G1 X117.733 Y110.78 E19.30776
G1 X117.9 Y110.011 E19.33393
G1 X117.73 Y109.212 E19.3611
G1 X117.269 Y108.589 E19.38688
G1 X116.842 Y108.299 E19.40405
G1 X116.127 Y108.105 E19.42869
G1 X116.056 Y108.102 E19.43105
G1 X115.327 Y108.223 E19.45563
G1 X114.923 Y108.434 E19.47079
G1 X114.371 Y109.019 E19.49754
G1 X114.112 Y109.78 E19.52428
G1 X114.193 Y110.59 E19.55136
G1 X114.611 Y111.297 E19.57867
G1 X115.287 Y111.762 E19.60596
M205 X10 Y10
G0 F6000 X115.484 Y111.794
G0 X115.411 Y112.228
G1 F1500 E13.60596
G1 F600 Z0.575
G0 F6000 X119 Y114 Z0.575
M205 X8 Y8
;TYPE:WALL-INNER
G1 F600 Z0.5
G1 F1500 E19.60596
G1 F1350 X106 Y114 E20.03834
G1 X106 Y110.689 E20.14847
G1 X106 Y109.686 E20.17768
G1 X106 Y106 E20.30028
G1 X119 Y106 E20.73266
G1 X119 Y109.458 E20.84767
G1 X119 Y110.013 E20.86344
G1 X119 Y110.559 E20.87895
G1 X119 Y114 E20.9934
M205 X10 Y10
G0 F6000 X119.4 Y114.4
M205 X8 Y8
G1 F1350 X105.6 Y114.4 E21.45239
G1 X105.6 Y105.6 E21.74508
G1 X119.4 Y105.6 E22.20407
