;FLAVOR:Marlin
;TIME:710
;Filament used: 0.380841m
;Layer height: 0.2
;MINX:105.2
;MINY:106.7
;MINZ:0.3
;MAXX:119.8
;MAXY:113.3
;MAXZ:13.175
;Generated with Cura_SteamEngine 4.13.1
M140 S60
M105
M190 S60
M104 S200
M105
M109 S200
M82 ;absolute extrusion mode
G21                                        ; metric values
G90                                        ; absolute positioning
M82                                        ; set extruder to absolute mode
M107                                       ; start with the fan off
M190 S60                                   ; preheat and wait for bed
M109 S210                                  ; preheat and wait for hotend
M300 S1000 P500                            ; BEEP heating done
G28 X0 Y10 Z0                              ; move X/Y to min endstops
M420 S1                                    ; enable mesh leveling
G0 Z0.15                                   ; lift nozzle a bit
G0 X2                                      ; move away from clips
G92 E0                                     ; zero the extruded length
G1 Y50 E25 F500                            ; Extrude 25mm of filament in a 5cm line.
G92 E0                                     ; zero the extruded length again
G1 E-2 F500                                ; Retract a little
G1 Y120 F4000                              ; Quickly wipe away from the filament line
G92 E0
G92 E0
G1 F1500 E-6
;LAYER_COUNT:65
;LAYER:0
M106 S76.5
M205 X10 Y10
G1 F600 Z0.375
;MESH:osram-halostar-fassung.stl
G0 F6000 X108.25 Y111.976 Z0.375
M205 X8 Y8
;TYPE:WALL-INNER
G1 F600 Z0.3
G1 F1500 E0
G1 F1200 X109.229 Y112.095 E0.0492
G1 X109.771 Y111.962 E0.07704
G1 X110.582 Y111.402 E0.12621
G1 X111.052 Y110.505 E0.17674
G1 X111.052 Y109.495 E0.22713
G1 X110.582 Y108.598 E0.27765
G1 X109.771 Y108.038 E0.32682
G1 X109.229 Y107.905 E0.35466
G1 X108.25 Y108.024 E0.40386
G1 X107.418 Y108.598 E0.45429
G1 X106.948 Y109.495 E0.50481
G1 X106.948 Y110.505 E0.5552
G1 X107.418 Y111.402 E0.60573
G1 X108.25 Y111.976 E0.65615
M205 X10 Y10
G0 F6000 X108.396 Y111.591
M205 X8 Y8
;TYPE:WALL-OUTER
G1 F1200 X109.205 Y111.689 E0.69681
G1 X109.604 Y111.591 E0.71731
G1 X110.274 Y111.129 E0.75791
G1 X110.652 Y110.407 E0.79857
G1 X110.652 Y109.593 E0.83918
G1 X110.274 Y108.871 E0.87984
G1 X109.604 Y108.409 E0.92044
G1 X109.205 Y108.311 E0.94094
G1 X108.396 Y108.409 E0.9816
G1 X107.726 Y108.871 E1.0222
G1 X107.348 Y109.593 E1.06286
G1 X107.348 Y110.407 E1.10347
G1 X107.726 Y111.129 E1.14413
G1 X108.396 Y111.591 E1.18473
M205 X10 Y10
G0 F6000 X108.594 Y111.615
G0 X108.542 Y112.051
G1 F1500 E-4.81527
G1 F600 Z0.375
G0 F6000 X115.25 Y111.976 Z0.375
M205 X8 Y8
;TYPE:WALL-INNER
G1 F600 Z0.3
G1 F1500 E1.18473
G1 F1200 X116.229 Y112.095 E1.23393
G1 X116.771 Y111.962 E1.26177
G1 X117.582 Y111.402 E1.31094
G1 X118.052 Y110.505 E1.36147
G1 X118.052 Y109.495 E1.41186
G1 X117.582 Y108.598 E1.46238
G1 X116.771 Y108.038 E1.51155
G1 X116.229 Y107.905 E1.53939
G1 X115.25 Y108.024 E1.58859
G1 X114.418 Y108.598 E1.63902
G1 X113.948 Y109.495 E1.68954
G1 X113.948 Y110.505 E1.73993
G1 X114.418 Y111.402 E1.79046
G1 X115.25 Y111.976 E1.84088
M205 X10 Y10
G0 F6000 X115.396 Y111.591
M205 X8 Y8
;TYPE:WALL-OUTER
G1 F1200 X116.205 Y111.689 E1.88154
G1 X116.604 Y111.591 E1.90204
G1 X117.274 Y111.129 E1.94264
G1 X117.652 Y110.407 E1.9833
G1 X117.652 Y109.593 E2.02391
G1 X117.274 Y108.871 E2.06457
G1 X116.604 Y108.409 E2.10517
G1 X116.205 Y108.311 E2.12567
G1 X115.396 Y108.409 E2.16633
G1 X114.726 Y108.871 E2.20693
G1 X114.348 Y109.593 E2.24759
G1 X114.348 Y110.407 E2.2882
G1 X114.726 Y111.129 E2.32886
G1 X115.396 Y111.591 E2.36946
M205 X10 Y10
G0 F6000 X115.594 Y111.615
G0 X115.542 Y112.051
G1 F1500 E-3.63054
G1 F600 Z0.375
G0 F6000 X109.245 Y112.5 Z0.375
M205 X8 Y8
;TYPE:WALL-INNER
G1 F600 Z0.3
G1 F1500 E2.36946
G1 F1200 X108.104 Y112.5 E2.42639
G1 X107.687 Y112.5 E2.44719
G1 X106 Y112.5 E2.53135
G1 X106 Y107.5 E2.78081
G1 X107.687 Y107.5 E2.86497
G1 X108.104 Y107.5 E2.88577
G1 X109.245 Y107.5 E2.9427
G1 X108.104 Y107.639 E2.95293
G1 X107.761 Y107.876 E2.96725
G1 X107.11 Y108.325 E3.00671
G1 X106.548 Y109.397 E3.06709
G1 X106.548 Y110.603 E3.12726
G1 X107.11 Y111.675 E3.18765
G1 X107.761 Y112.124 E3.2271
G1 X108.104 Y112.361 E3.24142
G1 X109.245 Y112.5 E3.25165
M205 X10 Y10
G1 F1500 E-2.74835
G1 F600 Z0.375
G0 F6000 X116.245 Y112.5 Z0.375
M205 X8 Y8
G1 F600 Z0.3
G1 F1500 E3.25165
G1 F1200 X115.104 Y112.5 E3.30858
G1 X109.938 Y112.5 E3.56631
G1 X109.257 Y112.5 E3.60029
G1 X109.938 Y112.333 E3.6082
G1 X110.891 Y111.675 E3.66598
G1 X111.452 Y110.603 E3.72634
G1 X111.452 Y109.397 E3.78651
G1 X110.891 Y108.325 E3.84687
G1 X109.938 Y107.667 E3.90465
G1 X109.257 Y107.5 E3.93963
G1 X109.938 Y107.5 E3.94654
G1 X114.687 Y107.5 E4.18347
G1 X115.104 Y107.5 E4.20427
G1 X116.245 Y107.5 E4.2612
G1 X115.104 Y107.639 E4.27143
G1 X114.761 Y107.876 E4.28575
G1 X114.11 Y108.325 E4.32521
G1 X113.548 Y109.397 E4.38559
G1 X113.548 Y110.603 E4.44576
G1 X114.11 Y111.675 E4.50615
G1 X115.104 Y112.361 E4.5664
G1 X116.245 Y112.5 E4.57664
M205 X10 Y10
G1 F1500 E-1.42336
G1 F600 Z0.375
G0 F6000 X119 Y112.5 Z0.375
M205 X8 Y8
G1 F600 Z0.3
G1 F1500 E4.57664
G1 F1200 X116.938 Y112.5 E4.67951
G1 X116.257 Y112.5 E4.71348
G1 X116.938 Y112.333 E4.7214
G1 X117.891 Y111.675 E4.77917
G1 X118.452 Y110.603 E4.83954
G1 X118.452 Y109.397 E4.89971
G1 X117.891 Y108.325 E4.96007
G1 X116.938 Y107.667 E5.01785
G1 X116.257 Y107.5 E5.05283
G1 X116.938 Y107.5 E5.05974
G1 X119 Y107.5 E5.16261
G1 X119 Y112.5 E5.41207
M205 X10 Y10
G0 F6000 X119.4 Y112.9
M205 X8 Y8
G1 F1200 X105.6 Y112.9 E6.10055
G1 X105.6 Y107.1 E6.38991
G1 X119.4 Y107.1 E7.0784
G1 X119.4 Y112.9 E7.36776
M205 X10 Y10
G0 F6000 X119.8 Y113.3
M205 X8 Y8
;TYPE:WALL-OUTER
G1 F1200 X105.2 Y113.3 E8.09616
G1 X105.2 Y106.7 E8.42543
G1 X119.8 Y106.7 E9.15383
G1 X119.8 Y113.3 E9.48311
M205 X10 Y10
G0 F6000 X119.6 Y113.3
G0 X119.36 Y112.86
G0 X118.61 Y112.11
M205 X8 Y8
;TYPE:SKIN
G1 F1200 X117.948 Y112.11 E9.51613
G1 X118.192 Y111.942 E9.53091
G1 X118.61 Y111.143 E9.5759
G1 X118.61 Y112.11 E9.62414
M205 X10 Y10
G1 F1500 E3.62414
G1 F600 Z0.375
G0 F6000 X118.61 Y108.857 Z0.375
M205 X8 Y8
G1 F600 Z0.3
G1 F1500 E9.62414
G1 F1200 X118.192 Y108.058 E9.66913
G1 X117.948 Y107.89 E9.68391
G1 X118.61 Y107.89 E9.71694
G1 X118.61 Y108.857 E9.76518
M205 X10 Y10
G1 F1500 E3.76518
G1 F600 Z0.375
G0 F6000 X114.053 Y107.89 Z0.375
M205 X8 Y8
G1 F600 Z0.3
G1 F1500 E9.76518
G1 F1200 X113.809 Y108.058 E9.77996
G1 X113.158 Y109.301 E9.84997
G1 X113.158 Y110.699 E9.91971
G1 X113.809 Y111.942 E9.98972
G1 X114.053 Y112.11 E10.0045
G1 X110.948 Y112.11 E10.15941
G1 X111.192 Y111.942 E10.17418
G1 X111.842 Y110.699 E10.24417
G1 X111.842 Y109.301 E10.31391
G1 X111.192 Y108.058 E10.38389
G1 X110.948 Y107.89 E10.39867
G1 X114.053 Y107.89 E10.55358
M205 X10 Y10
G0 F6000 X113.448 Y108.357
M205 X8 Y8
G1 F1200 X113.161 Y108.069 E10.57387
M205 X10 Y10
G0 F6000 X112.595 Y108.069
M205 X8 Y8
G1 F1200 X113.254 Y108.728 E10.62036
M205 X10 Y10
G0 F6000 X113.06 Y109.1
M205 X8 Y8
G1 F1200 X112.029 Y108.069 E10.6931
M205 X10 Y10
G0 F6000 X111.464 Y108.069
M205 X8 Y8
G1 F1200 X112.977 Y109.583 E10.79989
M205 X10 Y10
G0 F6000 X112.977 Y110.148
M205 X8 Y8
G1 F1200 X111.951 Y109.122 E10.87228
M205 X10 Y10
G0 F6000 X112.021 Y109.758
M205 X8 Y8
G1 F1200 X112.977 Y110.714 E10.93973
G1 X113.047 Y110.784
M205 X10 Y10
G0 F6000 X111.97 Y110.838
M205 X8 Y8
G1 F1200 X113.06 Y111.929 E11.01667
M205 X10 Y10
G0 F6000 X113.568 Y111.871
M205 X8 Y8
G1 F1200 X112.021 Y110.324 E11.12582
G1 X111.951 Y110.254
M205 X10 Y10
G0 F6000 X111.775 Y111.21
M205 X8 Y8
G1 F1200 X112.495 Y111.929 E11.17659
M205 X10 Y10
G0 F6000 X111.929 Y111.929
M205 X8 Y8
G1 F1200 X111.581 Y111.581 E11.20114
M205 X10 Y10
G1 F1500 E5.20114
G1 F600 Z0.375
G0 F6000 X107.053 Y112.11 Z0.375
M205 X8 Y8
G1 F600 Z0.3
G1 F1500 E11.20114
G1 F1200 X106.39 Y112.11 E11.23422
G1 X106.39 Y111.142 E11.28251
G1 X106.809 Y111.942 E11.32756
G1 X107.053 Y112.11 E11.34234
M205 X10 Y10
G1 F1500 E5.34234
G1 F600 Z0.375
G0 F6000 X107.053 Y107.89 Z0.375
M205 X8 Y8
G1 F600 Z0.3
G1 F1500 E11.34234
G1 F1200 X106.809 Y108.058 E11.35712
G1 X106.39 Y108.858 E11.40218
G1 X106.39 Y107.89 E11.45047
G1 X107.053 Y107.89 E11.48355
M205 X10 Y10
G1 F1500 E5.48355
G1 F600 Z0.375
;MESH:NONMESH
G0 F6000 X108.25 Y111.976 Z0.375
;TIME_ELAPSED:17.924024
;LAYER:1
M106 S127.5
;MESH:osram-halostar-fassung.stl
G0 X108.25 Y111.976 Z0.575
M205 X8 Y8
;TYPE:WALL-INNER
G1 F600 Z0.5
G1 F1500 E11.48355
G1 F1350 X109.229 Y112.095 E11.51635
G1 X109.771 Y111.962 E11.53491
G1 X110.582 Y111.402 E11.56769
G1 X111.052 Y110.505 E11.60137
G1 X111.052 Y109.495 E11.63497
G1 X110.582 Y108.598 E11.66865
G1 X109.771 Y108.038 E11.70143
G1 X109.229 Y107.905 E11.71999
G1 X108.25 Y108.024 E11.75279
G1 X107.418 Y108.598 E11.78641
G1 X106.948 Y109.495 E11.82009
G1 X106.948 Y110.505 E11.85369
G1 X107.418 Y111.402 E11.88737
G1 X108.25 Y111.976 E11.92099
M205 X10 Y10
G0 F6000 X108.396 Y111.591
M205 X8 Y8
;TYPE:WALL-OUTER
G1 F1350 X109.205 Y111.689 E11.94809
G1 X109.604 Y111.591 E11.96176
G1 X110.274 Y111.129 E11.98882
G1 X110.652 Y110.407 E12.01593
G1 X110.652 Y109.593 E12.043
G1 X110.274 Y108.871 E12.07011
G1 X109.604 Y108.409 E12.09718
G1 X109.205 Y108.311 E12.11084
G1 X108.396 Y108.409 E12.13795
G1 X107.726 Y108.871 E12.16502
G1 X107.348 Y109.593 E12.19212
G1 X107.348 Y110.407 E12.2192
G1 X107.726 Y111.129 E12.2463
G1 X108.396 Y111.591 E12.27337
M205 X10 Y10
G0 F6000 X108.594 Y111.615
G0 X108.542 Y112.051
G1 F1500 E6.27337
G1 F600 Z0.575
G0 F6000 X115.25 Y111.976 Z0.575
M205 X8 Y8
;TYPE:WALL-INNER
G1 F600 Z0.5
G1 F1500 E12.27337
G1 F1350 X116.229 Y112.095 E12.30617
G1 X116.771 Y111.962 E12.32473
G1 X117.582 Y111.402 E12.35751
G1 X118.052 Y110.505 E12.39119
G1 X118.052 Y109.495 E12.42479
G1 X117.582 Y108.598 E12.45847
G1 X116.771 Y108.038 E12.49125
G1 X116.229 Y107.905 E12.50981
G1 X115.25 Y108.024 E12.54261
G1 X114.418 Y108.598 E12.57623
G1 X113.948 Y109.495 E12.60991
G1 X113.948 Y110.505 E12.64351
G1 X114.418 Y111.402 E12.67719
G1 X115.25 Y111.976 E12.71081
M205 X10 Y10
G0 F6000 X115.396 Y111.591
M205 X8 Y8
;TYPE:WALL-OUTER
G1 F1350 X116.205 Y111.689 E12.73791
G1 X116.604 Y111.591 E12.75158
G1 X117.274 Y111.129 E12.77864
G1 X117.652 Y110.407 E12.80575
G1 X117.652 Y109.593 E12.83282
G1 X117.274 Y108.871 E12.85993
G1 X116.604 Y108.409 E12.887
G1 X116.205 Y108.311 E12.90066
G1 X115.396 Y108.409 E12.92777
G1 X114.726 Y108.871 E12.95484
G1 X114.348 Y109.593 E12.98194
G1 X114.348 Y110.407 E13.00902
G1 X114.726 Y111.129 E13.03612
G1 X115.396 Y111.591 E13.06319
M205 X10 Y10
G0 F6000 X115.594 Y111.615
G0 X115.542 Y112.051
G1 F1500 E7.06319
G1 F600 Z0.575
G0 F6000 X109.245 Y112.5 Z0.575
M205 X8 Y8
;TYPE:WALL-INNER
G1 F600 Z0.5
G1 F1500 E13.06319
G1 F1350 X108.104 Y112.5 E13.10114
G1 X107.687 Y112.5 E13.11501
G1 X106 Y112.5 E13.17112
G1 X106 Y107.5 E13.33742
G1 X107.687 Y107.5 E13.39353
G1 X108.104 Y107.5 E13.4074
G1 X109.245 Y107.5 E13.44535
G1 X108.104 Y107.639 E13.45217
G1 X107.761 Y107.876 E13.46172
G1 X107.11 Y108.325 E13.48802
G1 X106.548 Y109.397 E13.52828
G1 X106.548 Y110.603 E13.56839
G1 X107.11 Y111.675 E13.60865
G1 X107.761 Y112.124 E13.63495
G1 X108.104 Y112.361 E13.64449
G1 X109.245 Y112.5 E13.65132
M205 X10 Y10
G1 F1500 E7.65132
G1 F600 Z0.575
G0 F6000 X116.245 Y112.5 Z0.575
M205 X8 Y8
G1 F600 Z0.5
G1 F1500 E13.65132
G1 F1350 X115.104 Y112.5 E13.68927
G1 X109.938 Y112.5 E13.86109
G1 X109.257 Y112.5 E13.88374
G1 X109.938 Y112.333 E13.88902
G1 X110.891 Y111.675 E13.92753
G1 X111.452 Y110.603 E13.96778
G1 X111.452 Y109.397 E14.00789
G1 X110.891 Y108.325 E14.04813
G1 X109.938 Y107.667 E14.08665
G1 X109.257 Y107.5 E14.10997
G1 X109.938 Y107.5 E14.11458
G1 X114.687 Y107.5 E14.27253
G1 X115.104 Y107.5 E14.2864
G1 X116.245 Y107.5 E14.32435
G1 X115.104 Y107.639 E14.33117
G1 X114.761 Y107.876 E14.34072
G1 X114.11 Y108.325 E14.36702
G1 X113.548 Y109.397 E14.40728
G1 X113.548 Y110.603 E14.44739
G1 X114.11 Y111.675 E14.48765
G1 X115.104 Y112.361 E14.52782
G1 X116.245 Y112.5 E14.53464
M205 X10 Y10
G1 F1500 E8.53464
G1 F600 Z0.575
G0 F6000 X119 Y112.5 Z0.575
M205 X8 Y8
G1 F600 Z0.5
G1 F1500 E14.53464
G1 F1350 X116.938 Y112.5 E14.60322
G1 X116.257 Y112.5 E14.62587
G1 X116.938 Y112.333 E14.63115
G1 X117.891 Y111.675 E14.66967
G1 X118.452 Y110.603 E14.70991
G1 X118.452 Y109.397 E14.75002
G1 X117.891 Y108.325 E14.79026
G1 X116.938 Y107.667 E14.82878
G1 X116.257 Y107.5 E14.8521
G1 X116.938 Y107.5 E14.85671
G1 X119 Y107.5 E14.92529
G1 X119 Y112.5 E15.09159
M205 X10 Y10
G0 F6000 X119.4 Y112.9
M205 X8 Y8
G1 F1350 X105.6 Y112.9 E15.55058
G1 X105.6 Y107.1 E15.74349
G1 X119.4 Y107.1 E16.20248
G1 X119.4 Y112.9 E16.39539
M205 X10 Y10
G0 F6000 X119.8 Y113.3
M205 X8 Y8
;TYPE:WALL-OUTER
G1 F1350 X105.2 Y113.3 E16.88099
G1 X105.2 Y106.7 E17.10051
G1 X119.8 Y106.7 E17.5861
G1 X119.8 Y113.3 E17.80562
M205 X10 Y10
G0 F6000 X119.6 Y113.3
G0 X119.36 Y112.86
G0 X118.61 Y112.11
M205 X8 Y8
;TYPE:SKIN
G1 F1350 X117.948 Y112.11 E17.82764
G1 X118.192 Y111.942 E17.83749
G1 X118.61 Y111.143 E17.86748
G1 X118.61 Y112.11 E17.89965
M205 X10 Y10
G1 F1500 E11.89965
G1 F600 Z0.575
G0 F6000 X118.61 Y108.857 Z0.575
M205 X8 Y8
G1 F600 Z0.5
G1 F1500 E17.89965
G1 F1350 X118.192 Y108.058 E17.92964
G1 X117.948 Y107.89 E17.93949
G1 X118.61 Y107.89 E17.96151
G1 X118.61 Y108.857 E17.99367
M205 X10 Y10
G1 F1500 E11.99367
G1 F600 Z0.575
G0 F6000 X114.053 Y107.89 Z0.575
M205 X8 Y8
G1 F600 Z0.5
G1 F1500 E17.99367
G1 F1350 X113.809 Y108.058 E18.00353
G1 X113.158 Y109.301 E18.05019
G1 X113.158 Y110.699 E18.09669
G1 X113.809 Y111.942 E18.14336
G1 X114.053 Y112.11 E18.15321
G1 X110.948 Y112.11 E18.25649
G1 X111.192 Y111.942 E18.26634
G1 X111.842 Y110.699 E18.31299
G1 X111.842 Y109.301 E18.35949
G1 X111.192 Y108.058 E18.40615
G1 X110.948 Y107.89 E18.416
G1 X114.053 Y107.89 E18.51927
M205 X10 Y10
G1 F1500 E12.51927
G1 F600 Z0.575
G0 F6000 X111.6 Y108.451 Z0.575
M205 X8 Y8
G1 F600 Z0.5
G1 F1500 E18.51927
G1 F1350 X111.981 Y108.069 E18.53722
M205 X10 Y10
G0 F6000 X112.547 Y108.069
M205 X8 Y8
G1 F1350 X111.794 Y108.822 E18.57263
M205 X10 Y10
G0 F6000 X111.988 Y109.194
M205 X8 Y8
G1 F1350 X113.113 Y108.069 E18.62555
M205 X10 Y10
G0 F6000 X113.511 Y108.236
M205 X8 Y8
G1 F1350 X112.021 Y109.727 E18.69566
M205 X10 Y10
G0 F6000 X112.021 Y110.293
M205 X8 Y8
G1 F1350 X112.977 Y109.337 E18.74063
M205 X10 Y10
G0 F6000 X112.977 Y109.902
M205 X8 Y8
G1 F1350 X111.894 Y110.985 E18.79157
G1 X111.824 Y111.055
M205 X10 Y10
G0 F6000 X112.081 Y111.93
M205 X8 Y8
G1 F1350 X113.076 Y110.934 E18.83839
M205 X10 Y10
G0 F6000 X113.271 Y111.305
M205 X8 Y8
G1 F1350 X112.647 Y111.93 E18.86777
M205 X10 Y10
G0 F6000 X113.212 Y111.93
M205 X8 Y8
G1 F1350 X113.465 Y111.676 E18.87969
M205 X10 Y10
G0 F6000 X112.977 Y110.468
M205 X8 Y8
G1 F1350 X111.515 Y111.93 E18.94846
G1 X111.445 Y112
M205 X10 Y10
G1 F1500 E12.94846
G1 F600 Z0.575
G0 F6000 X107.053 Y112.11 Z0.575
M205 X8 Y8
G1 F600 Z0.5
G1 F1500 E18.94846
G1 F1350 X106.39 Y112.11 E18.97051
G1 X106.39 Y111.142 E19.00271
G1 X106.809 Y111.942 E19.03274
G1 X107.053 Y112.11 E19.0426
M205 X10 Y10
G1 F1500 E13.0426
G1 F600 Z0.575
G0 F6000 X106.39 Y108.858 Z0.575
M205 X8 Y8
G1 F600 Z0.5
G1 F1500 E19.0426
G1 F1350 X106.39 Y107.89 E19.07479
G1 X107.053 Y107.89 E19.09684
G1 X106.809 Y108.058 E19.1067
G1 X106.39 Y108.858 E19.13673
M205 X10 Y10
G1 F1500 E13.13673
G1 F600 Z0.575
;MESH:NONMESH
G0 F6000 X108.25 Y111.976 Z0.575
;TIME_ELAPSED:32.452056
;LAYER:2
M106 S178.5
;MESH:osram-halostar-fassung.stl
G0 X108.25 Y111.976 Z0.775
M205 X8 Y8
;TYPE:WALL-INNER
G1 F600 Z0.7
G1 F1500 E19.13673
G1 X109.229 Y112.095 E19.16954
G1 X109.771 Y111.962 E19.1881
G1 X110.582 Y111.402 E19.22088
G1 X111.052 Y110.505 E19.25456
G1 X111.052 Y109.495 E19.28815
G1 X110.582 Y108.598 E19.32183
G1 X109.771 Y108.038 E19.35461
G1 X109.229 Y107.905 E19.37317
G1 X108.25 Y108.024 E19.40598
G1 X107.418 Y108.598 E19.43959
G1 X106.948 Y109.495 E19.47328
G1 X106.948 Y110.505 E19.50687
G1 X107.418 Y111.402 E19.54055
G1 X108.25 Y111.976 E19.57417
M205 X10 Y10
G0 F6000 X108.396 Y111.591
M205 X8 Y8
;TYPE:WALL-OUTER
G1 F1500 X109.205 Y111.689 E19.60127
