;FLAVOR:Marlin
;TIME:2010
;Filament used: 1.4901m
;Layer height: 0.2
;MINX:101.45
;MINY:97.356
;MINZ:0.3
;MAXX:123.35
;MAXY:122.644
;MAXZ:24.175
;Generated with Cura_SteamEngine 4.13.1
M140 S60
M105
M190 S60
M104 S200
M105
M109 S200
M82 ;absolute extrusion mode
G21                                        ; metric values
G90                                        ; absolute positioning
M82                                        ; set extruder to absolute mode
M107                                       ; start with the fan off
M190 S60                                   ; preheat and wait for bed
M109 S210                                  ; preheat and wait for hotend
M300 S1000 P500                            ; BEEP heating done
G28 X0 Y10 Z0                              ; move X/Y to min endstops
M420 S1                                    ; enable mesh leveling
G0 Z0.15                                   ; lift nozzle a bit
G0 X2                                      ; move away from clips
G92 E0                                     ; zero the extruded length
G1 Y50 E25 F500                            ; Extrude 25mm of filament in a 5cm line.
G92 E0                                     ; zero the extruded length again
G1 E-2 F500                                ; Retract a little
G1 Y120 F4000                              ; Quickly wipe away from the filament line
G92 E0
G92 E0
G1 F1500 E-6
;LAYER_COUNT:120
;LAYER:0
M106 S76.5
M205 X10 Y10
G1 F600 Z0.375
;MESH:prisma-3eck-mittel.stl
G0 F6000 X121.752 Y110 Z0.375
M205 X8 Y8
;TYPE:WALL-INNER
G1 F600 Z0.3
G1 F1500 E0
G1 F1200 X102.25 Y121.26 E1.12349
G1 X102.25 Y98.74 E2.24702
G1 X121.752 Y110 E3.3705
M205 X10 Y10
G0 F6000 X122.551 Y110
M205 X8 Y8
G1 F1200 X121.952 Y110.345 E3.40499
G1 X102.45 Y121.605 E4.52848
G1 X101.85 Y121.952 E4.56306
G1 X101.85 Y98.048 E5.75564
G1 X122.551 Y110 E6.94819
M205 X10 Y10
G0 F6000 X123.35 Y110
M205 X8 Y8
;TYPE:WALL-OUTER
G1 F1200 X101.45 Y122.644 E8.20981
G1 X101.45 Y97.356 E9.47144
G1 X123.35 Y110 E10.73306
M205 X10 Y10
G0 F6000 X123.177 Y110.1
G1 F1500 E4.73306
G1 F600 Z0.375
G0 F6000 X120.971 Y110 Z0.375
M205 X8 Y8
;TYPE:SKIN
G1 F600 Z0.3
G1 F1500 E10.73306
G1 F1200 X102.64 Y120.584 E11.78909
G1 X102.64 Y99.416 E12.84516
G1 X120.971 Y110 E13.9012
M205 X10 Y10
G0 F6000 X120.338 Y110.155
M205 X8 Y8
G1 F1200 X119.597 Y109.414 E13.95348
G1 X119.527 Y109.344
M205 X10 Y10
G0 F6000 X119.979 Y110.363
M205 X8 Y8
G1 F1200 X118.258 Y108.642 E14.0749
G1 X118.188 Y108.572
M205 X10 Y10
G0 F6000 X116.92 Y107.869
M205 X8 Y8
G1 F1200 X119.621 Y110.57 E14.26547
M205 X10 Y10
G0 F6000 X119.262 Y110.777
M205 X8 Y8
G1 F1200 X115.581 Y107.096 E14.52519
G1 X115.511 Y107.026
M205 X10 Y10
G0 F6000 X114.242 Y106.323
M205 X8 Y8
G1 F1200 X118.904 Y110.984 E14.85408
M205 X10 Y10
G0 F6000 X118.545 Y111.191
M205 X8 Y8
G1 F1200 X112.904 Y105.55 E15.25208
G1 X112.834 Y105.48
M205 X10 Y10
G0 F6000 X111.565 Y104.777
M205 X8 Y8
G1 F1200 X118.186 Y111.398 E15.71923
M205 X10 Y10
G0 F6000 X117.828 Y111.605
M205 X8 Y8
G1 F1200 X110.227 Y104.004 E16.25552
G1 X110.157 Y103.934
M205 X10 Y10
G0 F6000 X108.888 Y103.231
M205 X8 Y8
G1 F1200 X117.469 Y111.812 E16.86096
M205 X10 Y10
G0 F6000 X117.111 Y112.019
M205 X8 Y8
G1 F1200 X107.55 Y102.459 E17.5355
G1 X107.48 Y102.389
M205 X10 Y10
G0 F6000 X106.212 Y101.686
M205 X8 Y8
G1 F1200 X116.752 Y112.227 E18.27919
M205 X10 Y10
G0 F6000 X116.394 Y112.434
M205 X8 Y8
G1 F1200 X104.873 Y100.914 E19.09203
G1 X104.803 Y100.844
M205 X10 Y10
G0 F6000 X103.535 Y100.141
M205 X8 Y8
G1 F1200 X116.034 Y112.64 E19.9739
M205 X10 Y10
G0 F6000 X115.676 Y112.847
M205 X8 Y8
G1 F1200 X102.818 Y99.99 E20.88106
M205 X10 Y10
G0 F6000 X102.818 Y100.556
M205 X8 Y8
G1 F1200 X115.317 Y113.055 E21.76294
M205 X10 Y10
G0 F6000 X114.959 Y113.262
M205 X8 Y8
G1 F1200 X102.818 Y101.121 E22.61955
M205 X10 Y10
G0 F6000 X102.818 Y101.687
M205 X8 Y8
G1 F1200 X114.6 Y113.469 E23.45083
M205 X10 Y10
G0 F6000 X114.242 Y113.676
M205 X8 Y8
G1 F1200 X102.818 Y102.253 E24.25682
M205 X10 Y10
G0 F6000 X102.818 Y102.818
M205 X8 Y8
G1 F1200 X113.883 Y113.883 E25.03752
M205 X10 Y10
G0 F6000 X113.524 Y114.09
M205 X8 Y8
G1 F1200 X102.818 Y103.384 E25.79288
M205 X10 Y10
G0 F6000 X102.818 Y103.95
M205 X8 Y8
G1 F1200 X113.166 Y114.297 E26.52296
M205 X10 Y10
G0 F6000 X112.807 Y114.504
M205 X8 Y8
G1 F1200 X102.818 Y104.516 E27.2277
M205 X10 Y10
G0 F6000 X102.818 Y105.081
M205 X8 Y8
G1 F1200 X112.449 Y114.711 E27.90718
M205 X10 Y10
G0 F6000 X112.09 Y114.918
M205 X8 Y8
G1 F1200 X102.818 Y105.647 E28.56134
M205 X10 Y10
G0 F6000 X102.818 Y106.213
M205 X8 Y8
G1 F1200 X111.732 Y115.126 E29.19023
M205 X10 Y10
G0 F6000 X111.372 Y115.332
M205 X8 Y8
G1 F1200 X102.818 Y106.778 E29.79376
M205 X10 Y10
G0 F6000 X102.818 Y107.344
M205 X8 Y8
G1 F1200 X111.014 Y115.539 E30.372
M205 X10 Y10
G0 F6000 X110.655 Y115.747
M205 X8 Y8
G1 F1200 X102.818 Y107.91 E30.92494
M205 X10 Y10
G0 F6000 X102.818 Y108.475
M205 X8 Y8
G1 F1200 X110.297 Y115.954 E31.45263
M205 X10 Y10
G0 F6000 X109.938 Y116.161
M205 X8 Y8
G1 F1200 X102.818 Y109.041 E31.95498
M205 X10 Y10
G0 F6000 X102.818 Y109.607
M205 X8 Y8
G1 F1200 X109.58 Y116.368 E32.43204
M205 X10 Y10
G0 F6000 X109.221 Y116.575
M205 X8 Y8
G1 F1200 X102.819 Y110.173 E32.88374
M205 X10 Y10
G0 F6000 X102.819 Y110.739
M205 X8 Y8
G1 F1200 X108.862 Y116.782 E33.3101
M205 X10 Y10
G0 F6000 X108.504 Y116.989
M205 X8 Y8
G1 F1200 X102.819 Y111.304 E33.71121
M205 X10 Y10
G0 F6000 X102.819 Y111.87
M205 X8 Y8
G1 F1200 X108.145 Y117.196 E34.08699
M205 X10 Y10
G0 F6000 X107.787 Y117.403
M205 X8 Y8
G1 F1200 X102.819 Y112.436 E34.43747
M205 X10 Y10
G0 F6000 X102.819 Y113.002
M205 X8 Y8
G1 F1200 X107.428 Y117.61 E34.76263
M205 X10 Y10
G0 F6000 X107.069 Y117.817
M205 X8 Y8
G1 F1200 X102.819 Y113.567 E35.06249
M205 X10 Y10
G0 F6000 X102.819 Y114.133
M205 X8 Y8
G1 F1200 X106.71 Y118.024 E35.33702
M205 X10 Y10
G0 F6000 X106.352 Y118.231
M205 X8 Y8
G1 F1200 X102.819 Y114.699 E35.58626
M205 X10 Y10
G0 F6000 X102.819 Y115.264
M205 X8 Y8
G1 F1200 X105.993 Y118.438 E35.8102
M205 X10 Y10
G0 F6000 X105.635 Y118.646
M205 X8 Y8
G1 F1200 X102.819 Y115.83 E36.00888
M205 X10 Y10
G0 F6000 X102.819 Y116.396
M205 X8 Y8
G1 F1200 X105.276 Y118.853 E36.18224
M205 X10 Y10
G0 F6000 X104.917 Y119.059
M205 X8 Y8
G1 F1200 X102.819 Y116.961 E36.33026
M205 X10 Y10
G0 F6000 X102.819 Y117.527
M205 X8 Y8
G1 F1200 X104.559 Y119.266 E36.45299
M205 X10 Y10
G0 F6000 X104.2 Y119.474
M205 X8 Y8
G1 F1200 X102.819 Y118.093 E36.55043
M205 X10 Y10
G0 F6000 X102.819 Y118.658
M205 X8 Y8
G1 F1200 X103.842 Y119.681 E36.62261
M205 X10 Y10
G0 F6000 X103.483 Y119.888
M205 X8 Y8
G1 F1200 X102.819 Y119.224 E36.66946
M205 X10 Y10
G0 F6000 X102.819 Y119.79
M205 X8 Y8
G1 F1200 X103.125 Y120.095 E36.69101
M205 X10 Y10
G1 F1500 E30.69101
G1 F600 Z0.375
;MESH:NONMESH
G0 F6000 X121.752 Y110 Z0.375
;TIME_ELAPSED:41.606763
;LAYER:1
M106 S127.5
;MESH:prisma-3eck-mittel.stl
G0 X121.752 Y110 Z0.575
M205 X8 Y8
;TYPE:WALL-INNER
G1 F600 Z0.5
G1 F1500 E36.69101
G1 F1350 X102.25 Y121.26 E37.44001
G1 X102.25 Y98.74 E38.18902
G1 X121.752 Y110 E38.93802
M205 X10 Y10
G0 F6000 X122.551 Y110
M205 X8 Y8
G1 F1350 X121.952 Y110.345 E38.96101
G1 X102.45 Y121.605 E39.71
G1 X101.85 Y121.952 E39.73305
G1 X101.85 Y98.048 E40.5281
G1 X122.551 Y110 E41.32314
M205 X10 Y10
G0 F6000 X123.35 Y110
M205 X8 Y8
;TYPE:WALL-OUTER
G1 F1350 X101.45 Y122.644 E42.16422
G1 X101.45 Y97.356 E43.0053
G1 X123.35 Y110 E43.84638
M205 X10 Y10
G0 F6000 X123.177 Y110.1
G1 F1500 E37.84638
G1 F600 Z0.575
G0 F6000 X120.971 Y110 Z0.575
M205 X8 Y8
;TYPE:SKIN
G1 F600 Z0.5
G1 F1500 E43.84638
G1 F1350 X102.64 Y120.584 E44.55041
G1 X102.64 Y99.416 E45.25446
G1 X120.971 Y110 E45.95848
M205 X10 Y10
G0 F6000 X120.372 Y109.861
M205 X8 Y8
G1 F1350 X119.72 Y110.513 E45.98914
G1 X119.65 Y110.583
M205 X10 Y10
G0 F6000 X120.013 Y109.654
M205 X8 Y8
G1 F1350 X118.38 Y111.287 E46.06596
G1 X118.31 Y111.357
M205 X10 Y10
G0 F6000 X117.042 Y112.06
M205 X8 Y8
G1 F1350 X119.655 Y109.447 E46.18886
M205 X10 Y10
G0 F6000 X119.296 Y109.24
M205 X8 Y8
G1 F1350 X115.703 Y112.833 E46.35787
G1 X115.633 Y112.903
M205 X10 Y10
G0 F6000 X114.365 Y113.605
M205 X8 Y8
G1 F1350 X118.938 Y109.033 E46.57294
M205 X10 Y10
G0 F6000 X118.578 Y108.826
M205 X8 Y8
G1 F1350 X113.026 Y114.378 E46.83409
G1 X112.956 Y114.448
M205 X10 Y10
G0 F6000 X111.688 Y115.151
M205 X8 Y8
G1 F1350 X118.22 Y108.619 E47.14134
M205 X10 Y10
G0 F6000 X117.861 Y108.412
M205 X8 Y8
G1 F1350 X110.349 Y115.924 E47.49468
G1 X110.279 Y115.994
M205 X10 Y10
G0 F6000 X109.011 Y116.697
M205 X8 Y8
G1 F1350 X117.503 Y108.205 E47.89412
M205 X10 Y10
G0 F6000 X117.144 Y107.997
M205 X8 Y8
G1 F1350 X107.672 Y117.47 E48.33967
G1 X107.602 Y117.54
M205 X10 Y10
G0 F6000 X106.334 Y118.243
M205 X8 Y8
G1 F1350 X116.785 Y107.791 E48.83128
M205 X10 Y10
G0 F6000 X116.427 Y107.584
M205 X8 Y8
G1 F1350 X104.994 Y119.016 E49.36903
G1 X104.924 Y119.086
M205 X10 Y10
G0 F6000 X103.656 Y119.789
M205 X8 Y8
G1 F1350 X116.068 Y107.376 E49.95288
M205 X10 Y10
G0 F6000 X115.71 Y107.169
M205 X8 Y8
G1 F1350 X102.82 Y120.059 E50.55918
M205 X10 Y10
G0 F6000 X102.82 Y119.493
M205 X8 Y8
G1 F1350 X115.351 Y106.962 E51.1486
M205 X10 Y10
G0 F6000 X114.993 Y106.755
M205 X8 Y8
G1 F1350 X102.82 Y118.928 E51.72118
M205 X10 Y10
G0 F6000 X102.82 Y118.362
M205 X8 Y8
G1 F1350 X114.634 Y106.548 E52.27688
M205 X10 Y10
G0 F6000 X114.275 Y106.341
M205 X8 Y8
G1 F1350 X102.82 Y117.796 E52.81569
M205 X10 Y10
G0 F6000 X102.82 Y117.231
M205 X8 Y8
G1 F1350 X113.917 Y106.134 E53.33765
M205 X10 Y10
G0 F6000 X113.558 Y105.927
M205 X8 Y8
G1 F1350 X102.82 Y116.665 E53.84274
M205 X10 Y10
G0 F6000 X102.82 Y116.099
M205 X8 Y8
G1 F1350 X113.2 Y105.72 E54.33096
M205 X10 Y10
G0 F6000 X112.841 Y105.513
M205 X8 Y8
G1 F1350 X102.82 Y115.534 E54.80231
M205 X10 Y10
G0 F6000 X102.82 Y114.968
M205 X8 Y8
G1 F1350 X112.482 Y105.306 E55.25678
M205 X10 Y10
G0 F6000 X112.123 Y105.099
M205 X8 Y8
G1 F1350 X102.82 Y114.402 E55.69437
M205 X10 Y10
G0 F6000 X102.82 Y113.837
M205 X8 Y8
G1 F1350 X111.765 Y104.892 E56.11511
M205 X10 Y10
G0 F6000 X111.406 Y104.685
M205 X8 Y8
G1 F1350 X102.82 Y113.271 E56.51897
M205 X10 Y10
G0 F6000 X102.82 Y112.705
M205 X8 Y8
G1 F1350 X111.048 Y104.477 E56.90599
M205 X10 Y10
G0 F6000 X110.689 Y104.27
M205 X8 Y8
G1 F1350 X102.82 Y112.14 E57.27615
M205 X10 Y10
G0 F6000 X102.82 Y111.574
M205 X8 Y8
G1 F1350 X110.33 Y104.064 E57.6294
M205 X10 Y10
G0 F6000 X109.972 Y103.857
M205 X8 Y8
G1 F1350 X102.82 Y111.008 E57.96578
M205 X10 Y10
G0 F6000 X102.82 Y110.443
M205 X8 Y8
G1 F1350 X109.613 Y103.649 E58.28533
M205 X10 Y10
G0 F6000 X109.255 Y103.442
M205 X8 Y8
G1 F1350 X102.819 Y109.878 E58.58806
M205 X10 Y10
G0 F6000 X102.819 Y109.312
M205 X8 Y8
G1 F1350 X108.896 Y103.235 E58.8739
M205 X10 Y10
G0 F6000 X108.537 Y103.028
M205 X8 Y8
G1 F1350 X102.819 Y108.746 E59.14286
M205 X10 Y10
G0 F6000 X102.819 Y108.18
M205 X8 Y8
G1 F1350 X108.178 Y102.821 E59.39493
M205 X10 Y10
G0 F6000 X107.82 Y102.614
M205 X8 Y8
G1 F1350 X102.819 Y107.615 E59.63016
M205 X10 Y10
G0 F6000 X102.819 Y107.049
M205 X8 Y8
G1 F1350 X107.461 Y102.407 E59.84851
M205 X10 Y10
G0 F6000 X107.103 Y102.2
M205 X8 Y8
G1 F1350 X102.819 Y106.483 E60.04999
M205 X10 Y10
G0 F6000 X102.819 Y105.918
M205 X8 Y8
G1 F1350 X106.744 Y101.993 E60.23461
M205 X10 Y10
G0 F6000 X106.385 Y101.786
M205 X8 Y8
G1 F1350 X102.819 Y105.352 E60.40234
M205 X10 Y10
G0 F6000 X102.819 Y104.786
M205 X8 Y8
G1 F1350 X106.027 Y101.579 E60.55321
M205 X10 Y10
G0 F6000 X105.668 Y101.372
M205 X8 Y8
G1 F1350 X102.819 Y104.221 E60.68722
M205 X10 Y10
G0 F6000 X102.819 Y103.655
M205 X8 Y8
G1 F1350 X105.31 Y101.165 E60.80437
M205 X10 Y10
G0 F6000 X104.951 Y100.957
M205 X8 Y8
G1 F1350 X102.819 Y103.089 E60.90465
M205 X10 Y10
G0 F6000 X102.819 Y102.524
M205 X8 Y8
G1 F1350 X104.593 Y100.75 E60.98809
M205 X10 Y10
G0 F6000 X104.233 Y100.544
M205 X8 Y8
G1 F1350 X102.819 Y101.958 E61.0546
M205 X10 Y10
G0 F6000 X102.819 Y101.392
M205 X8 Y8
G1 F1350 X103.875 Y100.337 E61.10425
M205 X10 Y10
G0 F6000 X103.516 Y100.129
M205 X8 Y8
G1 F1350 X102.819 Y100.827 E61.13706
M205 X10 Y10
G0 F6000 X102.819 Y100.261
M205 X8 Y8
G1 F1350 X103.158 Y99.922 E61.15301
M205 X10 Y10
G1 F1500 E55.15301
G1 F600 Z0.575
;MESH:NONMESH
G0 F6000 X121.752 Y110 Z0.575
;TIME_ELAPSED:76.685636
;LAYER:2
M106 S178.5
;MESH:prisma-3eck-mittel.stl
G0 X121.752 Y110 Z0.775
M205 X8 Y8
;TYPE:WALL-INNER
G1 F600 Z0.7
G1 F1500 E61.15301
G1 X102.25 Y121.26 E61.902
G1 X102.25 Y98.74 E62.65102
G1 X121.752 Y110 E63.40001
M205 X10 Y10
G0 F6000 X122.551 Y110
M205 X8 Y8
G1 F1500 X121.952 Y110.345 E63.423
G1 X102.45 Y121.605 E64.17199
G1 X101.85 Y121.952 E64.19505
G1 X101.85 Y98.048 E64.9901
G1 X122.551 Y110 E65.78513
M205 X10 Y10
G0 F6000 X123.35 Y110
M205 X8 Y8
;TYPE:WALL-OUTER
G1 F1500 X101.45 Y122.644 E66.62621
G1 X101.45 Y97.356 E67.4673
G1 X123.35 Y110 E68.30838
M205 X10 Y10
G0 F6000 X123.177 Y110.1
G1 F1500 E62.30838
G1 F600 Z0.775
G0 F6000 X120.971 Y110 Z0.775
M205 X8 Y8
;TYPE:SKIN
G1 F600 Z0.7
G1 F1500 E68.30838
G1 X102.64 Y120.584 E69.0124
G1 X102.64 Y99.416 E69.71645
G1 X120.971 Y110 E70.42047
M205 X10 Y10
G0 F6000 X120.338 Y110.155
M205 X8 Y8
G1 F1500 X119.597 Y109.414 E70.45532
G1 X119.527 Y109.344
M205 X10 Y10
G0 F6000 X119.979 Y110.363
M205 X8 Y8
G1 F1500 X118.258 Y108.642 E70.53627
G1 X118.188 Y108.572
M205 X10 Y10
G0 F6000 X116.92 Y107.869
M205 X8 Y8
G1 F1500 X119.621 Y110.57 E70.66332
M205 X10 Y10
G0 F6000 X119.262 Y110.777
M205 X8 Y8
G1 F1500 X115.581 Y107.096 E70.83646
G1 X115.511 Y107.026
M205 X10 Y10
G0 F6000 X114.242 Y106.323
M205 X8 Y8
G1 F1500 X118.904 Y110.984 E71.05573
M205 X10 Y10
G0 F6000 X118.545 Y111.191
M205 X8 Y8
G1 F1500 X112.904 Y105.55 E71.32106
G1 X112.834 Y105.48
M205 X10 Y10
G0 F6000 X111.565 Y104.777
M205 X8 Y8
G1 F1500 X118.186 Y111.398 E71.63249
M205 X10 Y10
G0 F6000 X117.828 Y111.605
M205 X8 Y8
G1 F1500 X110.227 Y104.004 E71.99002
G1 X110.157 Y103.934
M205 X10 Y10
G0 F6000 X108.888 Y103.231
M205 X8 Y8
G1 F1500 X117.469 Y111.812 E72.39365
M205 X10 Y10
G0 F6000 X117.111 Y112.019
M205 X8 Y8
G1 F1500 X107.55 Y102.459 E72.84334
G1 X107.48 Y102.389
M205 X10 Y10
G0 F6000 X106.212 Y101.686
M205 X8 Y8
G1 F1500 X116.752 Y112.227 E73.33913
M205 X10 Y10
G0 F6000 X116.394 Y112.434
M205 X8 Y8
G1 F1500 X104.873 Y100.914 E73.88102
G1 X104.803 Y100.844
M205 X10 Y10
G0 F6000 X103.535 Y100.141
M205 X8 Y8
G1 F1500 X116.034 Y112.64 E74.46894
M205 X10 Y10
G0 F6000 X115.676 Y112.847
M205 X8 Y8
G1 F1500 X102.818 Y99.99 E75.07372
M205 X10 Y10
G0 F6000 X102.818 Y100.556
M205 X8 Y8
G1 F1500 X115.317 Y113.055 E75.66163
M205 X10 Y10
G0 F6000 X114.959 Y113.262
M205 X8 Y8
G1 F1500 X102.818 Y101.121 E76.23271
M205 X10 Y10
G0 F6000 X102.818 Y101.687
M205 X8 Y8
G1 F1500 X114.6 Y113.469 E76.78689
M205 X10 Y10
G0 F6000 X114.242 Y113.676
M205 X8 Y8
G1 F1500 X102.818 Y102.253 E77.32422
M205 X10 Y10
G0 F6000 X102.818 Y102.818
M205 X8 Y8
G1 F1500 X113.883 Y113.883 E77.84468
M205 X10 Y10
G0 F6000 X113.524 Y114.09
M205 X8 Y8
G1 F1500 X102.818 Y103.384 E78.34826
M205 X10 Y10
G0 F6000 X102.818 Y103.95
M205 X8 Y8
G1 F1500 X113.166 Y114.297 E78.83498
M205 X10 Y10
G0 F6000 X112.807 Y114.504
M205 X8 Y8
G1 F1500 X102.818 Y104.516 E79.30481
M205 X10 Y10
G0 F6000 X102.818 Y105.081
M205 X8 Y8
G1 F1500 X112.449 Y114.711 E79.75779
M205 X10 Y10
G0 F6000 X112.09 Y114.918
M205 X8 Y8
G1 F1500 X102.818 Y105.647 E80.1939
M205 X10 Y10
G0 F6000 X102.818 Y106.213
M205 X8 Y8
G1 F1500 X111.732 Y115.126 E80.61316
M205 X10 Y10
G0 F6000 X111.372 Y115.332
M205 X8 Y8
G1 F1500 X102.818 Y106.778 E81.01552
M205 X10 Y10
G0 F6000 X102.818 Y107.344
M205 X8 Y8
G1 F1500 X111.014 Y115.539 E81.40101
M205 X10 Y10
G0 F6000 X110.655 Y115.747
M205 X8 Y8
G1 F1500 X102.818 Y107.91 E81.76963
M205 X10 Y10
G0 F6000 X102.818 Y108.475
M205 X8 Y8
G1 F1500 X110.297 Y115.954 E82.12142
M205 X10 Y10
G0 F6000 X109.938 Y116.161
M205 X8 Y8
G1 F1500 X102.818 Y109.041 E82.45633
M205 X10 Y10
G0 F6000 X102.818 Y109.607
M205 X8 Y8
G1 F1500 X109.58 Y116.368 E82.77437
M205 X10 Y10
G0 F6000 X109.221 Y116.575
M205 X8 Y8
G1 F1500 X102.819 Y110.173 E83.0755
M205 X10 Y10
G0 F6000 X102.819 Y110.739
M205 X8 Y8
G1 F1500 X108.862 Y116.782 E83.35974
