;FLAVOR:Marlin
;TIME:639
;Filament used: 0.272486m
;Layer height: 0.2
;MINX:107.075
;MINY:103.851
;MINZ:0.3
;MAXX:117.725
;MAXY:116.149
;MAXZ:12.175
;Generated with Cura_SteamEngine 4.13.1
M140 S60
M105
M190 S60
M104 S200
M105
M109 S200
M82 ;absolute extrusion mode
G21                                        ; metric values
G90                                        ; absolute positioning
M82                                        ; set extruder to absolute mode
M107                                       ; start with the fan off
M190 S60                                   ; preheat and wait for bed
M109 S210                                  ; preheat and wait for hotend
M300 S1000 P500                            ; BEEP heating done
G28 X0 Y10 Z0                              ; move X/Y to min endstops
M420 S1                                    ; enable mesh leveling
G0 Z0.15                                   ; lift nozzle a bit
G0 X2                                      ; move away from clips
G92 E0                                     ; zero the extruded length
G1 Y50 E25 F500                            ; Extrude 25mm of filament in a 5cm line.
G92 E0                                     ; zero the extruded length again
G1 E-2 F500                                ; Retract a little
G1 Y120 F4000                              ; Quickly wipe away from the filament line
G92 E0
G92 E0
G1 F1500 E-6
;LAYER_COUNT:60
;LAYER:0
M106 S76.5
M205 X10 Y10
G1 F600 Z0.375
;MESH:prisma-3eck-mittel.stl
G0 F6000 X116.127 Y110 Z0.375
M205 X8 Y8
;TYPE:WALL-INNER
G1 F600 Z0.3
G1 F1500 E0
G1 F1200 X107.875 Y114.765 E0.4754
G1 X107.875 Y105.235 E0.95085
G1 X116.127 Y110 E1.42626
M205 X10 Y10
G0 F6000 X116.926 Y110
M205 X8 Y8
G1 F1200 X116.327 Y110.345 E1.46074
G1 X108.075 Y115.11 E1.93614
G1 X107.475 Y115.457 E1.97072
G1 X107.475 Y104.543 E2.51522
G1 X116.926 Y110 E3.05969
M205 X10 Y10
G0 F6000 X117.725 Y110
M205 X8 Y8
;TYPE:WALL-OUTER
G1 F1200 X107.075 Y116.149 E3.67322
G1 X107.075 Y103.851 E4.28677
G1 X117.725 Y110 E4.90031
M205 X10 Y10
G0 F6000 X117.552 Y110.1
G1 F1500 E-1.09969
G1 F600 Z0.375
G0 F6000 X115.346 Y110 Z0.375
M205 X8 Y8
;TYPE:SKIN
G1 F600 Z0.3
G1 F1500 E4.90031
G1 F1200 X108.265 Y114.089 E5.30825
G1 X108.265 Y105.911 E5.71625
G1 X115.346 Y110 E6.1242
M205 X10 Y10
G0 F6000 X114.693 Y110.167
M205 X8 Y8
G1 F1200 X113.897 Y109.372 E6.18032
G1 X113.827 Y109.302
M205 X10 Y10
G0 F6000 X114.334 Y110.375
M205 X8 Y8
G1 F1200 X112.558 Y108.598 E6.30566
G1 X112.488 Y108.528
M205 X10 Y10
G0 F6000 X111.22 Y107.826
M205 X8 Y8
G1 F1200 X113.976 Y110.582 E6.50012
M205 X10 Y10
G0 F6000 X113.617 Y110.789
M205 X8 Y8
G1 F1200 X109.88 Y107.052 E6.76378
G1 X109.81 Y106.982
M205 X10 Y10
G0 F6000 X108.444 Y107.312
M205 X8 Y8
G1 F1200 X112.542 Y111.411 E7.05295
M205 X10 Y10
G0 F6000 X112.9 Y111.203
M205 X8 Y8
G1 F1200 X108.444 Y106.746 E7.36738
M205 X10 Y10
G0 F6000 X108.541 Y106.278
M205 X8 Y8
G1 F1200 X113.259 Y110.996 E7.70026
G1 X113.329 Y111.066
M205 X10 Y10
G0 F6000 X112.183 Y111.618
M205 X8 Y8
G1 F1200 X108.444 Y107.878 E7.9641
M205 X10 Y10
G0 F6000 X108.444 Y108.444
M205 X8 Y8
G1 F1200 X111.824 Y111.824 E8.20258
M205 X10 Y10
G0 F6000 X111.466 Y112.031
M205 X8 Y8
G1 F1200 X108.444 Y109.009 E8.4158
M205 X10 Y10
G0 F6000 X108.444 Y109.575
M205 X8 Y8
G1 F1200 X111.107 Y112.239 E8.60372
M205 X10 Y10
G0 F6000 X110.749 Y112.446
M205 X8 Y8
G1 F1200 X108.444 Y110.141 E8.76636
M205 X10 Y10
G0 F6000 X108.444 Y110.707
M205 X8 Y8
G1 F1200 X110.39 Y112.653 E8.90366
M205 X10 Y10
G0 F6000 X110.032 Y112.86
M205 X8 Y8
G1 F1200 X108.444 Y111.273 E9.01566
M205 X10 Y10
G0 F6000 X108.444 Y111.838
M205 X8 Y8
G1 F1200 X109.673 Y113.067 E9.10238
M205 X10 Y10
G0 F6000 X109.314 Y113.274
M205 X8 Y8
G1 F1200 X108.444 Y112.404 E9.16376
M205 X10 Y10
G0 F6000 X108.444 Y112.97
M205 X8 Y8
G1 F1200 X108.955 Y113.481 E9.19981
M205 X10 Y10
G0 F6000 X108.597 Y113.688
M205 X8 Y8
G1 F1200 X108.444 Y113.535 E9.21061
M205 X10 Y10
G1 F1500 E3.21061
G1 F600 Z0.375
;MESH:NONMESH
G0 F6000 X116.127 Y110 Z0.375
;TIME_ELAPSED:13.028787
;LAYER:1
M106 S127.5
;MESH:prisma-3eck-mittel.stl
G0 X116.127 Y110 Z0.575
M205 X8 Y8
;TYPE:WALL-INNER
G1 F600 Z0.5
G1 F1500 E9.21061
G1 F1165 X107.875 Y114.765 E9.52754
G1 X107.875 Y105.235 E9.84451
G1 X116.127 Y110 E10.16144
M205 X10 Y10
G0 F6000 X116.926 Y110
M205 X8 Y8
G1 F1165 X116.327 Y110.345 E10.18444
G1 X108.075 Y115.11 E10.50137
G1 X107.475 Y115.457 E10.52442
G1 X107.475 Y104.543 E10.88742
G1 X116.926 Y110 E11.2504
M205 X10 Y10
G0 F6000 X117.725 Y110
M205 X8 Y8
;TYPE:WALL-OUTER
G1 F1165 X107.075 Y116.149 E11.65942
G1 X107.075 Y103.851 E12.06846
G1 X117.725 Y110 E12.47748
M205 X10 Y10
G0 F6000 X117.552 Y110.1
G1 F1500 E6.47748
G1 F600 Z0.575
G0 F6000 X115.346 Y110 Z0.575
M205 X8 Y8
;TYPE:SKIN
G1 F600 Z0.5
G1 F1500 E12.47748
G1 F1165 X108.265 Y114.089 E12.74944
G1 X108.265 Y105.911 E13.02144
G1 X115.346 Y110 E13.2934
M205 X10 Y10
G0 F6000 X114.726 Y109.85
M205 X8 Y8
G1 F1165 X114.017 Y110.559 E13.32675
G1 X113.947 Y110.629
M205 X10 Y10
G0 F6000 X114.368 Y109.643
M205 X8 Y8
G1 F1165 X112.678 Y111.332 E13.40622
G1 X112.608 Y111.402
M205 X10 Y10
G0 F6000 X111.34 Y112.105
M205 X8 Y8
G1 F1165 X114.009 Y109.436 E13.53176
M205 X10 Y10
G0 F6000 X113.651 Y109.228
M205 X8 Y8
G1 F1165 X110.001 Y112.878 E13.70345
G1 X109.931 Y112.948
M205 X10 Y10
G0 F6000 X108.662 Y113.651
M205 X8 Y8
G1 F1165 X113.292 Y109.021 E13.92123
M205 X10 Y10
G0 F6000 X112.933 Y108.815
M205 X8 Y8
G1 F1165 X108.445 Y113.303 E14.13233
M205 X10 Y10
G0 F6000 X108.445 Y112.737
M205 X8 Y8
G1 F1165 X112.574 Y108.608 E14.32655
M205 X10 Y10
G0 F6000 X112.216 Y108.4
M205 X8 Y8
G1 F1165 X108.445 Y112.171 E14.50392
M205 X10 Y10
G0 F6000 X108.445 Y111.606
M205 X8 Y8
G1 F1165 X111.857 Y108.193 E14.66444
M205 X10 Y10
G0 F6000 X111.499 Y107.986
M205 X8 Y8
G1 F1165 X108.445 Y111.04 E14.80809
M205 X10 Y10
G0 F6000 X108.445 Y110.474
M205 X8 Y8
G1 F1165 X111.14 Y107.779 E14.93485
M205 X10 Y10
G0 F6000 X110.782 Y107.572
M205 X8 Y8
G1 F1165 X108.444 Y109.909 E15.0448
M205 X10 Y10
G0 F6000 X108.444 Y109.344
M205 X8 Y8
G1 F1165 X110.423 Y107.364 E15.13791
M205 X10 Y10
G0 F6000 X110.065 Y107.157
M205 X8 Y8
G1 F1165 X108.444 Y108.778 E15.21416
M205 X10 Y10
G0 F6000 X108.444 Y108.212
M205 X8 Y8
G1 F1165 X109.706 Y106.951 E15.2735
M205 X10 Y10
G0 F6000 X109.347 Y106.744
M205 X8 Y8
G1 F1165 X108.444 Y107.647 E15.31597
M205 X10 Y10
G0 F6000 X108.444 Y107.081
M205 X8 Y8
G1 F1165 X108.989 Y106.536 E15.3416
M205 X10 Y10
G0 F6000 X108.63 Y106.329
M205 X8 Y8
G1 F1165 X108.444 Y106.515 E15.35035
M205 X10 Y10
G1 F1500 E9.35035
G1 F600 Z0.575
;MESH:NONMESH
G0 F6000 X116.127 Y110 Z0.575
;TIME_ELAPSED:23.871141
;LAYER:2
M106 S178.5
;MESH:prisma-3eck-mittel.stl
G0 X116.127 Y110 Z0.775
M205 X8 Y8
;TYPE:WALL-INNER
G1 F600 Z0.7
G1 F1500 E15.35035
G1 F1166.8 X107.875 Y114.765 E15.66729
G1 X107.875 Y105.235 E15.98426
G1 X116.127 Y110 E16.30119
M205 X10 Y10
G0 F6000 X116.926 Y110
M205 X8 Y8
G1 F1166.8 X116.327 Y110.345 E16.32418
G1 X108.075 Y115.11 E16.64112
G1 X107.475 Y115.457 E16.66417
G1 X107.475 Y104.543 E17.02717
G1 X116.926 Y110 E17.39015
M205 X10 Y10
G0 F6000 X117.725 Y110
M205 X8 Y8
;TYPE:WALL-OUTER
G1 F1166.8 X107.075 Y116.149 E17.79917
G1 X107.075 Y103.851 E18.2082
G1 X117.725 Y110 E18.61723
M205 X10 Y10
G0 F6000 X117.552 Y110.1
G1 F1500 E12.61723
G1 F600 Z0.775
G0 F6000 X115.346 Y110 Z0.775
M205 X8 Y8
;TYPE:SKIN
G1 F600 Z0.7
G1 F1500 E18.61723
G1 F1166.8 X108.265 Y114.089 E18.88919
G1 X108.265 Y105.911 E19.16119
G1 X115.346 Y110 E19.43315
M205 X10 Y10
G0 F6000 X114.693 Y110.167
M205 X8 Y8
G1 F1166.8 X113.897 Y109.372 E19.47057
G1 X113.827 Y109.302
M205 X10 Y10
G0 F6000 X114.334 Y110.375
M205 X8 Y8
G1 F1166.8 X112.558 Y108.598 E19.55413
G1 X112.488 Y108.528
M205 X10 Y10
G0 F6000 X111.22 Y107.826
M205 X8 Y8
G1 F1166.8 X113.976 Y110.582 E19.68376
M205 X10 Y10
G0 F6000 X113.617 Y110.789
M205 X8 Y8
G1 F1166.8 X109.88 Y107.052 E19.85954
G1 X109.81 Y106.982
M205 X10 Y10
G0 F6000 X108.444 Y107.312
M205 X8 Y8
G1 F1166.8 X112.542 Y111.411 E20.05232
M205 X10 Y10
G0 F6000 X112.9 Y111.203
M205 X8 Y8
G1 F1166.8 X108.444 Y106.746 E20.26194
M205 X10 Y10
G0 F6000 X108.541 Y106.278
M205 X8 Y8
G1 F1166.8 X113.259 Y110.996 E20.48386
G1 X113.329 Y111.066
M205 X10 Y10
G0 F6000 X112.183 Y111.618
M205 X8 Y8
G1 F1166.8 X108.444 Y107.878 E20.65976
M205 X10 Y10
G0 F6000 X108.444 Y108.444
M205 X8 Y8
G1 F1166.8 X111.824 Y111.824 E20.81874
M205 X10 Y10
G0 F6000 X111.466 Y112.031
M205 X8 Y8
G1 F1166.8 X108.444 Y109.009 E20.96089
M205 X10 Y10
G0 F6000 X108.444 Y109.575
M205 X8 Y8
G1 F1166.8 X111.107 Y112.239 E21.08617
M205 X10 Y10
G0 F6000 X110.749 Y112.446
M205 X8 Y8
G1 F1166.8 X108.444 Y110.141 E21.19459
M205 X10 Y10
G0 F6000 X108.444 Y110.707
M205 X8 Y8
G1 F1166.8 X110.39 Y112.653 E21.28612
M205 X10 Y10
G0 F6000 X110.032 Y112.86
M205 X8 Y8
G1 F1166.8 X108.444 Y111.273 E21.3608
M205 X10 Y10
G0 F6000 X108.444 Y111.838
M205 X8 Y8
G1 F1166.8 X109.673 Y113.067 E21.4186
M205 X10 Y10
G0 F6000 X109.314 Y113.274
M205 X8 Y8
G1 F1166.8 X108.444 Y112.404 E21.45953
M205 X10 Y10
G0 F6000 X108.444 Y112.97
M205 X8 Y8
G1 F1166.8 X108.955 Y113.481 E21.48356
M205 X10 Y10
G0 F6000 X108.597 Y113.688
M205 X8 Y8
G1 F1166.8 X108.444 Y113.535 E21.49076
M205 X10 Y10
G1 F1500 E15.49076
G1 F600 Z0.775
;MESH:NONMESH
G0 F6000 X116.127 Y110 Z0.775
;TIME_ELAPSED:34.722198
;LAYER:3
;MESH:prisma-3eck-mittel.stl
G0 X116.127 Y110 Z0.975
M205 X8 Y8
;TYPE:WALL-INNER
G1 F600 Z0.9
G1 F1500 E21.49076
G1 F1165 X107.875 Y114.765 E21.80769
G1 X107.875 Y105.235 E22.12466
G1 X116.127 Y110 E22.4416
M205 X10 Y10
G0 F6000 X116.926 Y110
M205 X8 Y8
G1 F1165 X116.327 Y110.345 E22.46459
G1 X108.075 Y115.11 E22.78152
G1 X107.475 Y115.457 E22.80457
G1 X107.475 Y104.543 E23.16757
G1 X116.926 Y110 E23.53055
M205 X10 Y10
G0 F6000 X117.725 Y110
M205 X8 Y8
;TYPE:WALL-OUTER
G1 F1165 X107.075 Y116.149 E23.93957
G1 X107.075 Y103.851 E24.34861
G1 X117.725 Y110 E24.75763
M205 X10 Y10
G0 F6000 X117.552 Y110.1
G1 F1500 E18.75763
G1 F600 Z0.975
G0 F6000 X115.346 Y110 Z0.975
M205 X8 Y8
;TYPE:SKIN
G1 F600 Z0.9
G1 F1500 E24.75763
G1 F1165 X108.265 Y114.089 E25.02959
G1 X108.265 Y105.911 E25.30159
G1 X115.346 Y110 E25.57356
M205 X10 Y10
G0 F6000 X114.726 Y109.85
M205 X8 Y8
G1 F1165 X114.017 Y110.559 E25.60691
G1 X113.947 Y110.629
M205 X10 Y10
G0 F6000 X114.368 Y109.643
M205 X8 Y8
G1 F1165 X112.678 Y111.332 E25.68637
G1 X112.608 Y111.402
M205 X10 Y10
G0 F6000 X111.34 Y112.105
M205 X8 Y8
G1 F1165 X114.009 Y109.436 E25.81192
M205 X10 Y10
G0 F6000 X113.651 Y109.228
M205 X8 Y8
G1 F1165 X110.001 Y112.878 E25.9836
G1 X109.931 Y112.948
M205 X10 Y10
G0 F6000 X108.662 Y113.651
M205 X8 Y8
G1 F1165 X113.292 Y109.021 E26.20138
M205 X10 Y10
G0 F6000 X112.933 Y108.815
M205 X8 Y8
G1 F1165 X108.445 Y113.303 E26.41248
M205 X10 Y10
G0 F6000 X108.445 Y112.737
M205 X8 Y8
G1 F1165 X112.574 Y108.608 E26.6067
M205 X10 Y10
G0 F6000 X112.216 Y108.4
M205 X8 Y8
G1 F1165 X108.445 Y112.171 E26.78407
M205 X10 Y10
G0 F6000 X108.445 Y111.606
M205 X8 Y8
G1 F1165 X111.857 Y108.193 E26.94459
M205 X10 Y10
G0 F6000 X111.499 Y107.986
M205 X8 Y8
G1 F1165 X108.445 Y111.04 E27.08824
M205 X10 Y10
G0 F6000 X108.445 Y110.474
M205 X8 Y8
G1 F1165 X111.14 Y107.779 E27.215
M205 X10 Y10
G0 F6000 X110.782 Y107.572
M205 X8 Y8
G1 F1165 X108.444 Y109.909 E27.32495
M205 X10 Y10
G0 F6000 X108.444 Y109.344
M205 X8 Y8
G1 F1165 X110.423 Y107.364 E27.41806
M205 X10 Y10
G0 F6000 X110.065 Y107.157
M205 X8 Y8
G1 F1165 X108.444 Y108.778 E27.49431
M205 X10 Y10
G0 F6000 X108.444 Y108.212
M205 X8 Y8
G1 F1165 X109.706 Y106.951 E27.55365
M205 X10 Y10
G0 F6000 X109.347 Y106.744
M205 X8 Y8
G1 F1165 X108.444 Y107.647 E27.59612
M205 X10 Y10
G0 F6000 X108.444 Y107.081
M205 X8 Y8
G1 F1165 X108.989 Y106.536 E27.62176
M205 X10 Y10
G0 F6000 X108.63 Y106.329
M205 X8 Y8
G1 F1165 X108.444 Y106.515 E27.6305
M205 X10 Y10
G1 F1500 E21.6305
G1 F600 Z0.975
;MESH:NONMESH
G0 F6000 X116.127 Y110 Z0.975
;TIME_ELAPSED:45.564552
;LAYER:4
;MESH:prisma-3eck-mittel.stl
G0 X116.127 Y110 Z1.175
M205 X8 Y8
;TYPE:WALL-INNER
G1 F600 Z1.1
G1 F1500 E27.6305
G1 F1166.8 X107.875 Y114.765 E27.94744
G1 X107.875 Y105.235 E28.26441
G1 X116.127 Y110 E28.58134
M205 X10 Y10
G0 F6000 X116.926 Y110
M205 X8 Y8
G1 F1166.8 X116.327 Y110.345 E28.60433
G1 X108.075 Y115.11 E28.92127
G1 X107.475 Y115.457 E28.94432
G1 X107.475 Y104.543 E29.30732
G1 X116.926 Y110 E29.6703
M205 X10 Y10
G0 F6000 X117.725 Y110
M205 X8 Y8
;TYPE:WALL-OUTER
G1 F1166.8 X107.075 Y116.149 E30.07932
G1 X107.075 Y103.851 E30.48835
G1 X117.725 Y110 E30.89738
M205 X10 Y10
G0 F6000 X117.552 Y110.1
G1 F1500 E24.89738
G1 F600 Z1.175
G0 F6000 X115.346 Y110 Z1.175
M205 X8 Y8
;TYPE:SKIN
G1 F600 Z1.1
G1 F1500 E30.89738
G1 F1166.8 X108.265 Y114.089 E31.16934
G1 X108.265 Y105.911 E31.44134
G1 X115.346 Y110 E31.7133
M205 X10 Y10
G0 F6000 X114.693 Y110.167
M205 X8 Y8
G1 F1166.8 X113.897 Y109.372 E31.75072
G1 X113.827 Y109.302
M205 X10 Y10
G0 F6000 X114.334 Y110.375
M205 X8 Y8
G1 F1166.8 X112.558 Y108.598 E31.83428
G1 X112.488 Y108.528
M205 X10 Y10
G0 F6000 X111.22 Y107.826
M205 X8 Y8
G1 F1166.8 X113.976 Y110.582 E31.96391
M205 X10 Y10
G0 F6000 X113.617 Y110.789
M205 X8 Y8
G1 F1166.8 X109.88 Y107.052 E32.13969
G1 X109.81 Y106.982
M205 X10 Y10
G0 F6000 X108.444 Y107.312
M205 X8 Y8
G1 F1166.8 X112.542 Y111.411 E32.33247
M205 X10 Y10
G0 F6000 X112.9 Y111.203
M205 X8 Y8
G1 F1166.8 X108.444 Y106.746 E32.54209
M205 X10 Y10
G0 F6000 X108.541 Y106.278
M205 X8 Y8
G1 F1166.8 X113.259 Y110.996 E32.76401
G1 X113.329 Y111.066
M205 X10 Y10
G0 F6000 X112.183 Y111.618
M205 X8 Y8
G1 F1166.8 X108.444 Y107.878 E32.93991
M205 X10 Y10
G0 F6000 X108.444 Y108.444
M205 X8 Y8
G1 F1166.8 X111.824 Y111.824 E33.09889
M205 X10 Y10
G0 F6000 X111.466 Y112.031
M205 X8 Y8
G1 F1166.8 X108.444 Y109.009 E33.24104
M205 X10 Y10
G0 F6000 X108.444 Y109.575
M205 X8 Y8
G1 F1166.8 X111.107 Y112.239 E33.36632
M205 X10 Y10
G0 F6000 X110.749 Y112.446
M205 X8 Y8
G1 F1166.8 X108.444 Y110.141 E33.47474
M205 X10 Y10
G0 F6000 X108.444 Y110.707
M205 X8 Y8
G1 F1166.8 X110.39 Y112.653 E33.56628
M205 X10 Y10
G0 F6000 X110.032 Y112.86
M205 X8 Y8
G1 F1166.8 X108.444 Y111.273 E33.64095
M205 X10 Y10
G0 F6000 X108.444 Y111.838
M205 X8 Y8
G1 F1166.8 X109.673 Y113.067 E33.69875
M205 X10 Y10
G0 F6000 X109.314 Y113.274
M205 X8 Y8
G1 F1166.8 X108.444 Y112.404 E33.73968
M205 X10 Y10
G0 F6000 X108.444 Y112.97
M205 X8 Y8
G1 F1166.8 X108.955 Y113.481 E33.76371
M205 X10 Y10
G0 F6000 X108.597 Y113.688
M205 X8 Y8
G1 F1166.8 X108.444 Y113.535 E33.77091
M205 X10 Y10
G1 F1500 E27.77091
G1 F600 Z1.175
;MESH:NONMESH
G0 F6000 X116.127 Y110 Z1.175
;TIME_ELAPSED:56.415609
;LAYER:5
;MESH:prisma-3eck-mittel.stl
G0 X116.127 Y110 Z1.375
M205 X8 Y8
;TYPE:WALL-INNER
G1 F600 Z1.3
G1 F1500 E33.77091
G1 F1165 X107.875 Y114.765 E34.08784
G1 X107.875 Y105.235 E34.40481
G1 X116.127 Y110 E34.72175
M205 X10 Y10
G0 F6000 X116.926 Y110
M205 X8 Y8
G1 F1165 X116.327 Y110.345 E34.74474
G1 X108.075 Y115.11 E35.06167
G1 X107.475 Y115.457 E35.08472
G1 X107.475 Y104.543 E35.44773
G1 X116.926 Y110 E35.8107
M205 X10 Y10
G0 F6000 X117.725 Y110
M205 X8 Y8
;TYPE:WALL-OUTER
G1 F1165 X107.075 Y116.149 E36.21973
G1 X107.075 Y103.851 E36.62876
G1 X117.725 Y110 E37.03778
M205 X10 Y10
G0 F6000 X117.552 Y110.1
G1 F1500 E31.03778
G1 F600 Z1.375
G0 F6000 X115.346 Y110 Z1.375
M205 X8 Y8
;TYPE:SKIN
G1 F600 Z1.3
G1 F1500 E37.03778
G1 F1165 X108.265 Y114.089 E37.30974
G1 X108.265 Y105.911 E37.58174
G1 X115.346 Y110 E37.85371
M205 X10 Y10
G0 F6000 X114.726 Y109.85
M205 X8 Y8
G1 F1165 X114.017 Y110.559 E37.88706
G1 X113.947 Y110.629
M205 X10 Y10
G0 F6000 X114.368 Y109.643
M205 X8 Y8
G1 F1165 X112.678 Y111.332 E37.96653
G1 X112.608 Y111.402
M205 X10 Y10
G0 F6000 X111.34 Y112.105
M205 X8 Y8
G1 F1165 X114.009 Y109.436 E38.09207
M205 X10 Y10
G0 F6000 X113.651 Y109.228
M205 X8 Y8
G1 F1165 X110.001 Y112.878 E38.26375
G1 X109.931 Y112.948
M205 X10 Y10
G0 F6000 X108.662 Y113.651
M205 X8 Y8
G1 F1165 X113.292 Y109.021 E38.48153
M205 X10 Y10
G0 F6000 X112.933 Y108.815
M205 X8 Y8
G1 F1165 X108.445 Y113.303 E38.69263
M205 X10 Y10
G0 F6000 X108.445 Y112.737
M205 X8 Y8
