;FLAVOR:Marlin
;TIME:6030
;Filament used: 5.34022m
;Layer height: 0.2
;MINX:93.95
;MINY:88.695
;MINZ:0.3
;MAXX:130.85
;MAXY:131.305
;MAXZ:40.175
;Generated with Cura_SteamEngine 4.13.1
M140 S60
M105
M190 S60
M104 S200
M105
M109 S200
M82 ;absolute extrusion mode
G21                                        ; metric values
G90                                        ; absolute positioning
M82                                        ; set extruder to absolute mode
M107                                       ; start with the fan off
M190 S60                                   ; preheat and wait for bed
M109 S210                                  ; preheat and wait for hotend
M300 S1000 P500                            ; BEEP heating done
G28 X0 Y10 Z0                              ; move X/Y to min endstops
M420 S1                                    ; enable mesh leveling
G0 Z0.15                                   ; lift nozzle a bit
G0 X2                                      ; move away from clips
G92 E0                                     ; zero the extruded length
G1 Y50 E25 F500                            ; Extrude 25mm of filament in a 5cm line.
G92 E0                                     ; zero the extruded length again
G1 E-2 F500                                ; Retract a little
G1 Y120 F4000                              ; Quickly wipe away from the filament line
G92 E0
G92 E0
G1 F1500 E-6
;LAYER_COUNT:200
;LAYER:0
M106 S76.5
M205 X10 Y10
G1 F600 Z0.375
;MESH:prisma-3eck-mittel.stl
G0 F6000 X129.252 Y110 Z0.375
M205 X8 Y8
;TYPE:WALL-INNER
G1 F600 Z0.3
G1 F1500 E0
G1 F1200 X94.75 Y129.921 E1.98763
G1 X94.75 Y90.079 E3.97536
G1 X129.252 Y110 E5.96299
M205 X10 Y10
G0 F6000 X130.051 Y110
M205 X8 Y8
G1 F1200 X129.452 Y110.345 E5.99747
G1 X94.95 Y130.266 E7.98511
G1 X94.35 Y130.613 E8.01968
G1 X94.35 Y89.387 E10.07646
G1 X130.051 Y110 E12.13316
M205 X10 Y10
G0 F6000 X130.85 Y110
M205 X8 Y8
;TYPE:WALL-OUTER
G1 F1200 X93.95 Y131.305 E14.25892
G1 X93.95 Y88.695 E16.38474
G1 X130.85 Y110 E18.5105
M205 X10 Y10
G0 F6000 X130.677 Y110.1
G1 F1500 E12.5105
G1 F600 Z0.375
G0 F6000 X128.471 Y110 Z0.375
M205 X8 Y8
;TYPE:SKIN
G1 F600 Z0.3
G1 F1500 E18.5105
G1 F1200 X95.14 Y129.245 E20.43068
G1 X95.14 Y90.755 E22.35095
G1 X128.471 Y110 E24.27113
M205 X10 Y10
G0 F6000 X127.745 Y110.209
M205 X8 Y8
G1 F1200 X126.751 Y109.215 E24.34126
G1 X126.681 Y109.145
M205 X10 Y10
G0 F6000 X127.387 Y110.416
M205 X8 Y8
G1 F1200 X125.413 Y108.442 E24.48053
G1 X125.343 Y108.372
M205 X10 Y10
G0 F6000 X124.074 Y107.669
M205 X8 Y8
G1 F1200 X127.028 Y110.623 E24.68895
M205 X10 Y10
G0 F6000 X126.669 Y110.83
M205 X8 Y8
G1 F1200 X122.736 Y106.896 E24.96648
G1 X122.666 Y106.826
M205 X10 Y10
G0 F6000 X121.397 Y106.123
M205 X8 Y8
G1 F1200 X126.311 Y111.037 E25.31319
M205 X10 Y10
G0 F6000 X125.952 Y111.244
M205 X8 Y8
G1 F1200 X120.058 Y105.351 E25.72901
G1 X119.988 Y105.281
M205 X10 Y10
G0 F6000 X118.72 Y104.578
M205 X8 Y8
G1 F1200 X125.594 Y111.452 E26.21401
M205 X10 Y10
G0 F6000 X125.235 Y111.659
M205 X8 Y8
G1 F1200 X117.381 Y103.805 E26.76815
G1 X117.311 Y103.735
M205 X10 Y10
G0 F6000 X116.043 Y103.032
M205 X8 Y8
G1 F1200 X124.876 Y111.865 E27.39137
M205 X10 Y10
G0 F6000 X124.517 Y112.072
M205 X8 Y8
G1 F1200 X114.704 Y102.259 E28.08373
G1 X114.634 Y102.189
M205 X10 Y10
G0 F6000 X113.366 Y101.486
M205 X8 Y8
G1 F1200 X124.159 Y112.28 E28.84527
M205 X10 Y10
G0 F6000 X123.8 Y112.487
M205 X8 Y8
G1 F1200 X112.027 Y100.713 E29.67595
G1 X111.957 Y100.643
M205 X10 Y10
G0 F6000 X110.689 Y99.941
M205 X8 Y8
G1 F1200 X123.442 Y112.694 E30.57574
M205 X10 Y10
G0 F6000 X123.083 Y112.901
M205 X8 Y8
G1 F1200 X109.35 Y99.168 E31.54468
G1 X109.28 Y99.098
M205 X10 Y10
G0 F6000 X108.011 Y98.395
M205 X8 Y8
G1 F1200 X122.725 Y113.108 E32.5828
M205 X10 Y10
G0 F6000 X122.366 Y113.315
M205 X8 Y8
G1 F1200 X106.673 Y97.622 E33.69002
G1 X106.603 Y97.552
M205 X10 Y10
G0 F6000 X105.334 Y96.849
M205 X8 Y8
G1 F1200 X122.007 Y113.522 E34.8664
M205 X10 Y10
G0 F6000 X121.649 Y113.729
M205 X8 Y8
G1 F1200 X103.996 Y96.076 E36.11191
G1 X103.926 Y96.006
M205 X10 Y10
G0 F6000 X102.657 Y95.303
M205 X8 Y8
G1 F1200 X121.29 Y113.936 E37.42657
M205 X10 Y10
G0 F6000 X120.932 Y114.144
M205 X8 Y8
G1 F1200 X101.319 Y94.53 E38.81041
G1 X101.249 Y94.46
M205 X10 Y10
G0 F6000 X99.98 Y93.758
M205 X8 Y8
G1 F1200 X120.573 Y114.351 E40.26335
M205 X10 Y10
G0 F6000 X120.214 Y114.557
M205 X8 Y8
G1 F1200 X98.642 Y92.985 E41.78538
G1 X98.572 Y92.915
M205 X10 Y10
G0 F6000 X97.303 Y92.212
M205 X8 Y8
G1 F1200 X119.856 Y114.764 E43.37658
M205 X10 Y10
G0 F6000 X119.497 Y114.972
M205 X8 Y8
G1 F1200 X95.964 Y91.439 E45.03696
M205 X10 Y10
G0 F6000 X95.319 Y91.359
M205 X8 Y8
G1 F1200 X119.139 Y115.179 E46.71759
M205 X10 Y10
G0 F6000 X118.78 Y115.386
M205 X8 Y8
G1 F1200 X95.319 Y91.925 E48.37289
M205 X10 Y10
G0 F6000 X95.319 Y92.49
M205 X8 Y8
G1 F1200 X118.422 Y115.593 E50.00293
M205 X10 Y10
G0 F6000 X118.062 Y115.8
M205 X8 Y8
G1 F1200 X95.319 Y93.056 E51.6076
M205 X10 Y10
G0 F6000 X95.319 Y93.622
M205 X8 Y8
G1 F1200 X117.704 Y116.007 E53.18699
M205 X10 Y10
G0 F6000 X117.345 Y116.214
M205 X8 Y8
G1 F1200 X95.319 Y94.188 E54.74104
M205 X10 Y10
G0 F6000 X95.319 Y94.753
M205 X8 Y8
G1 F1200 X116.987 Y116.421 E56.26983
M205 X10 Y10
G0 F6000 X116.628 Y116.628
M205 X8 Y8
G1 F1200 X95.319 Y95.319 E57.7733
M205 X10 Y10
G0 F6000 X95.319 Y95.885
M205 X8 Y8
G1 F1200 X116.27 Y116.835 E59.25147
M205 X10 Y10
G0 F6000 X115.911 Y117.043
M205 X8 Y8
G1 F1200 X95.319 Y96.45 E60.70438
M205 X10 Y10
G0 F6000 X95.319 Y97.016
M205 X8 Y8
G1 F1200 X115.552 Y117.249 E62.13193
M205 X10 Y10
G0 F6000 X115.194 Y117.456
M205 X8 Y8
G1 F1200 X95.319 Y97.582 E63.53418
M205 X10 Y10
G0 F6000 X95.319 Y98.147
M205 X8 Y8
G1 F1200 X114.835 Y117.663 E64.91114
M205 X10 Y10
G0 F6000 X114.477 Y117.871
M205 X8 Y8
G1 F1200 X95.319 Y98.713 E66.26284
M205 X10 Y10
G0 F6000 X95.319 Y99.279
M205 X8 Y8
G1 F1200 X114.118 Y118.078 E67.58921
M205 X10 Y10
G0 F6000 X113.76 Y118.285
M205 X8 Y8
G1 F1200 X95.319 Y99.844 E68.89033
M205 X10 Y10
G0 F6000 X95.319 Y100.41
M205 X8 Y8
G1 F1200 X113.4 Y118.492 E70.16607
M205 X10 Y10
G0 F6000 X113.042 Y118.699
M205 X8 Y8
G1 F1200 X95.319 Y100.976 E71.41653
M205 X10 Y10
G0 F6000 X95.319 Y101.541
M205 X8 Y8
G1 F1200 X112.683 Y118.906 E72.64169
M205 X10 Y10
G0 F6000 X112.325 Y119.113
M205 X8 Y8
G1 F1200 X95.319 Y102.107 E73.84155
M205 X10 Y10
G0 F6000 X95.319 Y102.673
M205 X8 Y8
G1 F1200 X111.966 Y119.32 E75.01609
M205 X10 Y10
G0 F6000 X111.608 Y119.527
M205 X8 Y8
G1 F1200 X95.319 Y103.239 E76.16533
M205 X10 Y10
G0 F6000 X95.319 Y103.804
M205 X8 Y8
G1 F1200 X111.249 Y119.735 E77.28931
M205 X10 Y10
G0 F6000 X110.89 Y119.941
M205 X8 Y8
G1 F1200 X95.319 Y104.37 E78.38793
M205 X10 Y10
G0 F6000 X95.319 Y104.936
M205 X8 Y8
G1 F1200 X110.532 Y120.148 E79.46125
M205 X10 Y10
G0 F6000 X110.173 Y120.355
M205 X8 Y8
G1 F1200 X95.319 Y105.501 E80.50928
M205 X10 Y10
G0 F6000 X95.319 Y106.067
M205 X8 Y8
G1 F1200 X109.815 Y120.563 E81.53205
M205 X10 Y10
G0 F6000 X109.456 Y120.77
M205 X8 Y8
G1 F1200 X95.319 Y106.633 E82.5295
M205 X10 Y10
G0 F6000 X95.319 Y107.198
M205 X8 Y8
G1 F1200 X109.098 Y120.977 E83.50168
M205 X10 Y10
G0 F6000 X108.738 Y121.183
M205 X8 Y8
G1 F1200 X95.319 Y107.764 E84.44846
M205 X10 Y10
G0 F6000 X95.319 Y108.33
M205 X8 Y8
G1 F1200 X108.38 Y121.391 E85.36999
M205 X10 Y10
G0 F6000 X108.021 Y121.598
M205 X8 Y8
G1 F1200 X95.319 Y108.895 E86.26622
M205 X10 Y10
G0 F6000 X95.319 Y109.461
M205 X8 Y8
G1 F1200 X107.663 Y121.805 E87.13715
M205 X10 Y10
G0 F6000 X107.304 Y122.012
M205 X8 Y8
G1 F1200 X95.319 Y110.027 E87.98276
M205 X10 Y10
G0 F6000 X95.319 Y110.592
M205 X8 Y8
G1 F1200 X106.946 Y122.219 E88.80311
M205 X10 Y10
G0 F6000 X106.587 Y122.426
M205 X8 Y8
G1 F1200 X95.319 Y111.158 E89.59812
M205 X10 Y10
G0 F6000 X95.319 Y111.724
M205 X8 Y8
G1 F1200 X106.228 Y122.633 E90.36781
M205 X10 Y10
G0 F6000 X105.87 Y122.84
M205 X8 Y8
G1 F1200 X95.319 Y112.289 E91.11224
M205 X10 Y10
G0 F6000 X95.319 Y112.855
M205 X8 Y8
G1 F1200 X105.511 Y123.047 E91.83134
M205 X10 Y10
G0 F6000 X105.153 Y123.255
M205 X8 Y8
G1 F1200 X95.319 Y113.421 E92.52519
M205 X10 Y10
G0 F6000 X95.319 Y113.987
M205 X8 Y8
G1 F1200 X104.794 Y123.462 E93.1937
M205 X10 Y10
G0 F6000 X104.436 Y123.669
M205 X8 Y8
G1 F1200 X95.319 Y114.552 E93.83695
M205 X10 Y10
G0 F6000 X95.319 Y115.118
M205 X8 Y8
G1 F1200 X104.076 Y123.875 E94.45481
M205 X10 Y10
G0 F6000 X103.718 Y124.083
M205 X8 Y8
G1 F1200 X95.319 Y115.684 E95.0474
M205 X10 Y10
G0 F6000 X95.319 Y116.249
M205 X8 Y8
G1 F1200 X103.359 Y124.29 E95.6147
M205 X10 Y10
G0 F6000 X103.001 Y124.497
M205 X8 Y8
G1 F1200 X95.319 Y116.815 E96.15671
M205 X10 Y10
G0 F6000 X95.319 Y117.381
M205 X8 Y8
G1 F1200 X102.642 Y124.704 E96.67339
M205 X10 Y10
G0 F6000 X102.284 Y124.911
M205 X8 Y8
G1 F1200 X95.319 Y117.946 E97.1648
M205 X10 Y10
G0 F6000 X95.319 Y118.512
M205 X8 Y8
G1 F1200 X101.925 Y125.118 E97.63089
M205 X10 Y10
G0 F6000 X101.566 Y125.325
M205 X8 Y8
G1 F1200 X95.319 Y119.078 E98.07165
M205 X10 Y10
G0 F6000 X95.319 Y119.643
M205 X8 Y8
G1 F1200 X101.208 Y125.532 E98.48715
M205 X10 Y10
G0 F6000 X100.849 Y125.739
M205 X8 Y8
G1 F1200 X95.319 Y120.209 E98.87732
M205 X10 Y10
G0 F6000 X95.319 Y120.775
M205 X8 Y8
G1 F1200 X100.491 Y125.947 E99.24224
M205 X10 Y10
G0 F6000 X100.132 Y126.154
M205 X8 Y8
G1 F1200 X95.319 Y121.34 E99.58186
M205 X10 Y10
G0 F6000 X95.319 Y121.906
M205 X8 Y8
G1 F1200 X99.773 Y126.36 E99.89611
M205 X10 Y10
G0 F6000 X99.414 Y126.567
M205 X8 Y8
G1 F1200 X95.319 Y122.472 E100.18503
M205 X10 Y10
G0 F6000 X95.319 Y123.037
M205 X8 Y8
G1 F1200 X99.056 Y126.775 E100.44873
M205 X10 Y10
G0 F6000 X98.697 Y126.982
M205 X8 Y8
G1 F1200 X95.319 Y123.603 E100.68711
M205 X10 Y10
G0 F6000 X95.319 Y124.169
M205 X8 Y8
G1 F1200 X98.339 Y127.189 E100.90018
M205 X10 Y10
G0 F6000 X97.98 Y127.396
M205 X8 Y8
G1 F1200 X95.319 Y124.735 E101.08793
M205 X10 Y10
G0 F6000 X95.319 Y125.3
M205 X8 Y8
G1 F1200 X97.622 Y127.603 E101.25042
M205 X10 Y10
G0 F6000 X97.263 Y127.81
M205 X8 Y8
G1 F1200 X95.319 Y125.866 E101.38758
M205 X10 Y10
G0 F6000 X95.319 Y126.432
M205 X8 Y8
G1 F1200 X96.904 Y128.017 E101.49941
M205 X10 Y10
G0 F6000 X96.546 Y128.224
M205 X8 Y8
G1 F1200 X95.319 Y126.997 E101.58598
M205 X10 Y10
G0 F6000 X95.319 Y127.563
M205 X8 Y8
G1 F1200 X96.187 Y128.431 E101.64722
M205 X10 Y10
G0 F6000 X95.829 Y128.638
M205 X8 Y8
G1 F1200 X95.319 Y128.129 E101.68317
M205 X10 Y10
G0 F6000 X95.319 Y128.694
M205 X8 Y8
G1 F1200 X95.47 Y128.846 E101.69386
M205 X10 Y10
G1 F1500 E95.69386
G1 F600 Z0.375
;MESH:NONMESH
G0 F6000 X129.252 Y110 Z0.375
;TIME_ELAPSED:108.186396
;LAYER:1
M106 S127.5
;MESH:prisma-3eck-mittel.stl
G0 X129.252 Y110 Z0.575
M205 X8 Y8
;TYPE:WALL-INNER
G1 F600 Z0.5
G1 F1500 E101.69386
G1 F1350 X94.75 Y129.921 E103.01895
G1 X94.75 Y90.079 E104.3441
G1 X129.252 Y110 E105.66919
M205 X10 Y10
G0 F6000 X130.051 Y110
M205 X8 Y8
G1 F1350 X129.452 Y110.345 E105.69218
G1 X94.95 Y130.266 E107.01726
G1 X94.35 Y130.613 E107.04032
G1 X94.35 Y89.387 E108.4115
G1 X130.051 Y110 E109.78263
M205 X10 Y10
G0 F6000 X130.85 Y110
M205 X8 Y8
;TYPE:WALL-OUTER
G1 F1350 X93.95 Y131.305 E111.19981
G1 X93.95 Y88.695 E112.61702
G1 X130.85 Y110 E114.0342
M205 X10 Y10
G0 F6000 X130.677 Y110.1
G1 F1500 E108.0342
G1 F600 Z0.575
G0 F6000 X128.471 Y110 Z0.575
M205 X8 Y8
;TYPE:SKIN
G1 F600 Z0.5
G1 F1500 E114.0342
G1 F1350 X95.14 Y129.245 E115.31431
G1 X95.14 Y90.755 E116.5945
G1 X128.471 Y110 E117.87461
M205 X10 Y10
G0 F6000 X127.779 Y109.808
M205 X8 Y8
G1 F1350 X126.874 Y110.713 E117.91718
G1 X126.804 Y110.783
M205 X10 Y10
G0 F6000 X127.42 Y109.601
M205 X8 Y8
G1 F1350 X125.536 Y111.485 E118.0058
G1 X125.466 Y111.555
M205 X10 Y10
G0 F6000 X124.197 Y112.258
M205 X8 Y8
G1 F1350 X127.062 Y109.394 E118.14053
M205 X10 Y10
G0 F6000 X126.703 Y109.187
M205 X8 Y8
G1 F1350 X122.859 Y113.031 E118.32134
G1 X122.789 Y113.101
M205 X10 Y10
G0 F6000 X121.52 Y113.804
M205 X8 Y8
G1 F1350 X126.345 Y108.98 E118.54827
M205 X10 Y10
G0 F6000 X125.986 Y108.772
M205 X8 Y8
G1 F1350 X120.181 Y114.578 E118.82135
G1 X120.111 Y114.648
M205 X10 Y10
G0 F6000 X118.842 Y115.351
M205 X8 Y8
G1 F1350 X125.628 Y108.565 E119.14054
M205 X10 Y10
G0 F6000 X125.268 Y108.359
M205 X8 Y8
G1 F1350 X117.504 Y116.123 E119.50573
G1 X117.434 Y116.193
M205 X10 Y10
G0 F6000 X116.165 Y116.896
M205 X8 Y8
G1 F1350 X124.91 Y108.151 E119.91707
M205 X10 Y10
G0 F6000 X124.551 Y107.944
M205 X8 Y8
G1 F1350 X114.827 Y117.669 E120.37448
G1 X114.757 Y117.739
M205 X10 Y10
G0 F6000 X113.488 Y118.442
M205 X8 Y8
G1 F1350 X124.193 Y107.737 E120.87801
M205 X10 Y10
G0 F6000 X123.834 Y107.53
M205 X8 Y8
G1 F1350 X112.149 Y119.215 E121.42764
G1 X112.079 Y119.285
M205 X10 Y10
G0 F6000 X110.81 Y119.988
M205 X8 Y8
G1 F1350 X123.476 Y107.323 E122.02339
M205 X10 Y10
G0 F6000 X123.117 Y107.116
M205 X8 Y8
G1 F1350 X109.472 Y120.761 E122.66521
G1 X109.402 Y120.831
M205 X10 Y10
G0 F6000 X108.133 Y121.534
M205 X8 Y8
G1 F1350 X122.758 Y106.909 E123.35312
M205 X10 Y10
G0 F6000 X122.4 Y106.702
M205 X8 Y8
G1 F1350 X106.795 Y122.307 E124.08713
G1 X106.725 Y122.377
M205 X10 Y10
G0 F6000 X105.456 Y123.08
M205 X8 Y8
G1 F1350 X122.041 Y106.495 E124.86724
M205 X10 Y10
G0 F6000 X121.683 Y106.288
M205 X8 Y8
G1 F1350 X104.117 Y123.853 E125.69347
G1 X104.047 Y123.923
M205 X10 Y10
G0 F6000 X102.779 Y124.626
M205 X8 Y8
G1 F1350 X121.324 Y106.08 E126.56579
M205 X10 Y10
G0 F6000 X120.965 Y105.874
M205 X8 Y8
G1 F1350 X101.44 Y125.399 E127.48419
G1 X101.37 Y125.469
M205 X10 Y10
G0 F6000 X100.101 Y126.172
M205 X8 Y8
G1 F1350 X120.606 Y105.667 E128.44868
M205 X10 Y10
G0 F6000 X120.248 Y105.46
M205 X8 Y8
G1 F1350 X98.763 Y126.945 E129.45927
G1 X98.693 Y127.015
M205 X10 Y10
G0 F6000 X97.424 Y127.718
M205 X8 Y8
G1 F1350 X119.889 Y105.252 E130.51598
M205 X10 Y10
G0 F6000 X119.531 Y105.045
M205 X8 Y8
G1 F1350 X96.085 Y128.491 E131.6188
M205 X10 Y10
G0 F6000 X95.32 Y128.691
M205 X8 Y8
G1 F1350 X119.172 Y104.838 E132.74075
M205 X10 Y10
G0 F6000 X118.813 Y104.632
M205 X8 Y8
G1 F1350 X95.32 Y128.125 E133.84579
M205 X10 Y10
G0 F6000 X95.32 Y127.559
M205 X8 Y8
G1 F1350 X118.455 Y104.424 E134.93399
M205 X10 Y10
G0 F6000 X118.096 Y104.217
M205 X8 Y8
G1 F1350 X95.32 Y126.994 E136.00533
M205 X10 Y10
G0 F6000 X95.32 Y126.428
M205 X8 Y8
G1 F1350 X117.738 Y104.01 E137.0598
M205 X10 Y10
G0 F6000 X117.379 Y103.803
M205 X8 Y8
G1 F1350 X95.32 Y125.862 E138.09739
M205 X10 Y10
G0 F6000 X95.32 Y125.297
M205 X8 Y8
G1 F1350 X117.021 Y103.596 E139.11814
M205 X10 Y10
G0 F6000 X116.662 Y103.389
M205 X8 Y8
G1 F1350 X95.32 Y124.731 E140.122
M205 X10 Y10
G0 F6000 X95.32 Y124.165
M205 X8 Y8
G1 F1350 X116.303 Y103.182 E141.10897
M205 X10 Y10
G0 F6000 X115.945 Y102.975
M205 X8 Y8
G1 F1350 X95.32 Y123.6 E142.07911
M205 X10 Y10
G0 F6000 X95.32 Y123.034
M205 X8 Y8
G1 F1350 X115.586 Y102.768 E143.03236
M205 X10 Y10
G0 F6000 X115.227 Y102.56
M205 X8 Y8
G1 F1350 X95.32 Y122.468 E143.96875
M205 X10 Y10
G0 F6000 X95.32 Y121.903
M205 X8 Y8
G1 F1350 X114.869 Y102.353 E144.8883
M205 X10 Y10
G0 F6000 X114.51 Y102.147
M205 X8 Y8
G1 F1350 X95.32 Y121.337 E145.79094
M205 X10 Y10
G0 F6000 X95.32 Y120.771
M205 X8 Y8
G1 F1350 X114.151 Y101.94 E146.67669
M205 X10 Y10
G0 F6000 X113.793 Y101.732
M205 X8 Y8
G1 F1350 X95.32 Y120.206 E147.54563
M205 X10 Y10
G0 F6000 X95.32 Y119.64
M205 X8 Y8
G1 F1350 X113.434 Y101.525 E148.39768
M205 X10 Y10
G0 F6000 X113.076 Y101.318
M205 X8 Y8
G1 F1350 X95.32 Y119.074 E149.23286
M205 X10 Y10
G0 F6000 X95.32 Y118.508
M205 X8 Y8
G1 F1350 X112.717 Y101.111 E150.05117
M205 X10 Y10
G0 F6000 X112.358 Y100.904
M205 X8 Y8
G1 F1350 X95.32 Y117.943 E150.85261
M205 X10 Y10
G0 F6000 X95.32 Y117.377
M205 X8 Y8
G1 F1350 X112 Y100.697 E151.63718
M205 X10 Y10
G0 F6000 X111.641 Y100.49
M205 X8 Y8
G1 F1350 X95.32 Y116.811 E152.40487
M205 X10 Y10
G0 F6000 X95.32 Y116.246
M205 X8 Y8
G1 F1350 X111.283 Y100.283 E153.15572
M205 X10 Y10
G0 F6000 X110.924 Y100.076
M205 X8 Y8
G1 F1350 X95.32 Y115.68 E153.88969
M205 X10 Y10
G0 F6000 X95.32 Y115.114
M205 X8 Y8
G1 F1350 X110.566 Y99.868 E154.60681
M205 X10 Y10
G0 F6000 X110.206 Y99.662
M205 X8 Y8
G1 F1350 X95.32 Y114.549 E155.30703
M205 X10 Y10
G0 F6000 X95.32 Y113.983
M205 X8 Y8
