;FLAVOR:Marlin
;TIME:5026
;Filament used: 3.8708m
;Layer height: 0.2
;MINX:96.851
;MINY:94.589
;MINZ:0.3
;MAXX:128.148
;MAXY:125.714
;MAXZ:27.1
;Generated with Cura_SteamEngine 4.13.1
M140 S60
M105
M190 S60
M104 S200
M105
M109 S200
M82 ;absolute extrusion mode
G21                                        ; metric values
G90                                        ; absolute positioning
M82                                        ; set extruder to absolute mode
M107                                       ; start with the fan off
M190 S60                                   ; preheat and wait for bed
M109 S210                                  ; preheat and wait for hotend
M300 S1000 P500                            ; BEEP heating done
G28 X0 Y10 Z0                              ; move X/Y to min endstops
M420 S1                                    ; enable mesh leveling
G0 Z0.15                                   ; lift nozzle a bit
G0 X2                                      ; move away from clips
G92 E0                                     ; zero the extruded length
G1 Y50 E25 F500                            ; Extrude 25mm of filament in a 5cm line.
G92 E0                                     ; zero the extruded length again
G1 E-2 F500                                ; Retract a little
G1 Y120 F4000                              ; Quickly wipe away from the filament line
G92 E0
G92 E0
G1 F1500 E-6
;LAYER_COUNT:137
;LAYER:0
M106 S76.5
M205 X10 Y10
G1 F600 Z0.375
;MESH:pyra-4kant-gross.stl
G0 F6000 X127.348 Y124.913 Z0.375
M205 X8 Y8
;TYPE:WALL-INNER
G1 F600 Z0.3
G1 F1500 E0
G1 F1200 X97.651 Y124.914 E1.48159
G1 X97.652 Y95.389 E2.9546
G1 X127.348 Y95.39 E4.43614
G1 X127.348 Y124.913 E5.90905
M205 X10 Y10
G0 F6000 X127.748 Y125.313
M205 X8 Y8
G1 F1200 X97.251 Y125.314 E7.43055
G1 X97.252 Y94.989 E8.94347
G1 X127.748 Y94.99 E10.46492
G1 X127.748 Y125.313 E11.97774
M205 X10 Y10
G0 F6000 X128.148 Y125.713
M205 X8 Y8
;TYPE:WALL-OUTER
G1 F1200 X96.851 Y125.714 E13.53915
G1 X96.852 Y94.589 E15.09199
G1 X128.148 Y94.59 E16.65335
G1 X128.148 Y125.713 E18.20608
M205 X10 Y10
G0 F6000 X127.948 Y125.713
G0 X127.708 Y125.273
G0 X126.958 Y124.523
M205 X8 Y8
;TYPE:SKIN
G1 F1200 X98.041 Y124.524 E19.64876
G1 X98.042 Y95.779 E21.08285
G1 X126.958 Y95.78 E22.52548
G1 X126.958 Y124.523 E23.95947
M205 X10 Y10
G1 F1500 E17.95947
G1 F600 Z0.375
G0 F6000 X126.777 Y96.23 Z0.375
M205 X8 Y8
G1 F600 Z0.3
G1 F1500 E23.95947
G1 F1200 X126.507 Y95.96 E23.97852
M205 X10 Y10
G0 F6000 X125.941 Y95.96
M205 X8 Y8
G1 F1200 X126.777 Y96.795 E24.03747
M205 X10 Y10
G0 F6000 X126.777 Y97.361
M205 X8 Y8
G1 F1200 X125.375 Y95.96 E24.13635
M205 X10 Y10
G0 F6000 X124.81 Y95.96
M205 X8 Y8
G1 F1200 X126.777 Y97.927 E24.27514
M205 X10 Y10
G0 F6000 X126.777 Y98.492
M205 X8 Y8
G1 F1200 X124.244 Y95.96 E24.45382
M205 X10 Y10
G0 F6000 X123.678 Y95.96
M205 X8 Y8
G1 F1200 X126.777 Y99.058 E24.67243
M205 X10 Y10
G0 F6000 X126.777 Y99.624
M205 X8 Y8
G1 F1200 X123.112 Y95.96 E24.93098
M205 X10 Y10
G0 F6000 X122.547 Y95.96
M205 X8 Y8
G1 F1200 X126.777 Y100.189 E25.2294
M205 X10 Y10
G0 F6000 X126.777 Y100.755
M205 X8 Y8
G1 F1200 X121.981 Y95.96 E25.56775
M205 X10 Y10
G0 F6000 X121.415 Y95.96
M205 X8 Y8
G1 F1200 X126.777 Y101.321 E25.94603
M205 X10 Y10
G0 F6000 X126.777 Y101.887
M205 X8 Y8
G1 F1200 X120.85 Y95.96 E26.36421
M205 X10 Y10
G0 F6000 X120.284 Y95.96
M205 X8 Y8
G1 F1200 X126.777 Y102.452 E26.82229
M205 X10 Y10
G0 F6000 X126.777 Y103.018
M205 X8 Y8
G1 F1200 X119.718 Y95.96 E27.32031
M205 X10 Y10
G0 F6000 X119.153 Y95.96
M205 X8 Y8
G1 F1200 X126.777 Y103.584 E27.85822
M205 X10 Y10
G0 F6000 X126.777 Y104.149
M205 X8 Y8
G1 F1200 X118.587 Y95.96 E28.43603
M205 X10 Y10
G0 F6000 X118.021 Y95.96
M205 X8 Y8
G1 F1200 X126.777 Y104.715 E29.05378
M205 X10 Y10
G0 F6000 X126.777 Y105.281
M205 X8 Y8
G1 F1200 X117.456 Y95.96 E29.71143
M205 X10 Y10
G0 F6000 X116.89 Y95.96
M205 X8 Y8
G1 F1200 X126.777 Y105.846 E30.40897
M205 X10 Y10
G0 F6000 X126.777 Y106.412
M205 X8 Y8
G1 F1200 X116.324 Y95.96 E31.14646
M205 X10 Y10
G0 F6000 X115.759 Y95.96
M205 X8 Y8
G1 F1200 X126.777 Y106.978 E31.92383
M205 X10 Y10
G0 F6000 X126.777 Y107.543
M205 X8 Y8
G1 F1200 X115.193 Y95.96 E32.74111
M205 X10 Y10
G0 F6000 X114.627 Y95.96
M205 X8 Y8
G1 F1200 X126.777 Y108.109 E33.59833
M205 X10 Y10
G0 F6000 X126.777 Y108.675
M205 X8 Y8
G1 F1200 X114.061 Y95.96 E34.49547
M205 X10 Y10
G0 F6000 X113.496 Y95.96
M205 X8 Y8
G1 F1200 X126.777 Y109.24 E35.43248
M205 X10 Y10
G0 F6000 X126.777 Y109.806
M205 X8 Y8
G1 F1200 X112.93 Y95.96 E36.40943
M205 X10 Y10
G0 F6000 X112.364 Y95.959
M205 X8 Y8
G1 F1200 X126.777 Y110.372 E37.42634
M205 X10 Y10
G0 F6000 X126.777 Y110.937
M205 X8 Y8
G1 F1200 X111.798 Y95.959 E38.48316
M205 X10 Y10
G0 F6000 X111.232 Y95.959
M205 X8 Y8
G1 F1200 X126.777 Y111.503 E39.57991
M205 X10 Y10
G0 F6000 X126.777 Y112.069
M205 X8 Y8
G1 F1200 X110.667 Y95.959 E40.71655
M205 X10 Y10
G0 F6000 X110.101 Y95.959
M205 X8 Y8
G1 F1200 X126.777 Y112.635 E41.89314
M205 X10 Y10
G0 F6000 X126.777 Y113.2
M205 X8 Y8
G1 F1200 X109.535 Y95.959 E43.10962
M205 X10 Y10
G0 F6000 X108.97 Y95.959
M205 X8 Y8
G1 F1200 X126.777 Y113.766 E44.366
M205 X10 Y10
G0 F6000 X126.777 Y114.332
M205 X8 Y8
G1 F1200 X108.404 Y95.959 E45.66231
M205 X10 Y10
G0 F6000 X107.838 Y95.959
M205 X8 Y8
G1 F1200 X126.777 Y114.897 E46.99853
M205 X10 Y10
G0 F6000 X126.777 Y115.463
M205 X8 Y8
G1 F1200 X107.273 Y95.959 E48.37464
M205 X10 Y10
G0 F6000 X106.707 Y95.959
M205 X8 Y8
G1 F1200 X126.777 Y116.029 E49.79068
M205 X10 Y10
G0 F6000 X126.777 Y116.594
M205 X8 Y8
G1 F1200 X106.141 Y95.959 E51.24663
M205 X10 Y10
G0 F6000 X105.575 Y95.959
M205 X8 Y8
G1 F1200 X126.777 Y117.16 E52.74251
M205 X10 Y10
G0 F6000 X126.777 Y117.726
M205 X8 Y8
G1 F1200 X105.01 Y95.959 E54.27829
M205 X10 Y10
G0 F6000 X104.444 Y95.959
M205 X8 Y8
G1 F1200 X126.777 Y118.291 E55.85397
M205 X10 Y10
G0 F6000 X126.777 Y118.857
M205 X8 Y8
G1 F1200 X103.878 Y95.959 E57.46958
M205 X10 Y10
G0 F6000 X103.313 Y95.959
M205 X8 Y8
G1 F1200 X126.777 Y119.423 E59.12509
M205 X10 Y10
G0 F6000 X126.777 Y119.988
M205 X8 Y8
G1 F1200 X102.747 Y95.959 E60.8205
M205 X10 Y10
G0 F6000 X102.181 Y95.959
M205 X8 Y8
G1 F1200 X126.777 Y120.554 E62.55585
M205 X10 Y10
G0 F6000 X126.777 Y121.12
M205 X8 Y8
G1 F1200 X101.616 Y95.959 E64.33109
M205 X10 Y10
G0 F6000 X101.05 Y95.959
M205 X8 Y8
G1 F1200 X126.777 Y121.686 E66.14627
M205 X10 Y10
G0 F6000 X126.777 Y122.251
M205 X8 Y8
G1 F1200 X100.484 Y95.959 E68.00135
M205 X10 Y10
G0 F6000 X99.919 Y95.959
M205 X8 Y8
G1 F1200 X126.777 Y122.817 E69.89633
M205 X10 Y10
G0 F6000 X126.777 Y123.383
M205 X8 Y8
G1 F1200 X99.353 Y95.959 E71.83124
M205 X10 Y10
G0 F6000 X98.787 Y95.959
M205 X8 Y8
G1 F1200 X126.777 Y123.948 E73.80605
M205 X10 Y10
G0 F6000 X126.606 Y124.343
M205 X8 Y8
G1 F1200 X98.221 Y95.958 E75.80877
M205 X10 Y10
G0 F6000 X98.221 Y96.524
M205 X8 Y8
G1 F1200 X126.04 Y124.343 E77.77155
M205 X10 Y10
G0 F6000 X125.474 Y124.343
M205 X8 Y8
G1 F1200 X98.221 Y97.09 E79.69439
M205 X10 Y10
G0 F6000 X98.221 Y97.655
M205 X8 Y8
G1 F1200 X124.908 Y124.343 E81.57734
M205 X10 Y10
G0 F6000 X124.343 Y124.343
M205 X8 Y8
G1 F1200 X98.221 Y98.221 E83.42039
M205 X10 Y10
G0 F6000 X98.221 Y98.787
M205 X8 Y8
G1 F1200 X123.777 Y124.343 E85.2235
M205 X10 Y10
G0 F6000 X123.211 Y124.343
M205 X8 Y8
G1 F1200 X98.221 Y99.352 E86.98672
M205 X10 Y10
G0 F6000 X98.221 Y99.918
M205 X8 Y8
G1 F1200 X122.646 Y124.343 E88.71003
M205 X10 Y10
G0 F6000 X122.08 Y124.343
M205 X8 Y8
G1 F1200 X98.221 Y100.484 E90.39341
M205 X10 Y10
G0 F6000 X98.221 Y101.049
M205 X8 Y8
G1 F1200 X121.514 Y124.343 E92.0369
M205 X10 Y10
G0 F6000 X120.949 Y124.343
M205 X8 Y8
G1 F1200 X98.221 Y101.615 E93.64048
M205 X10 Y10
G0 F6000 X98.221 Y102.181
M205 X8 Y8
G1 F1200 X120.383 Y124.343 E95.20413
M205 X10 Y10
G0 F6000 X119.817 Y124.343
M205 X8 Y8
G1 F1200 X98.221 Y102.746 E96.72788
M205 X10 Y10
G0 F6000 X98.221 Y103.312
M205 X8 Y8
G1 F1200 X119.252 Y124.343 E98.21173
M205 X10 Y10
G0 F6000 X118.686 Y124.343
M205 X8 Y8
G1 F1200 X98.221 Y103.878 E99.65564
M205 X10 Y10
G0 F6000 X98.221 Y104.443
M205 X8 Y8
G1 F1200 X118.12 Y124.343 E101.05966
M205 X10 Y10
G0 F6000 X117.555 Y124.343
M205 X8 Y8
G1 F1200 X98.221 Y105.009 E102.42378
M205 X10 Y10
G0 F6000 X98.221 Y105.575
M205 X8 Y8
G1 F1200 X116.989 Y124.343 E103.74796
M205 X10 Y10
G0 F6000 X116.423 Y124.343
M205 X8 Y8
G1 F1200 X98.221 Y106.14 E105.03225
M205 X10 Y10
G0 F6000 X98.221 Y106.706
M205 X8 Y8
G1 F1200 X115.858 Y124.343 E106.27663
M205 X10 Y10
G0 F6000 X115.292 Y124.343
M205 X8 Y8
G1 F1200 X98.221 Y107.272 E107.48108
M205 X10 Y10
G0 F6000 X98.221 Y107.838
M205 X8 Y8
G1 F1200 X114.726 Y124.343 E108.6456
M205 X10 Y10
G0 F6000 X114.16 Y124.343
M205 X8 Y8
G1 F1200 X98.221 Y108.403 E109.77022
M205 X10 Y10
G0 F6000 X98.221 Y108.969
M205 X8 Y8
G1 F1200 X113.595 Y124.343 E110.85494
M205 X10 Y10
G0 F6000 X113.029 Y124.343
M205 X8 Y8
G1 F1200 X98.221 Y109.535 E111.89972
M205 X10 Y10
G0 F6000 X98.221 Y110.1
M205 X8 Y8
G1 F1200 X112.463 Y124.343 E112.90461
M205 X10 Y10
G0 F6000 X111.898 Y124.343
M205 X8 Y8
G1 F1200 X98.221 Y110.666 E113.86959
M205 X10 Y10
G0 F6000 X98.221 Y111.232
M205 X8 Y8
G1 F1200 X111.332 Y124.343 E114.79465
M205 X10 Y10
G0 F6000 X110.766 Y124.343
M205 X8 Y8
G1 F1200 X98.221 Y111.797 E115.6798
M205 X10 Y10
G0 F6000 X98.221 Y112.363
M205 X8 Y8
G1 F1200 X110.201 Y124.343 E116.52505
M205 X10 Y10
G0 F6000 X109.635 Y124.343
M205 X8 Y8
G1 F1200 X98.221 Y112.929 E117.33037
M205 X10 Y10
G0 F6000 X98.221 Y113.494
M205 X8 Y8
G1 F1200 X109.069 Y124.343 E118.09579
M205 X10 Y10
G0 F6000 X108.504 Y124.343
M205 X8 Y8
G1 F1200 X98.221 Y114.06 E118.82131
M205 X10 Y10
G0 F6000 X98.221 Y114.626
M205 X8 Y8
G1 F1200 X107.938 Y124.343 E119.5069
M205 X10 Y10
G0 F6000 X107.372 Y124.343
M205 X8 Y8
G1 F1200 X98.221 Y115.191 E120.15259
M205 X10 Y10
G0 F6000 X98.221 Y115.757
M205 X8 Y8
G1 F1200 X106.807 Y124.343 E120.75838
M205 X10 Y10
G0 F6000 X106.241 Y124.343
M205 X8 Y8
G1 F1200 X98.221 Y116.323 E121.32423
M205 X10 Y10
G0 F6000 X98.221 Y116.888
M205 X8 Y8
G1 F1200 X105.675 Y124.343 E121.85019
M205 X10 Y10
G0 F6000 X105.11 Y124.343
M205 X8 Y8
G1 F1200 X98.221 Y117.454 E122.33624
M205 X10 Y10
G0 F6000 X98.221 Y118.02
M205 X8 Y8
G1 F1200 X104.544 Y124.343 E122.78236
M205 X10 Y10
G0 F6000 X103.978 Y124.343
M205 X8 Y8
G1 F1200 X98.221 Y118.586 E123.18855
M205 X10 Y10
G0 F6000 X98.221 Y119.151
M205 X8 Y8
G1 F1200 X103.412 Y124.343 E123.55484
M205 X10 Y10
G0 F6000 X102.847 Y124.343
M205 X8 Y8
G1 F1200 X98.221 Y119.717 E123.88123
M205 X10 Y10
G0 F6000 X98.221 Y120.283
M205 X8 Y8
G1 F1200 X102.281 Y124.343 E124.16768
M205 X10 Y10
G0 F6000 X101.715 Y124.343
M205 X8 Y8
G1 F1200 X98.221 Y120.848 E124.41424
M205 X10 Y10
G0 F6000 X98.221 Y121.414
M205 X8 Y8
G1 F1200 X101.15 Y124.343 E124.6209
M205 X10 Y10
G0 F6000 X100.584 Y124.343
M205 X8 Y8
G1 F1200 X98.221 Y121.98 E124.78762
M205 X10 Y10
G0 F6000 X98.221 Y122.545
M205 X8 Y8
G1 F1200 X100.018 Y124.343 E124.91444
M205 X10 Y10
G0 F6000 X99.453 Y124.343
M205 X8 Y8
G1 F1200 X98.221 Y123.111 E125.00137
M205 X10 Y10
G0 F6000 X98.221 Y123.677
M205 X8 Y8
G1 F1200 X98.887 Y124.343 E125.04836
M205 X10 Y10
G0 F6000 X98.321 Y124.343
M205 X8 Y8
G1 F1200 X98.221 Y124.242 E125.05545
M205 X10 Y10
G1 F1500 E119.05545
G1 F600 Z0.375
;MESH:NONMESH
G0 F6000 X127.203 Y124.768 Z0.375
;TIME_ELAPSED:132.033950
;LAYER:1
M106 S127.5
;MESH:pyra-4kant-gross.stl
G0 X127.203 Y124.768 Z0.575
M205 X8 Y8
;TYPE:WALL-INNER
G1 F600 Z0.5
G1 F1500 E125.05545
G1 F1350 X97.796 Y124.769 E126.03353
G1 X97.798 Y95.534 E127.00589
G1 X127.203 Y95.535 E127.9839
G1 X127.203 Y124.768 E128.9562
M205 X10 Y10
G0 F6000 X127.603 Y125.168
M205 X8 Y8
G1 F1350 X97.396 Y125.169 E129.96088
G1 X97.398 Y95.134 E130.95985
G1 X127.603 Y95.135 E131.96448
G1 X127.603 Y125.168 E132.96338
M205 X10 Y10
G0 F6000 X128.003 Y125.568
M205 X8 Y8
;TYPE:WALL-OUTER
G1 F1350 X96.996 Y125.569 E133.99467
G1 X96.998 Y94.734 E135.02025
G1 X128.003 Y94.735 E136.05148
G1 X128.003 Y125.568 E137.07699
M205 X10 Y10
G0 F6000 X127.803 Y125.568
G0 X127.563 Y125.128
G0 X126.813 Y124.378
M205 X8 Y8
;TYPE:SKIN
G1 F1350 X98.186 Y124.379 E138.02913
G1 X98.188 Y95.924 E138.97555
G1 X126.813 Y95.925 E139.92762
G1 X126.813 Y124.378 E140.87397
M205 X10 Y10
G0 F6000 X126.632 Y123.966
M205 X8 Y8
G1 F1350 X126.4 Y124.198 E140.88488
M205 X10 Y10
G0 F6000 X125.834 Y124.198
M205 X8 Y8
G1 F1350 X126.632 Y123.4 E140.92242
M205 X10 Y10
G0 F6000 X126.632 Y122.835
M205 X8 Y8
G1 F1350 X125.268 Y124.198 E140.98655
M205 X10 Y10
G0 F6000 X124.703 Y124.198
M205 X8 Y8
G1 F1350 X126.632 Y122.269 E141.07728
M205 X10 Y10
G0 F6000 X126.632 Y121.703
M205 X8 Y8
G1 F1350 X124.137 Y124.198 E141.19464
M205 X10 Y10
G0 F6000 X123.571 Y124.198
M205 X8 Y8
G1 F1350 X126.632 Y121.137 E141.33862
M205 X10 Y10
G0 F6000 X126.632 Y120.572
M205 X8 Y8
G1 F1350 X123.006 Y124.198 E141.50918
M205 X10 Y10
G0 F6000 X122.44 Y124.198
M205 X8 Y8
G1 F1350 X126.632 Y120.006 E141.70636
M205 X10 Y10
G0 F6000 X126.632 Y119.44
M205 X8 Y8
G1 F1350 X121.874 Y124.198 E141.93016
M205 X10 Y10
G0 F6000 X121.309 Y124.198
M205 X8 Y8
G1 F1350 X126.632 Y118.875 E142.18054
M205 X10 Y10
G0 F6000 X126.632 Y118.309
M205 X8 Y8
G1 F1350 X120.743 Y124.198 E142.45754
M205 X10 Y10
G0 F6000 X120.177 Y124.198
M205 X8 Y8
G1 F1350 X126.632 Y117.743 E142.76116
M205 X10 Y10
G0 F6000 X126.632 Y117.178
M205 X8 Y8
G1 F1350 X119.612 Y124.198 E143.09136
M205 X10 Y10
G0 F6000 X119.046 Y124.198
M205 X8 Y8
G1 F1350 X126.632 Y116.612 E143.44818
M205 X10 Y10
G0 F6000 X126.632 Y116.046
M205 X8 Y8
G1 F1350 X118.48 Y124.198 E143.83163
M205 X10 Y10
G0 F6000 X117.915 Y124.198
M205 X8 Y8
G1 F1350 X126.632 Y115.481 E144.24165
M205 X10 Y10
G0 F6000 X126.632 Y114.915
M205 X8 Y8
G1 F1350 X117.349 Y124.198 E144.67829
M205 X10 Y10
G0 F6000 X116.783 Y124.198
M205 X8 Y8
G1 F1350 X126.632 Y114.349 E145.14156
M205 X10 Y10
G0 F6000 X126.632 Y113.784
M205 X8 Y8
G1 F1350 X116.217 Y124.198 E145.63142
M205 X10 Y10
G0 F6000 X115.652 Y124.198
M205 X8 Y8
G1 F1350 X126.632 Y113.218 E146.14789
M205 X10 Y10
G0 F6000 X126.632 Y112.652
M205 X8 Y8
G1 F1350 X115.086 Y124.198 E146.69098
M205 X10 Y10
G0 F6000 X114.52 Y124.198
M205 X8 Y8
G1 F1350 X126.632 Y112.087 E147.26067
M205 X10 Y10
G0 F6000 X126.632 Y111.521
M205 X8 Y8
G1 F1350 X113.955 Y124.198 E147.85695
M205 X10 Y10
G0 F6000 X113.389 Y124.198
M205 X8 Y8
G1 F1350 X126.632 Y110.955 E148.47986
M205 X10 Y10
G0 F6000 X126.632 Y110.389
M205 X8 Y8
G1 F1350 X112.823 Y124.198 E149.1294
M205 X10 Y10
G0 F6000 X112.258 Y124.198
M205 X8 Y8
G1 F1350 X126.632 Y109.824 E149.80551
M205 X10 Y10
G0 F6000 X126.632 Y109.258
M205 X8 Y8
G1 F1350 X111.692 Y124.198 E150.50824
M205 X10 Y10
G0 F6000 X111.126 Y124.198
M205 X8 Y8
G1 F1350 X126.632 Y108.692 E151.23759
M205 X10 Y10
G0 F6000 X126.632 Y108.127
M205 X8 Y8
G1 F1350 X110.561 Y124.198 E151.99352
M205 X10 Y10
G0 F6000 X109.995 Y124.198
M205 X8 Y8
G1 F1350 X126.632 Y107.561 E152.77608
M205 X10 Y10
G0 F6000 X126.632 Y106.995
M205 X8 Y8
G1 F1350 X109.429 Y124.198 E153.58525
M205 X10 Y10
G0 F6000 X108.864 Y124.198
M205 X8 Y8
G1 F1350 X126.632 Y106.43 E154.421
M205 X10 Y10
G0 F6000 X126.632 Y105.864
M205 X8 Y8
G1 F1350 X108.298 Y124.198 E155.28338
M205 X10 Y10
G0 F6000 X107.732 Y124.198
M205 X8 Y8
G1 F1350 X126.632 Y105.298 E156.17238
M205 X10 Y10
G0 F6000 X126.632 Y104.733
M205 X8 Y8
G1 F1350 X107.166 Y124.198 E157.08798
M205 X10 Y10
G0 F6000 X106.601 Y124.198
M205 X8 Y8
G1 F1350 X126.632 Y104.167 E158.03017
M205 X10 Y10
G0 F6000 X126.632 Y103.601
M205 X8 Y8
G1 F1350 X106.035 Y124.198 E158.99899
M205 X10 Y10
G0 F6000 X105.469 Y124.198
M205 X8 Y8
G1 F1350 X126.632 Y103.036 E159.99441
M205 X10 Y10
G0 F6000 X126.632 Y102.47
M205 X8 Y8
G1 F1350 X104.904 Y124.198 E161.01643
M205 X10 Y10
G0 F6000 X104.338 Y124.198
M205 X8 Y8
G1 F1350 X126.632 Y101.904 E162.06507
M205 X10 Y10
G0 F6000 X126.632 Y101.339
M205 X8 Y8
G1 F1350 X103.772 Y124.198 E163.14031
M205 X10 Y10
G0 F6000 X103.207 Y124.198
M205 X8 Y8
G1 F1350 X126.632 Y100.773 E164.24215
M205 X10 Y10
G0 F6000 X126.632 Y100.207
M205 X8 Y8
G1 F1350 X102.641 Y124.198 E165.37061
M205 X10 Y10
G0 F6000 X102.075 Y124.198
M205 X8 Y8
