;FLAVOR:Marlin
;TIME:271
;Filament used: 0.119478m
;Layer height: 0.2
;MINX:107.807
;MINY:105.281
;MINZ:0.3
;MAXX:117.193
;MAXY:114.669
;MAXZ:8.3
;Generated with Cura_SteamEngine 4.13.1
M140 S60
M105
M190 S60
M104 S200
M105
M109 S200
M82 ;absolute extrusion mode
G21                                        ; metric values
G90                                        ; absolute positioning
M82                                        ; set extruder to absolute mode
M107                                       ; start with the fan off
M190 S60                                   ; preheat and wait for bed
M109 S210                                  ; preheat and wait for hotend
M300 S1000 P500                            ; BEEP heating done
G28 X0 Y10 Z0                              ; move X/Y to min endstops
M420 S1                                    ; enable mesh leveling
G0 Z0.15                                   ; lift nozzle a bit
G0 X2                                      ; move away from clips
G92 E0                                     ; zero the extruded length
G1 Y50 E25 F500                            ; Extrude 25mm of filament in a 5cm line.
G92 E0                                     ; zero the extruded length again
G1 E-2 F500                                ; Retract a little
G1 Y120 F4000                              ; Quickly wipe away from the filament line
G92 E0
G92 E0
G1 F1500 E-6
;LAYER_COUNT:43
;LAYER:0
M106 S76.5
M205 X10 Y10
G1 F600 Z0.375
;MESH:pyramide-4kant-klein.stl
G0 F6000 X116.393 Y113.869 Z0.375
M205 X8 Y8
;TYPE:WALL-INNER
G1 F600 Z0.3
G1 F1500 E0
G1 F1200 X108.607 Y113.869 E0.38845
G1 X108.608 Y106.081 E0.77699
G1 X116.392 Y106.081 E1.16534
G1 X116.393 Y113.869 E1.55388
M205 X10 Y10
G0 F6000 X116.793 Y114.269
M205 X8 Y8
G1 F1200 X108.207 Y114.269 E1.98224
G1 X108.208 Y105.681 E2.41069
G1 X116.792 Y105.681 E2.83895
G1 X116.793 Y114.269 E3.26741
M205 X10 Y10
G0 F6000 X117.193 Y114.669
M205 X8 Y8
;TYPE:WALL-OUTER
G1 F1200 X107.807 Y114.669 E3.73568
G1 X107.808 Y105.281 E4.20405
G1 X117.192 Y105.281 E4.67222
G1 X117.193 Y114.669 E5.14059
M205 X10 Y10
G0 F6000 X116.993 Y114.669
G0 X116.752 Y114.228
G0 X116.003 Y113.479
M205 X8 Y8
;TYPE:SKIN
G1 F1200 X108.997 Y113.479 E5.49012
G1 X108.998 Y106.471 E5.83975
G1 X116.002 Y106.471 E6.18918
G1 X116.003 Y113.479 E6.53881
M205 X10 Y10
G1 F1500 E0.53881
G1 F600 Z0.375
G0 F6000 X109.338 Y113.298 Z0.375
M205 X8 Y8
G1 F600 Z0.3
G1 F1500 E6.53881
G1 F1200 X109.177 Y113.137 E6.55017
M205 X10 Y10
G0 F6000 X109.177 Y112.571
M205 X8 Y8
G1 F1200 X109.904 Y113.298 E6.60146
M205 X10 Y10
G0 F6000 X110.469 Y113.298
M205 X8 Y8
G1 F1200 X109.177 Y112.005 E6.69266
M205 X10 Y10
G0 F6000 X109.177 Y111.44
M205 X8 Y8
G1 F1200 X111.035 Y113.298 E6.82375
M205 X10 Y10
G0 F6000 X111.601 Y113.298
M205 X8 Y8
G1 F1200 X109.177 Y110.874 E6.99477
M205 X10 Y10
G0 F6000 X109.177 Y110.308
M205 X8 Y8
G1 F1200 X112.166 Y113.298 E7.2057
M205 X10 Y10
G0 F6000 X112.732 Y113.298
M205 X8 Y8
G1 F1200 X109.177 Y109.742 E7.45656
M205 X10 Y10
G0 F6000 X109.177 Y109.177
M205 X8 Y8
G1 F1200 X113.298 Y113.298 E7.74732
M205 X10 Y10
G0 F6000 X113.863 Y113.298
M205 X8 Y8
G1 F1200 X109.177 Y108.611 E8.07798
M205 X10 Y10
G0 F6000 X109.177 Y108.045
M205 X8 Y8
G1 F1200 X114.429 Y113.298 E8.44857
M205 X10 Y10
G0 F6000 X114.995 Y113.298
M205 X8 Y8
G1 F1200 X109.177 Y107.48 E8.85906
M205 X10 Y10
G0 F6000 X109.177 Y106.914
M205 X8 Y8
G1 F1200 X115.561 Y113.298 E9.30948
M205 X10 Y10
G0 F6000 X115.821 Y112.993
M205 X8 Y8
G1 F1200 X109.479 Y106.651 E9.75695
M205 X10 Y10
G0 F6000 X110.045 Y106.651
M205 X8 Y8
G1 F1200 X115.821 Y112.427 E10.16448
M205 X10 Y10
G0 F6000 X115.821 Y111.862
M205 X8 Y8
G1 F1200 X110.611 Y106.651 E10.5321
M205 X10 Y10
G0 F6000 X111.176 Y106.651
M205 X8 Y8
G1 F1200 X115.821 Y111.296 E10.85983
M205 X10 Y10
G0 F6000 X115.821 Y110.73
M205 X8 Y8
G1 F1200 X111.742 Y106.651 E11.14763
M205 X10 Y10
G0 F6000 X112.308 Y106.651
M205 X8 Y8
G1 F1200 X115.821 Y110.165 E11.39553
M205 X10 Y10
G0 F6000 X115.821 Y109.599
M205 X8 Y8
G1 F1200 X112.874 Y106.651 E11.60349
M205 X10 Y10
G0 F6000 X113.439 Y106.651
M205 X8 Y8
G1 F1200 X115.821 Y109.033 E11.77155
M205 X10 Y10
G0 F6000 X115.821 Y108.468
M205 X8 Y8
G1 F1200 X114.005 Y106.651 E11.89971
M205 X10 Y10
G0 F6000 X114.571 Y106.651
M205 X8 Y8
G1 F1200 X115.821 Y107.902 E11.98794
M205 X10 Y10
G0 F6000 X115.821 Y107.336
M205 X8 Y8
G1 F1200 X115.136 Y106.651 E12.03627
M205 X10 Y10
G0 F6000 X115.702 Y106.651
M205 X8 Y8
G1 F1200 X115.821 Y106.771 E12.04471
M205 X10 Y10
G1 F1500 E6.04471
G1 F600 Z0.375
;MESH:NONMESH
G0 F6000 X116.248 Y113.724 Z0.375
;TIME_ELAPSED:16.054305
;LAYER:1
M106 S127.5
;MESH:pyramide-4kant-klein.stl
G0 X116.248 Y113.724 Z0.575
M205 X8 Y8
;TYPE:WALL-INNER
G1 F600 Z0.5
G1 F1500 E12.04471
G1 F1350 X108.752 Y113.724 E12.29402
G1 X108.752 Y106.225 E12.54344
G1 X116.248 Y106.225 E12.79276
G1 X116.248 Y113.724 E13.04218
M205 X10 Y10
G0 F6000 X116.648 Y114.124
M205 X8 Y8
G1 F1350 X108.352 Y114.124 E13.3181
G1 X108.352 Y105.825 E13.59413
G1 X116.648 Y105.825 E13.87006
G1 X116.648 Y114.124 E14.14608
M205 X10 Y10
G0 F6000 X117.048 Y114.524
M205 X8 Y8
;TYPE:WALL-OUTER
G1 F1350 X107.952 Y114.524 E14.44862
G1 X107.952 Y105.425 E14.75125
G1 X117.048 Y105.425 E15.05378
G1 X117.048 Y114.524 E15.35642
M205 X10 Y10
G0 F6000 X116.848 Y114.524
G0 X116.608 Y114.084
G0 X115.858 Y113.334
M205 X8 Y8
;TYPE:SKIN
G1 F1350 X109.142 Y113.334 E15.57979
G1 X109.142 Y106.615 E15.80327
G1 X115.858 Y106.615 E16.02664
G1 X115.858 Y113.334 E16.25012
M205 X10 Y10
G0 F6000 X115.677 Y112.859
M205 X8 Y8
G1 F1350 X115.382 Y113.154 E16.26399
M205 X10 Y10
G0 F6000 X114.817 Y113.154
M205 X8 Y8
G1 F1350 X115.677 Y112.294 E16.30445
M205 X10 Y10
G0 F6000 X115.677 Y111.728
M205 X8 Y8
G1 F1350 X114.251 Y113.154 E16.37152
M205 X10 Y10
G0 F6000 X113.685 Y113.154
M205 X8 Y8
G1 F1350 X115.677 Y111.162 E16.46522
M205 X10 Y10
G0 F6000 X115.677 Y110.597
M205 X8 Y8
G1 F1350 X113.12 Y113.154 E16.58549
M205 X10 Y10
G0 F6000 X112.554 Y113.154
M205 X8 Y8
G1 F1350 X115.677 Y110.031 E16.73239
M205 X10 Y10
G0 F6000 X115.677 Y109.465
M205 X8 Y8
G1 F1350 X111.988 Y113.154 E16.90591
M205 X10 Y10
G0 F6000 X111.423 Y113.154
M205 X8 Y8
G1 F1350 X115.677 Y108.9 E17.106
M205 X10 Y10
G0 F6000 X115.677 Y108.334
M205 X8 Y8
G1 F1350 X110.857 Y113.154 E17.33272
M205 X10 Y10
G0 F6000 X110.291 Y113.154
M205 X8 Y8
G1 F1350 X115.677 Y107.768 E17.58606
M205 X10 Y10
G0 F6000 X115.677 Y107.203
M205 X8 Y8
G1 F1350 X109.726 Y113.154 E17.86598
M205 X10 Y10
G0 F6000 X109.322 Y112.992
M205 X8 Y8
G1 F1350 X115.519 Y106.795 E18.15747
M205 X10 Y10
G0 F6000 X114.953 Y106.795
M205 X8 Y8
G1 F1350 X109.322 Y112.426 E18.42233
M205 X10 Y10
G0 F6000 X109.322 Y111.86
M205 X8 Y8
G1 F1350 X114.387 Y106.795 E18.66057
M205 X10 Y10
G0 F6000 X113.822 Y106.795
M205 X8 Y8
G1 F1350 X109.322 Y111.295 E18.87224
M205 X10 Y10
G0 F6000 X109.322 Y110.729
M205 X8 Y8
G1 F1350 X113.256 Y106.795 E19.05728
M205 X10 Y10
G0 F6000 X112.69 Y106.795
M205 X8 Y8
G1 F1350 X109.322 Y110.163 E19.2157
M205 X10 Y10
G0 F6000 X109.321 Y109.598
M205 X8 Y8
G1 F1350 X112.125 Y106.795 E19.34757
M205 X10 Y10
G0 F6000 X111.559 Y106.795
M205 X8 Y8
G1 F1350 X109.321 Y109.033 E19.45284
M205 X10 Y10
G0 F6000 X109.321 Y108.467
M205 X8 Y8
G1 F1350 X110.993 Y106.795 E19.53148
M205 X10 Y10
G0 F6000 X110.428 Y106.795
M205 X8 Y8
G1 F1350 X109.321 Y107.901 E19.58353
M205 X10 Y10
G0 F6000 X109.321 Y107.335
M205 X8 Y8
G1 F1350 X109.862 Y106.795 E19.60895
M205 X10 Y10
G1 F1500 E13.60895
G1 F600 Z0.575
;MESH:NONMESH
G0 F6000 X116.133 Y113.609 Z0.575
;TIME_ELAPSED:27.344755
;LAYER:2
M106 S178.5
;MESH:pyramide-4kant-klein.stl
G0 X116.133 Y113.609 Z0.775
M205 X8 Y8
;TYPE:WALL-INNER
G1 F600 Z0.7
G1 F1500 E19.60895
G1 F1373.5 X108.867 Y113.609 E19.85062
G1 X108.867 Y106.341 E20.09236
G1 X116.133 Y106.341 E20.33403
G1 X116.133 Y113.609 E20.57576
M205 X10 Y10
G0 F6000 X116.533 Y114.009
M205 X8 Y8
G1 F1373.5 X108.467 Y114.009 E20.84404
G1 X108.467 Y105.941 E21.11238
G1 X116.533 Y105.941 E21.38066
G1 X116.533 Y114.009 E21.649
M205 X10 Y10
G0 F6000 X116.933 Y114.409
M205 X8 Y8
;TYPE:WALL-OUTER
G1 F1373.5 X108.067 Y114.409 E21.94388
G1 X108.067 Y105.541 E22.23883
G1 X116.933 Y105.541 E22.53372
G1 X116.933 Y114.409 E22.82867
M205 X10 Y10
G0 F6000 X116.733 Y114.409
G0 X116.493 Y113.969
G0 X115.743 Y113.219
M205 X8 Y8
;TYPE:SKIN
G1 F1373.5 X109.257 Y113.219 E23.04439
G1 X109.257 Y106.731 E23.26019
G1 X115.743 Y106.731 E23.47591
G1 X115.743 Y113.219 E23.6917
M205 X10 Y10
G1 F1500 E17.6917
G1 F600 Z0.775
G0 F6000 X109.643 Y113.038 Z0.775
M205 X8 Y8
G1 F600 Z0.7
G1 F1500 E23.6917
G1 F1373.5 X109.436 Y112.83 E23.70146
M205 X10 Y10
G0 F6000 X109.436 Y112.265
M205 X8 Y8
G1 F1373.5 X110.209 Y113.038 E23.73782
M205 X10 Y10
G0 F6000 X110.775 Y113.038
M205 X8 Y8
G1 F1373.5 X109.436 Y111.699 E23.8008
M205 X10 Y10
G0 F6000 X109.436 Y111.133
M205 X8 Y8
G1 F1373.5 X111.341 Y113.038 E23.89041
M205 X10 Y10
G0 F6000 X111.906 Y113.038
M205 X8 Y8
G1 F1373.5 X109.436 Y110.568 E24.00659
M205 X10 Y10
G0 F6000 X109.436 Y110.002
M205 X8 Y8
G1 F1373.5 X112.472 Y113.038 E24.1494
M205 X10 Y10
G0 F6000 X113.038 Y113.038
M205 X8 Y8
G1 F1373.5 X109.436 Y109.436 E24.31882
M205 X10 Y10
G0 F6000 X109.436 Y108.871
M205 X8 Y8
G1 F1373.5 X113.604 Y113.038 E24.51485
M205 X10 Y10
G0 F6000 X114.17 Y113.038
M205 X8 Y8
G1 F1373.5 X109.436 Y108.305 E24.7375
M205 X10 Y10
G0 F6000 X109.436 Y107.739
M205 X8 Y8
G1 F1373.5 X114.735 Y113.038 E24.98675
M205 X10 Y10
G0 F6000 X115.301 Y113.038
M205 X8 Y8
G1 F1373.5 X109.436 Y107.174 E25.2626
M205 X10 Y10
G0 F6000 X109.739 Y106.911
M205 X8 Y8
G1 F1373.5 X115.562 Y112.734 E25.53649
M205 X10 Y10
G0 F6000 X115.562 Y112.168
M205 X8 Y8
G1 F1373.5 X110.305 Y106.911 E25.78376
M205 X10 Y10
G0 F6000 X110.87 Y106.911
M205 X8 Y8
G1 F1373.5 X115.562 Y111.602 E26.00444
M205 X10 Y10
G0 F6000 X115.562 Y111.036
M205 X8 Y8
G1 F1373.5 X111.436 Y106.911 E26.19849
M205 X10 Y10
G0 F6000 X112.002 Y106.911
M205 X8 Y8
G1 F1373.5 X115.562 Y110.471 E26.36594
M205 X10 Y10
G0 F6000 X115.562 Y109.905
M205 X8 Y8
G1 F1373.5 X112.567 Y106.911 E26.50679
M205 X10 Y10
G0 F6000 X113.133 Y106.911
M205 X8 Y8
G1 F1373.5 X115.562 Y109.339 E26.62102
M205 X10 Y10
G0 F6000 X115.562 Y108.774
M205 X8 Y8
G1 F1373.5 X113.699 Y106.911 E26.70865
M205 X10 Y10
G0 F6000 X114.264 Y106.911
M205 X8 Y8
G1 F1373.5 X115.562 Y108.208 E26.76968
M205 X10 Y10
G0 F6000 X115.562 Y107.642
M205 X8 Y8
G1 F1373.5 X114.83 Y106.911 E26.80409
M205 X10 Y10
G0 F6000 X115.396 Y106.911
M205 X8 Y8
G1 F1373.5 X115.562 Y107.077 E26.8119
M205 X10 Y10
G1 F1500 E20.8119
G1 F600 Z0.775
;MESH:NONMESH
G0 F6000 X116.017 Y113.493 Z0.775
;TIME_ELAPSED:38.286407
;LAYER:3
;MESH:pyramide-4kant-klein.stl
G0 X116.017 Y113.493 Z0.975
M205 X8 Y8
;TYPE:WALL-INNER
G1 F600 Z0.9
G1 F1500 E26.8119
G1 F1261.9 X108.983 Y113.493 E27.04585
G1 X108.983 Y106.456 E27.2799
G1 X116.017 Y106.456 E27.51385
G1 X116.017 Y113.493 E27.7479
M205 X10 Y10
G0 F6000 X116.417 Y113.893
M205 X8 Y8
G1 F1261.9 X108.583 Y113.893 E28.00846
G1 X108.583 Y106.056 E28.26912
G1 X116.417 Y106.056 E28.52968
G1 X116.417 Y113.893 E28.79034
M205 X10 Y10
G0 F6000 X116.817 Y114.293
M205 X8 Y8
;TYPE:WALL-OUTER
G1 F1261.9 X108.183 Y114.293 E29.07751
G1 X108.183 Y105.656 E29.36478
G1 X116.817 Y105.656 E29.65195
G1 X116.817 Y114.293 E29.93922
M205 X10 Y10
G0 F6000 X116.617 Y114.293
G0 X116.377 Y113.853
G0 X115.627 Y113.103
M205 X8 Y8
;TYPE:SKIN
G1 F1261.9 X109.373 Y113.103 E30.14722
G1 X109.373 Y106.846 E30.35533
G1 X115.627 Y106.846 E30.56334
G1 X115.627 Y113.103 E30.77145
M205 X10 Y10
G0 F6000 X115.445 Y112.525
M205 X8 Y8
G1 F1261.9 X115.048 Y112.922 E30.79012
M205 X10 Y10
G0 F6000 X114.482 Y112.922
M205 X8 Y8
G1 F1261.9 X115.445 Y111.959 E30.83542
M205 X10 Y10
G0 F6000 X115.445 Y111.394
M205 X8 Y8
G1 F1261.9 X113.917 Y112.922 E30.90729
M205 X10 Y10
G0 F6000 X113.351 Y112.922
M205 X8 Y8
G1 F1261.9 X115.445 Y110.828 E31.00579
M205 X10 Y10
G0 F6000 X115.445 Y110.262
M205 X8 Y8
G1 F1261.9 X112.785 Y112.922 E31.13091
M205 X10 Y10
G0 F6000 X112.219 Y112.922
M205 X8 Y8
G1 F1261.9 X115.445 Y109.697 E31.28262
M205 X10 Y10
G0 F6000 X115.445 Y109.131
M205 X8 Y8
G1 F1261.9 X111.654 Y112.922 E31.46094
M205 X10 Y10
G0 F6000 X111.088 Y112.922
M205 X8 Y8
G1 F1261.9 X115.445 Y108.565 E31.66588
M205 X10 Y10
G0 F6000 X115.445 Y107.999
M205 X8 Y8
G1 F1261.9 X110.522 Y112.922 E31.89744
M205 X10 Y10
G0 F6000 X109.957 Y112.922
M205 X8 Y8
G1 F1261.9 X115.445 Y107.434 E32.15558
M205 X10 Y10
G0 F6000 X115.288 Y107.026
M205 X8 Y8
G1 F1261.9 X109.553 Y112.76 E32.42532
M205 X10 Y10
G0 F6000 X109.553 Y112.195
M205 X8 Y8
G1 F1261.9 X114.722 Y107.026 E32.66845
M205 X10 Y10
G0 F6000 X114.156 Y107.026
M205 X8 Y8
G1 F1261.9 X109.553 Y111.629 E32.88496
M205 X10 Y10
G0 F6000 X109.553 Y111.063
M205 X8 Y8
G1 F1261.9 X113.591 Y107.026 E33.07487
M205 X10 Y10
G0 F6000 X113.025 Y107.026
M205 X8 Y8
G1 F1261.9 X109.553 Y110.498 E33.23818
M205 X10 Y10
G0 F6000 X109.552 Y109.933
M205 X8 Y8
G1 F1261.9 X112.459 Y107.026 E33.37492
M205 X10 Y10
G0 F6000 X111.893 Y107.026
M205 X8 Y8
G1 F1261.9 X109.552 Y109.367 E33.48503
M205 X10 Y10
G0 F6000 X109.552 Y108.801
M205 X8 Y8
G1 F1261.9 X111.328 Y107.026 E33.56855
M205 X10 Y10
G0 F6000 X110.762 Y107.026
M205 X8 Y8
G1 F1261.9 X109.552 Y108.236 E33.62546
M205 X10 Y10
G0 F6000 X109.552 Y107.67
M205 X8 Y8
G1 F1261.9 X110.196 Y107.026 E33.65576
M205 X10 Y10
G0 F6000 X109.631 Y107.026
M205 X8 Y8
G1 F1261.9 X109.552 Y107.104 E33.65945
M205 X10 Y10
G1 F1500 E27.65945
G1 F600 Z0.975
;MESH:NONMESH
G0 F6000 X115.902 Y113.378 Z0.975
;TIME_ELAPSED:49.214586
;LAYER:4
;MESH:pyramide-4kant-klein.stl
G0 X115.902 Y113.378 Z1.175
M205 X8 Y8
;TYPE:WALL-INNER
G1 F600 Z1.1
G1 F1500 E33.65945
G1 F1237.8 X109.098 Y113.378 E33.88575
G1 X109.098 Y106.572 E34.11212
G1 X115.902 Y106.572 E34.33842
G1 X115.902 Y113.378 E34.56479
M205 X10 Y10
G0 F6000 X116.302 Y113.778
M205 X8 Y8
G1 F1237.8 X108.698 Y113.778 E34.8177
G1 X108.698 Y106.172 E35.07068
G1 X116.302 Y106.172 E35.32359
G1 X116.302 Y113.778 E35.57656
M205 X10 Y10
G0 F6000 X116.702 Y114.178
M205 X8 Y8
;TYPE:WALL-OUTER
G1 F1237.8 X108.298 Y114.178 E35.85608
G1 X108.298 Y105.772 E36.13566
G1 X116.702 Y105.772 E36.41518
G1 X116.702 Y114.178 E36.69477
M205 X10 Y10
G0 F6000 X116.502 Y114.178
G0 X116.262 Y113.738
G0 X115.512 Y112.988
M205 X8 Y8
;TYPE:SKIN
G1 F1237.8 X109.488 Y112.988 E36.89513
G1 X109.488 Y106.962 E37.09555
G1 X115.512 Y106.962 E37.29591
G1 X115.512 Y112.988 E37.49634
M205 X10 Y10
G1 F1500 E31.49634
G1 F600 Z1.175
G0 F6000 X109.979 Y112.807 Z1.175
M205 X8 Y8
G1 F600 Z1.1
G1 F1500 E37.49634
G1 F1237.8 X109.667 Y112.495 E37.51101
M205 X10 Y10
G0 F6000 X109.667 Y111.93
M205 X8 Y8
G1 F1237.8 X110.544 Y112.807 E37.55226
M205 X10 Y10
G0 F6000 X111.11 Y112.807
M205 X8 Y8
G1 F1237.8 X109.667 Y111.364 E37.62014
M205 X10 Y10
G0 F6000 X109.667 Y110.798
M205 X8 Y8
G1 F1237.8 X111.676 Y112.807 E37.71464
M205 X10 Y10
G0 F6000 X112.241 Y112.807
M205 X8 Y8
G1 F1237.8 X109.667 Y110.232 E37.83573
M205 X10 Y10
G0 F6000 X109.667 Y109.667
M205 X8 Y8
G1 F1237.8 X112.807 Y112.807 E37.98343
M205 X10 Y10
G0 F6000 X113.373 Y112.807
M205 X8 Y8
G1 F1237.8 X109.667 Y109.101 E38.15775
M205 X10 Y10
G0 F6000 X109.667 Y108.535
M205 X8 Y8
G1 F1237.8 X113.938 Y112.807 E38.35866
M205 X10 Y10
G0 F6000 X114.504 Y112.807
M205 X8 Y8
G1 F1237.8 X109.667 Y107.97 E38.58618
M205 X10 Y10
G0 F6000 X109.667 Y107.404
M205 X8 Y8
G1 F1237.8 X115.07 Y112.807 E38.84032
M205 X10 Y10
G0 F6000 X115.331 Y112.502
M205 X8 Y8
G1 F1237.8 X109.969 Y107.141 E39.09251
M205 X10 Y10
G0 F6000 X110.535 Y107.141
M205 X8 Y8
G1 F1237.8 X115.331 Y111.937 E39.3181
M205 X10 Y10
G0 F6000 X115.331 Y111.371
M205 X8 Y8
G1 F1237.8 X111.101 Y107.141 E39.51707
M205 X10 Y10
G0 F6000 X111.667 Y107.141
M205 X8 Y8
G1 F1237.8 X115.331 Y110.805 E39.68941
M205 X10 Y10
G0 F6000 X115.331 Y110.24
M205 X8 Y8
G1 F1237.8 X112.232 Y107.141 E39.83518
M205 X10 Y10
G0 F6000 X112.798 Y107.141
M205 X8 Y8
G1 F1237.8 X115.331 Y109.674 E39.95432
M205 X10 Y10
G0 F6000 X115.331 Y109.108
M205 X8 Y8
G1 F1237.8 X113.364 Y107.141 E40.04684
M205 X10 Y10
G0 F6000 X113.929 Y107.141
M205 X8 Y8
