;FLAVOR:Marlin
;TIME:1386
;Filament used: 0.981884m
;Layer height: 0.2
;MINX:96.228
;MINY:93.69
;MINZ:0.3
;MAXX:128.772
;MAXY:126.299
;MAXZ:16.9
;Generated with Cura_SteamEngine 4.13.1
M140 S60
M105
M190 S60
M104 S200
M105
M109 S200
M82 ;absolute extrusion mode
G21                                        ; metric values
G90                                        ; absolute positioning
M82                                        ; set extruder to absolute mode
M107                                       ; start with the fan off
M190 S60                                   ; preheat and wait for bed
M109 S210                                  ; preheat and wait for hotend
M300 S1000 P500                            ; BEEP heating done
G28 X0 Y10 Z0                              ; move X/Y to min endstops
M420 S1                                    ; enable mesh leveling
G0 Z0.15                                   ; lift nozzle a bit
G0 X2                                      ; move away from clips
G92 E0                                     ; zero the extruded length
G1 Y50 E25 F500                            ; Extrude 25mm of filament in a 5cm line.
G92 E0                                     ; zero the extruded length again
G1 E-2 F500                                ; Retract a little
G1 Y120 F4000                              ; Quickly wipe away from the filament line
G92 E0
G92 E0
G1 F1500 E-6
;LAYER_COUNT:86
;LAYER:0
M106 S76.5
M205 X10 Y10
G1 F600 Z0.375
G0 F6000 X98.16 Y95.527 Z0.375
M205 X8 Y8
;TYPE:SKIRT
G1 F600 Z0.3
G1 F1500 E0
G1 F1200 X98.698 Y95.056 E0.03567
G1 X99.286 Y94.648 E0.07138
G1 X99.915 Y94.308 E0.10705
G1 X100.578 Y94.04 E0.14273
G1 X101.267 Y93.848 E0.17841
G1 X101.974 Y93.734 E0.21414
G1 X102.752 Y93.694 E0.25301
G1 X102.941 Y93.691 E0.26244
G1 X121.663 Y93.69 E1.19648
G1 X122.454 Y93.701 E1.23595
G1 X123.167 Y93.751 E1.27161
G1 X123.87 Y93.88 E1.30727
G1 X124.555 Y94.087 E1.34297
G1 X125.212 Y94.37 E1.37866
G1 X125.834 Y94.724 E1.41436
G1 X126.412 Y95.145 E1.45004
G1 X126.94 Y95.627 E1.4857
G1 X127.41 Y96.166 E1.52138
G1 X127.818 Y96.754 E1.55709
G1 X128.157 Y97.384 E1.59278
G1 X128.424 Y98.047 E1.62844
G1 X128.615 Y98.737 E1.66416
G1 X128.728 Y99.443 E1.69983
G1 X128.769 Y100.25 E1.74014
G1 X128.772 Y100.439 E1.74957
G1 X128.772 Y119.242 E2.68766
G1 X128.763 Y119.969 E2.72393
G1 X128.714 Y120.683 E2.75964
G1 X128.586 Y121.387 E2.79534
G1 X128.38 Y122.072 E2.83102
G1 X128.099 Y122.729 E2.86667
G1 X127.746 Y123.352 E2.9024
G1 X127.326 Y123.931 E2.93808
G1 X126.844 Y124.459 E2.97375
G1 X126.307 Y124.931 E3.00942
G1 X125.719 Y125.339 E3.04512
G1 X125.09 Y125.68 E3.08082
G1 X124.427 Y125.948 E3.1165
G1 X123.738 Y126.14 E3.15218
G1 X123.032 Y126.255 E3.18787
G1 X122.221 Y126.296 E3.22838
G1 X122.042 Y126.299 E3.23731
G1 X103.252 Y126.298 E4.17475
G1 X102.554 Y126.289 E4.20958
G1 X101.841 Y126.24 E4.24523
G1 X101.137 Y126.112 E4.28093
G1 X100.452 Y125.906 E4.31662
G1 X99.795 Y125.624 E4.35229
G1 X99.173 Y125.271 E4.38797
G1 X98.594 Y124.851 E4.42365
G1 X98.065 Y124.369 E4.45936
G1 X97.594 Y123.831 E4.49503
G1 X97.186 Y123.244 E4.5307
G1 X96.846 Y122.614 E4.56641
G1 X96.578 Y121.951 E4.60209
G1 X96.386 Y121.262 E4.63777
G1 X96.272 Y120.556 E4.67345
G1 X96.23 Y119.73 E4.71471
G1 X96.228 Y119.557 E4.72335
G1 X96.229 Y100.691 E5.66457
G1 X96.238 Y100.015 E5.6983
G1 X96.287 Y99.301 E5.73401
G1 X96.416 Y98.598 E5.76967
G1 X96.622 Y97.913 E5.80535
G1 X96.904 Y97.255 E5.84107
G1 X97.257 Y96.633 E5.87675
G1 X97.678 Y96.055 E5.91242
G1 X98.16 Y95.527 E5.94809
M205 X10 Y10
G0 F6000 X98.551 Y95.706
M205 X8 Y8
G1 F1200 X99.085 Y95.265 E5.98264
G1 X99.666 Y94.887 E6.01723
G1 X100.286 Y94.58 E6.05174
G1 X100.938 Y94.346 E6.0863
G1 X101.612 Y94.188 E6.12084
G1 X102.459 Y94.103 E6.16331
G1 X102.941 Y94.091 E6.18736
G1 X121.663 Y94.09 E7.12141
G1 X122.448 Y94.101 E7.16057
G1 X123.139 Y94.15 E7.19514
G1 X123.819 Y94.28 E7.22968
G1 X124.48 Y94.486 E7.26422
G1 X125.113 Y94.768 E7.29879
G1 X125.709 Y95.12 E7.33332
G1 X126.26 Y95.539 E7.36786
G1 X126.76 Y96.019 E7.40244
G1 X127.201 Y96.553 E7.43699
G1 X127.577 Y97.134 E7.47152
G1 X127.885 Y97.754 E7.50605
G1 X128.118 Y98.406 E7.5406
G1 X128.275 Y99.081 E7.57517
G1 X128.359 Y99.923 E7.61739
G1 X128.372 Y100.439 E7.64314
G1 X128.372 Y119.237 E8.58098
G1 X128.363 Y119.964 E8.61725
G1 X128.314 Y120.655 E8.65181
G1 X128.186 Y121.336 E8.68638
G1 X127.981 Y121.997 E8.72091
G1 X127.701 Y122.63 E8.75544
G1 X127.349 Y123.227 E8.79001
G1 X126.932 Y123.78 E8.82457
G1 X126.453 Y124.28 E8.85911
G1 X125.92 Y124.722 E8.89366
G1 X125.339 Y125.1 E8.92824
G1 X124.719 Y125.408 E8.96278
G1 X124.068 Y125.643 E8.99731
G1 X123.393 Y125.801 E9.03189
G1 X122.531 Y125.888 E9.07512
G1 X122.042 Y125.899 E9.09952
G1 X103.258 Y125.899 E10.03666
G1 X102.56 Y125.89 E10.07148
G1 X101.869 Y125.841 E10.10604
G1 X101.188 Y125.712 E10.14062
G1 X100.527 Y125.507 E10.17515
G1 X99.894 Y125.226 E10.2097
G1 X99.297 Y124.875 E10.24425
G1 X98.745 Y124.457 E10.2788
G1 X98.245 Y123.978 E10.31334
G1 X97.803 Y123.444 E10.34793
G1 X97.426 Y122.864 E10.38244
G1 X97.118 Y122.243 E10.41702
G1 X96.883 Y121.592 E10.45155
G1 X96.726 Y120.917 E10.48613
G1 X96.639 Y120.052 E10.5295
G1 X96.628 Y119.557 E10.5542
G1 X96.629 Y100.696 E11.49518
G1 X96.638 Y100.02 E11.52891
G1 X96.687 Y99.329 E11.56347
G1 X96.815 Y98.649 E11.59799
G1 X97.021 Y97.988 E11.63253
G1 X97.302 Y97.355 E11.66709
G1 X97.654 Y96.758 E11.70166
G1 X98.072 Y96.206 E11.73621
G1 X98.551 Y95.706 E11.77075
M205 X10 Y10
G0 F6000 X98.942 Y95.892
M205 X8 Y8
G1 F1200 X99.47 Y95.482 E11.8041
G1 X100.043 Y95.137 E11.83747
G1 X100.653 Y94.863 E11.87083
G1 X101.292 Y94.664 E11.90422
G1 X101.95 Y94.542 E11.93761
G1 X102.471 Y94.502 E11.96368
G1 X102.941 Y94.491 E11.98713
G1 X121.663 Y94.49 E12.92118
G1 X122.442 Y94.501 E12.96005
G1 X123.109 Y94.55 E12.99341
G1 X123.766 Y94.679 E13.02682
G1 X124.402 Y94.885 E13.06017
G1 X125.01 Y95.165 E13.09357
G1 X125.579 Y95.516 E13.12692
G1 X126.103 Y95.933 E13.16033
G1 X126.573 Y96.409 E13.1937
G1 X126.983 Y96.937 E13.22705
G1 X127.328 Y97.511 E13.26047
G1 X127.601 Y98.122 E13.29385
G1 X127.799 Y98.76 E13.32718
G1 X127.92 Y99.418 E13.36056
G1 X127.96 Y99.935 E13.38643
G1 X127.972 Y100.439 E13.41158
G1 X127.972 Y119.232 E14.34917
G1 X127.963 Y119.959 E14.38544
G1 X127.914 Y120.627 E14.41886
G1 X127.787 Y121.283 E14.45219
G1 X127.582 Y121.92 E14.48558
G1 X127.303 Y122.528 E14.51895
G1 X126.953 Y123.098 E14.55232
G1 X126.537 Y123.623 E14.58574
G1 X126.062 Y124.094 E14.61911
G1 X125.535 Y124.505 E14.65246
G1 X124.962 Y124.851 E14.68585
G1 X124.352 Y125.125 E14.71921
G1 X123.713 Y125.325 E14.75262
G1 X123.055 Y125.447 E14.78601
G1 X122.52 Y125.488 E14.81278
G1 X122.042 Y125.499 E14.83663
G1 X103.263 Y125.499 E15.77352
G1 X102.565 Y125.49 E15.80834
G1 X101.898 Y125.441 E15.84171
G1 X101.241 Y125.313 E15.8751
G1 X100.604 Y125.108 E15.90849
G1 X99.996 Y124.828 E15.94188
G1 X99.426 Y124.478 E15.97526
G1 X98.902 Y124.062 E16.00863
G1 X98.431 Y123.587 E16.04201
G1 X98.02 Y123.059 E16.07539
G1 X97.675 Y122.486 E16.10876
G1 X97.401 Y121.876 E16.14212
G1 X97.201 Y121.237 E16.17553
G1 X97.08 Y120.579 E16.2089
G1 X97.039 Y120.041 E16.23582
G1 X97.028 Y119.557 E16.25998
G1 X97.028 Y100.701 E17.2007
G1 X97.037 Y100.025 E17.23443
G1 X97.086 Y99.358 E17.2678
G1 X97.214 Y98.702 E17.30115
G1 X97.42 Y98.065 E17.33455
G1 X97.7 Y97.457 E17.36794
G1 X98.05 Y96.887 E17.40131
G1 X98.466 Y96.363 E17.43469
G1 X98.942 Y95.892 E17.4681
M205 X10 Y10
G0 F6000 X98.859 Y96.527
M205 X8 Y8
G1 F1200 X99.331 Y96.087 E17.50029
G1 X99.853 Y95.708 E17.53248
G1 X100.417 Y95.397 E17.56461
G1 X101.016 Y95.159 E17.59676
G1 X101.64 Y94.996 E17.62894
G1 X102.483 Y94.902 E17.67126
G1 X102.941 Y94.891 E17.69412
G1 X121.663 Y94.89 E18.62816
G1 X122.436 Y94.901 E18.66673
G1 X123.079 Y94.95 E18.6989
G1 X123.711 Y95.078 E18.73107
G1 X124.322 Y95.284 E18.76324
G1 X124.903 Y95.563 E18.7954
G1 X125.445 Y95.912 E18.82756
G1 X125.939 Y96.326 E18.85971
G1 X126.379 Y96.798 E18.89191
G1 X126.756 Y97.32 E18.92403
G1 X127.067 Y97.885 E18.95621
G1 X127.305 Y98.484 E18.98836
G1 X127.467 Y99.108 E19.02053
G1 X127.56 Y99.947 E19.06264
G1 X127.572 Y100.439 E19.08719
G1 X127.572 Y119.227 E20.02453
G1 X127.563 Y119.954 E20.0608
G1 X127.515 Y120.597 E20.09297
G1 X127.388 Y121.229 E20.12513
G1 X127.183 Y121.841 E20.15733
G1 X126.905 Y122.422 E20.18947
G1 X126.557 Y122.965 E20.22164
G1 X126.144 Y123.46 E20.25381
G1 X125.673 Y123.9 E20.28596
G1 X125.151 Y124.279 E20.31815
G1 X124.587 Y124.59 E20.35028
G1 X123.988 Y124.829 E20.38245
G1 X123.365 Y124.993 E20.41459
G1 X122.509 Y125.088 E20.45756
G1 X122.042 Y125.099 E20.48087
G1 X103.268 Y125.099 E21.41751
G1 X102.57 Y125.09 E21.45233
G1 X101.927 Y125.041 E21.48451
G1 X101.295 Y124.914 E21.51667
G1 X100.684 Y124.709 E21.54882
G1 X100.103 Y124.431 E21.58095
G1 X99.56 Y124.082 E21.61316
G1 X99.065 Y123.669 E21.64532
G1 X98.625 Y123.198 E21.67748
G1 X98.246 Y122.676 E21.70966
G1 X97.935 Y122.112 E21.74179
G1 X97.697 Y121.513 E21.77395
G1 X97.534 Y120.889 E21.80612
G1 X97.439 Y120.03 E21.84924
G1 X97.428 Y119.557 E21.87285
G1 X97.428 Y100.707 E22.81328
G1 X97.437 Y100.031 E22.847
G1 X97.486 Y99.388 E22.87918
G1 X97.614 Y98.756 E22.91135
G1 X97.819 Y98.145 E22.9435
G1 X98.098 Y97.564 E22.97566
G1 X98.446 Y97.021 E23.00783
G1 X98.859 Y96.527 E23.03996
M205 X10 Y10
G1 F1500 E17.03996
G1 F600 Z0.375
;MESH:pyramide-4kant.stl
G0 F6000 X121.372 Y118.899 Z0.375
M205 X8 Y8
;TYPE:WALL-INNER
G1 F600 Z0.3
G1 F1500 E23.03996
G1 F1200 X103.628 Y118.899 E23.92521
G1 X103.628 Y101.091 E24.81365
G1 X121.372 Y101.09 E25.6989
G1 X121.372 Y118.899 E26.5874
M205 X10 Y10
G0 F6000 X121.772 Y119.299
M205 X8 Y8
G1 F1200 X103.228 Y119.299 E27.51256
G1 X103.228 Y100.691 E28.44092
G1 X121.772 Y100.69 E29.36608
G1 X121.772 Y119.299 E30.29449
M205 X10 Y10
G0 F6000 X122.172 Y119.699
M205 X8 Y8
;TYPE:WALL-OUTER
G1 F1200 X102.828 Y119.699 E31.25957
G1 X102.828 Y100.291 E32.22784
G1 X122.172 Y100.29 E33.19291
G1 X122.172 Y119.699 E34.16123
M205 X10 Y10
G0 F6000 X121.972 Y119.699
G0 X121.732 Y119.259
G0 X120.982 Y118.509
M205 X8 Y8
;TYPE:SKIN
G1 F1200 X104.018 Y118.509 E35.00757
G1 X104.018 Y101.481 E35.8571
G1 X120.982 Y101.48 E36.70344
G1 X120.982 Y118.509 E37.55302
M205 X10 Y10
G1 F1500 E31.55302
G1 F600 Z0.375
G0 F6000 X104.752 Y118.328 Z0.375
M205 X8 Y8
G1 F600 Z0.3
G1 F1500 E37.55302
G1 F1200 X104.197 Y117.773 E37.59217
M205 X10 Y10
G0 F6000 X104.197 Y117.207
M205 X8 Y8
G1 F1200 X105.317 Y118.328 E37.67123
M205 X10 Y10
G0 F6000 X105.883 Y118.328
M205 X8 Y8
G1 F1200 X104.197 Y116.642 E37.79019
M205 X10 Y10
G0 F6000 X104.197 Y116.076
M205 X8 Y8
G1 F1200 X106.449 Y118.328 E37.94908
M205 X10 Y10
G0 F6000 X107.014 Y118.328
M205 X8 Y8
G1 F1200 X104.197 Y115.51 E38.14787
M205 X10 Y10
G0 F6000 X104.197 Y114.945
M205 X8 Y8
G1 F1200 X107.58 Y118.328 E38.38656
M205 X10 Y10
G0 F6000 X108.146 Y118.328
M205 X8 Y8
G1 F1200 X104.197 Y114.379 E38.66518
M205 X10 Y10
G0 F6000 X104.197 Y113.813
M205 X8 Y8
G1 F1200 X108.712 Y118.328 E38.98374
M205 X10 Y10
G0 F6000 X109.277 Y118.328
M205 X8 Y8
G1 F1200 X104.197 Y113.248 E39.34216
M205 X10 Y10
G0 F6000 X104.197 Y112.682
M205 X8 Y8
G1 F1200 X109.843 Y118.328 E39.74052
M205 X10 Y10
G0 F6000 X110.409 Y118.328
M205 X8 Y8
G1 F1200 X104.197 Y112.116 E40.17881
M205 X10 Y10
G0 F6000 X104.197 Y111.551
M205 X8 Y8
G1 F1200 X110.974 Y118.328 E40.65696
M205 X10 Y10
G0 F6000 X111.54 Y118.328
M205 X8 Y8
G1 F1200 X104.197 Y110.985 E41.17505
M205 X10 Y10
G0 F6000 X104.197 Y110.419
M205 X8 Y8
G1 F1200 X112.106 Y118.328 E41.73307
M205 X10 Y10
G0 F6000 X112.671 Y118.328
M205 X8 Y8
G1 F1200 X104.197 Y109.853 E42.33099
M205 X10 Y10
G0 F6000 X104.197 Y109.288
M205 X8 Y8
G1 F1200 X113.237 Y118.328 E42.96881
M205 X10 Y10
G0 F6000 X113.803 Y118.328
M205 X8 Y8
G1 F1200 X104.197 Y108.722 E43.64657
M205 X10 Y10
G0 F6000 X104.197 Y108.156
M205 X8 Y8
G1 F1200 X114.368 Y118.328 E44.36422
M205 X10 Y10
G0 F6000 X114.934 Y118.328
M205 X8 Y8
G1 F1200 X104.197 Y107.591 E45.12178
M205 X10 Y10
G0 F6000 X104.197 Y107.025
M205 X8 Y8
G1 F1200 X115.5 Y118.328 E45.91926
M205 X10 Y10
G0 F6000 X116.065 Y118.328
M205 X8 Y8
G1 F1200 X104.197 Y106.459 E46.75665
M205 X10 Y10
G0 F6000 X104.197 Y105.894
M205 X8 Y8
G1 F1200 X116.631 Y118.328 E47.63394
M205 X10 Y10
G0 F6000 X117.197 Y118.328
M205 X8 Y8
G1 F1200 X104.197 Y105.328 E48.55116
M205 X10 Y10
G0 F6000 X104.197 Y104.762
M205 X8 Y8
G1 F1200 X117.762 Y118.328 E49.50828
M205 X10 Y10
G0 F6000 X118.328 Y118.328
M205 X8 Y8
G1 F1200 X104.197 Y104.197 E50.50529
M205 X10 Y10
G0 F6000 X104.197 Y103.631
M205 X8 Y8
G1 F1200 X118.894 Y118.328 E51.54225
M205 X10 Y10
G0 F6000 X119.46 Y118.328
M205 X8 Y8
G1 F1200 X104.197 Y103.065 E52.61913
M205 X10 Y10
G0 F6000 X104.197 Y102.5
M205 X8 Y8
G1 F1200 X120.025 Y118.328 E53.73588
M205 X10 Y10
G0 F6000 X120.591 Y118.328
M205 X8 Y8
G1 F1200 X104.197 Y101.934 E54.89257
M205 X10 Y10
G0 F6000 X104.489 Y101.661
M205 X8 Y8
G1 F1200 X120.801 Y117.972 E56.04343
M205 X10 Y10
G0 F6000 X120.801 Y117.407
M205 X8 Y8
G1 F1200 X105.055 Y101.661 E57.1544
M205 X10 Y10
G0 F6000 X105.621 Y101.661
M205 X8 Y8
G1 F1200 X120.801 Y116.841 E58.22543
M205 X10 Y10
G0 F6000 X120.801 Y116.275
M205 X8 Y8
G1 F1200 X106.186 Y101.661 E59.25656
M205 X10 Y10
G0 F6000 X106.752 Y101.661
M205 X8 Y8
G1 F1200 X120.801 Y115.71 E60.2478
M205 X10 Y10
G0 F6000 X120.801 Y115.144
M205 X8 Y8
G1 F1200 X107.318 Y101.661 E61.19909
M205 X10 Y10
G0 F6000 X107.883 Y101.661
M205 X8 Y8
G1 F1200 X120.801 Y114.578 E62.11049
M205 X10 Y10
G0 F6000 X120.801 Y114.013
M205 X8 Y8
G1 F1200 X108.449 Y101.661 E62.98199
M205 X10 Y10
G0 F6000 X109.015 Y101.661
M205 X8 Y8
G1 F1200 X120.801 Y113.447 E63.81356
M205 X10 Y10
G0 F6000 X120.801 Y112.881
M205 X8 Y8
G1 F1200 X109.581 Y101.661 E64.60519
M205 X10 Y10
G0 F6000 X110.146 Y101.661
M205 X8 Y8
G1 F1200 X120.801 Y112.316 E65.35696
M205 X10 Y10
G0 F6000 X120.801 Y111.75
M205 X8 Y8
G1 F1200 X110.712 Y101.661 E66.06879
M205 X10 Y10
G0 F6000 X111.278 Y101.661
M205 X8 Y8
G1 F1200 X120.801 Y111.184 E66.74069
M205 X10 Y10
G0 F6000 X120.801 Y110.619
M205 X8 Y8
G1 F1200 X111.843 Y101.661 E67.37273
M205 X10 Y10
G0 F6000 X112.409 Y101.661
M205 X8 Y8
G1 F1200 X120.801 Y110.053 E67.96483
M205 X10 Y10
G0 F6000 X120.801 Y109.487
M205 X8 Y8
G1 F1200 X112.974 Y101.66 E68.51707
M205 X10 Y10
G0 F6000 X113.54 Y101.66
M205 X8 Y8
G1 F1200 X120.801 Y108.922 E69.0294
M205 X10 Y10
G0 F6000 X120.801 Y108.356
M205 X8 Y8
G1 F1200 X114.105 Y101.66 E69.50184
M205 X10 Y10
G0 F6000 X114.671 Y101.66
M205 X8 Y8
G1 F1200 X120.801 Y107.79 E69.93435
M205 X10 Y10
G0 F6000 X120.801 Y107.224
M205 X8 Y8
G1 F1200 X115.237 Y101.66 E70.32692
M205 X10 Y10
G0 F6000 X115.802 Y101.66
M205 X8 Y8
G1 F1200 X120.801 Y106.659 E70.67962
M205 X10 Y10
G0 F6000 X120.801 Y106.093
M205 X8 Y8
G1 F1200 X116.368 Y101.66 E70.9924
M205 X10 Y10
G0 F6000 X116.934 Y101.66
M205 X8 Y8
G1 F1200 X120.801 Y105.527 E71.26523
M205 X10 Y10
G0 F6000 X120.801 Y104.962
M205 X8 Y8
G1 F1200 X117.499 Y101.66 E71.49821
M205 X10 Y10
G0 F6000 X118.065 Y101.66
M205 X8 Y8
G1 F1200 X120.801 Y104.396 E71.69125
M205 X10 Y10
G0 F6000 X120.801 Y103.83
M205 X8 Y8
G1 F1200 X118.631 Y101.66 E71.84435
M205 X10 Y10
G0 F6000 X119.196 Y101.66
M205 X8 Y8
G1 F1200 X120.801 Y103.265 E71.95759
M205 X10 Y10
G0 F6000 X120.801 Y102.699
M205 X8 Y8
G1 F1200 X119.762 Y101.66 E72.0309
M205 X10 Y10
G0 F6000 X120.328 Y101.66
M205 X8 Y8
G1 F1200 X120.801 Y102.133 E72.06427
M205 X10 Y10
G1 F1500 E66.06427
G1 F600 Z0.375
;MESH:NONMESH
G0 F6000 X121.227 Y118.754 Z0.375
;TIME_ELAPSED:77.766678
;LAYER:1
M106 S127.5
;MESH:pyramide-4kant.stl
G0 X121.227 Y118.754 Z0.575
M205 X8 Y8
;TYPE:WALL-INNER
G1 F600 Z0.5
G1 F1500 E72.06427
G1 F1350 X103.773 Y118.754 E72.6448
G1 X103.773 Y101.236 E73.22745
G1 X121.227 Y101.235 E73.80797
G1 X121.227 Y118.754 E74.39065
M205 X10 Y10
G0 F6000 X121.627 Y119.154
M205 X8 Y8
G1 F1350 X103.373 Y119.154 E74.99778
G1 X103.373 Y100.836 E75.60704
G1 X121.627 Y100.835 E76.21417
G1 X121.627 Y119.154 E76.82347
M205 X10 Y10
G0 F6000 X122.027 Y119.554
M205 X8 Y8
;TYPE:WALL-OUTER
G1 F1350 X102.973 Y119.554 E77.4572
