;FLAVOR:Marlin
;TIME:1240
;Filament used: 0.689199m
;Layer height: 0.2
;MINX:101.149
;MINY:97.468
;MINZ:0.3
;MAXX:122.903
;MAXY:122.536
;MAXZ:26.9
;Generated with Cura_SteamEngine 4.13.1
M140 S60
M105
M190 S60
M104 S200
M105
M109 S200
M82 ;absolute extrusion mode
G21                                        ; metric values
G90                                        ; absolute positioning
M82                                        ; set extruder to absolute mode
M107                                       ; start with the fan off
M190 S60                                   ; preheat and wait for bed
M109 S210                                  ; preheat and wait for hotend
M300 S1000 P500                            ; BEEP heating done
G28 X0 Y10 Z0                              ; move X/Y to min endstops
M420 S1                                    ; enable mesh leveling
G0 Z0.15                                   ; lift nozzle a bit
G0 X2                                      ; move away from clips
G92 E0                                     ; zero the extruded length
G1 Y50 E25 F500                            ; Extrude 25mm of filament in a 5cm line.
G92 E0                                     ; zero the extruded length again
G1 E-2 F500                                ; Retract a little
G1 Y120 F4000                              ; Quickly wipe away from the filament line
G92 E0
G92 E0
G1 F1500 E-6
;LAYER_COUNT:138
;LAYER:0
M106 S76.5
M205 X10 Y10
G1 F600 Z0.375
;MESH:pyra-3kant-mittel.stl
G0 F6000 X121.299 Y109.995 Z0.375
M205 X8 Y8
;TYPE:WALL-INNER
G1 F600 Z0.3
G1 F1500 E0
G1 F1200 X101.949 Y121.15 E1.1143
G1 X101.954 Y98.853 E2.2267
G1 X121.299 Y109.995 E3.34047
M205 X10 Y10
G0 F6000 X122.101 Y109.995
M205 X8 Y8
G1 F1200 X101.549 Y121.843 E4.52399
G1 X101.554 Y98.161 E5.70549
G1 X122.101 Y109.995 E6.88845
M205 X10 Y10
G0 F6000 X122.903 Y109.995
M205 X8 Y8
;TYPE:WALL-OUTER
G1 F1200 X101.149 Y122.536 E8.14119
G1 X101.154 Y97.468 E9.39184
G1 X122.903 Y109.995 E10.64402
M205 X10 Y10
G0 F6000 X122.73 Y110.094
G1 F1500 E4.64402
G1 F600 Z0.375
G0 F6000 X120.518 Y109.995 Z0.375
M205 X8 Y8
;TYPE:SKIN
G1 F600 Z0.3
G1 F1500 E10.64402
G1 F1200 X102.339 Y120.475 E11.69089
G1 X102.344 Y99.528 E12.73594
G1 X120.518 Y109.995 E13.78227
M205 X10 Y10
G0 F6000 X119.811 Y110.194
M205 X8 Y8
G1 F1200 X118.87 Y109.253 E13.84866
G1 X118.8 Y109.183
M205 X10 Y10
G0 F6000 X119.452 Y110.401
M205 X8 Y8
G1 F1200 X117.536 Y108.485 E13.98385
G1 X117.466 Y108.415
M205 X10 Y10
G0 F6000 X116.203 Y107.717
M205 X8 Y8
G1 F1200 X119.093 Y110.608 E14.18779
M205 X10 Y10
G0 F6000 X118.735 Y110.815
M205 X8 Y8
G1 F1200 X114.868 Y106.949 E14.46059
G1 X114.798 Y106.879
M205 X10 Y10
G0 F6000 X113.535 Y106.181
M205 X8 Y8
G1 F1200 X118.376 Y111.022 E14.80215
M205 X10 Y10
G0 F6000 X118.017 Y111.229
M205 X8 Y8
G1 F1200 X112.2 Y105.412 E15.21257
G1 X112.13 Y105.342
M205 X10 Y10
G0 F6000 X110.867 Y104.644
M205 X8 Y8
G1 F1200 X117.658 Y111.435 E15.69171
M205 X10 Y10
G0 F6000 X117.299 Y111.642
M205 X8 Y8
G1 F1200 X109.533 Y103.876 E16.23964
G1 X109.463 Y103.806
M205 X10 Y10
G0 F6000 X108.199 Y103.108
M205 X8 Y8
G1 F1200 X116.94 Y111.849 E16.85637
M205 X10 Y10
G0 F6000 X116.582 Y112.056
M205 X8 Y8
G1 F1200 X106.865 Y102.34 E17.54192
G1 X106.795 Y102.27
M205 X10 Y10
G0 F6000 X105.531 Y101.571
M205 X8 Y8
G1 F1200 X116.222 Y112.263 E18.29626
M205 X10 Y10
G0 F6000 X115.864 Y112.47
M205 X8 Y8
G1 F1200 X104.197 Y100.803 E19.11943
G1 X104.127 Y100.733
M205 X10 Y10
G0 F6000 X102.864 Y100.035
M205 X8 Y8
G1 F1200 X115.505 Y112.676 E20.01132
M205 X10 Y10
G0 F6000 X115.146 Y112.883
M205 X8 Y8
G1 F1200 X102.522 Y100.259 E20.90202
M205 X10 Y10
G0 F6000 X102.522 Y100.825
M205 X8 Y8
G1 F1200 X114.787 Y113.09 E21.76738
M205 X10 Y10
G0 F6000 X114.428 Y113.297
M205 X8 Y8
G1 F1200 X102.522 Y101.391 E22.60741
M205 X10 Y10
G0 F6000 X102.522 Y101.957
M205 X8 Y8
G1 F1200 X114.069 Y113.504 E23.42211
M205 X10 Y10
G0 F6000 X113.711 Y113.711
M205 X8 Y8
G1 F1200 X102.522 Y102.522 E24.21156
M205 X10 Y10
G0 F6000 X102.522 Y103.088
M205 X8 Y8
G1 F1200 X113.352 Y113.917 E24.97564
M205 X10 Y10
G0 F6000 X112.993 Y114.124
M205 X8 Y8
G1 F1200 X102.521 Y103.653 E25.71446
M205 X10 Y10
G0 F6000 X102.521 Y104.219
M205 X8 Y8
G1 F1200 X112.634 Y114.331 E26.42795
M205 X10 Y10
G0 F6000 X112.275 Y114.538
M205 X8 Y8
G1 F1200 X102.521 Y104.784 E27.11615
M205 X10 Y10
G0 F6000 X102.521 Y105.35
M205 X8 Y8
G1 F1200 X111.916 Y114.745 E27.77901
M205 X10 Y10
G0 F6000 X111.558 Y114.952
M205 X8 Y8
G1 F1200 X102.521 Y105.916 E28.41659
M205 X10 Y10
G0 F6000 X102.521 Y106.481
M205 X8 Y8
G1 F1200 X111.198 Y115.158 E29.0288
M205 X10 Y10
G0 F6000 X110.84 Y115.365
M205 X8 Y8
G1 F1200 X102.521 Y107.046 E29.61575
M205 X10 Y10
G0 F6000 X102.521 Y107.612
M205 X8 Y8
G1 F1200 X110.481 Y115.572 E30.17737
M205 X10 Y10
G0 F6000 X110.122 Y115.779
M205 X8 Y8
G1 F1200 X102.521 Y108.178 E30.71366
M205 X10 Y10
G0 F6000 X102.521 Y108.743
M205 X8 Y8
G1 F1200 X109.764 Y115.986 E31.22469
M205 X10 Y10
G0 F6000 X109.404 Y116.193
M205 X8 Y8
G1 F1200 X102.521 Y109.309 E31.71036
M205 X10 Y10
G0 F6000 X102.521 Y109.875
M205 X8 Y8
G1 F1200 X109.046 Y116.4 E32.17074
M205 X10 Y10
G0 F6000 X108.687 Y116.606
M205 X8 Y8
G1 F1200 X102.52 Y110.44 E32.60582
M205 X10 Y10
G0 F6000 X102.52 Y111.005
M205 X8 Y8
G1 F1200 X108.328 Y116.814 E33.01564
M205 X10 Y10
G0 F6000 X107.969 Y117.02
M205 X8 Y8
G1 F1200 X102.52 Y111.571 E33.40009
M205 X10 Y10
G0 F6000 X102.52 Y112.137
M205 X8 Y8
G1 F1200 X107.611 Y117.227 E33.75926
M205 X10 Y10
G0 F6000 X107.251 Y117.434
M205 X8 Y8
G1 F1200 X102.52 Y112.702 E34.09309
M205 X10 Y10
G0 F6000 X102.52 Y113.268
M205 X8 Y8
G1 F1200 X106.893 Y117.641 E34.40163
M205 X10 Y10
G0 F6000 X106.534 Y117.847
M205 X8 Y8
G1 F1200 X102.519 Y113.833 E34.68487
M205 X10 Y10
G0 F6000 X102.519 Y114.399
M205 X8 Y8
G1 F1200 X106.175 Y118.055 E34.94282
M205 X10 Y10
G0 F6000 X105.816 Y118.261
M205 X8 Y8
G1 F1200 X102.519 Y114.964 E35.17544
M205 X10 Y10
G0 F6000 X102.519 Y115.53
M205 X8 Y8
G1 F1200 X105.457 Y118.468 E35.38274
M205 X10 Y10
G0 F6000 X105.098 Y118.675
M205 X8 Y8
G1 F1200 X102.519 Y116.096 E35.5647
M205 X10 Y10
G0 F6000 X102.519 Y116.662
M205 X8 Y8
G1 F1200 X104.74 Y118.882 E35.72137
M205 X10 Y10
G0 F6000 X104.38 Y119.088
M205 X8 Y8
G1 F1200 X102.519 Y117.226 E35.8527
M205 X10 Y10
G0 F6000 X102.519 Y117.792
M205 X8 Y8
G1 F1200 X104.022 Y119.295 E35.95875
M205 X10 Y10
G0 F6000 X103.663 Y119.502
M205 X8 Y8
G1 F1200 X102.519 Y118.358 E36.03946
M205 X10 Y10
G0 F6000 X102.519 Y118.924
M205 X8 Y8
G1 F1200 X103.304 Y119.709 E36.09485
M205 X10 Y10
G0 F6000 X102.945 Y119.916
M205 X8 Y8
G1 F1200 X102.519 Y119.489 E36.12494
M205 X10 Y10
G0 F6000 X102.519 Y120.055
M205 X8 Y8
G1 F1200 X102.587 Y120.123 E36.12974
M205 X10 Y10
G1 F1500 E30.12974
G1 F600 Z0.375
;MESH:NONMESH
G0 F6000 X121.165 Y109.995 Z0.375
;TIME_ELAPSED:41.046325
;LAYER:1
M106 S127.5
;MESH:pyra-3kant-mittel.stl
G0 X121.165 Y109.995 Z0.575
M205 X8 Y8
;TYPE:WALL-INNER
G1 F600 Z0.5
G1 F1500 E36.12974
G1 F1350 X102.017 Y121.032 E36.86483
G1 X102.022 Y98.969 E37.59865
G1 X121.165 Y109.995 E38.33341
M205 X10 Y10
G0 F6000 X121.967 Y109.995
M205 X8 Y8
G1 F1350 X101.617 Y121.725 E39.11464
G1 X101.622 Y98.277 E39.89453
G1 X121.967 Y109.995 E40.67542
M205 X10 Y10
G0 F6000 X122.769 Y109.995
M205 X8 Y8
;TYPE:WALL-OUTER
G1 F1350 X101.217 Y122.418 E41.5028
G1 X101.222 Y97.584 E42.32878
G1 X122.769 Y109.995 E43.15582
M205 X10 Y10
G0 F6000 X122.596 Y110.094
G1 F1500 E37.15582
G1 F600 Z0.575
G0 F6000 X120.384 Y109.995 Z0.575
M205 X8 Y8
;TYPE:SKIN
G1 F600 Z0.5
G1 F1500 E43.15582
G1 F1350 X102.407 Y120.357 E43.84595
G1 X102.412 Y99.644 E44.53487
G1 X120.384 Y109.995 E45.22468
M205 X10 Y10
G0 F6000 X119.801 Y109.866
M205 X8 Y8
G1 F1350 X119.194 Y110.473 E45.25323
G1 X119.124 Y110.543
M205 X10 Y10
G0 F6000 X119.442 Y109.66
M205 X8 Y8
G1 F1350 X117.859 Y111.242 E45.32766
G1 X117.789 Y111.312
M205 X10 Y10
G0 F6000 X116.524 Y112.012
M205 X8 Y8
G1 F1350 X119.083 Y109.453 E45.44803
M205 X10 Y10
G0 F6000 X118.724 Y109.246
M205 X8 Y8
G1 F1350 X115.189 Y112.782 E45.61433
G1 X115.119 Y112.852
M205 X10 Y10
G0 F6000 X113.853 Y113.552
M205 X8 Y8
G1 F1350 X118.365 Y109.04 E45.82656
M205 X10 Y10
G0 F6000 X118.006 Y108.832
M205 X8 Y8
G1 F1350 X112.518 Y114.321 E46.08472
G1 X112.448 Y114.391
M205 X10 Y10
G0 F6000 X111.182 Y115.091
M205 X8 Y8
G1 F1350 X117.647 Y108.626 E46.38882
M205 X10 Y10
G0 F6000 X117.289 Y108.419
M205 X8 Y8
G1 F1350 X109.847 Y115.86 E46.73884
G1 X109.777 Y115.93
M205 X10 Y10
G0 F6000 X108.511 Y116.63
M205 X8 Y8
G1 F1350 X116.93 Y108.212 E47.13482
M205 X10 Y10
G0 F6000 X116.57 Y108.006
M205 X8 Y8
G1 F1350 X107.176 Y117.4 E47.57669
G1 X107.106 Y117.47
M205 X10 Y10
G0 F6000 X105.841 Y118.169
M205 X8 Y8
G1 F1350 X116.212 Y107.799 E48.06448
M205 X10 Y10
G0 F6000 X115.853 Y107.592
M205 X8 Y8
G1 F1350 X104.506 Y118.939 E48.59821
G1 X104.436 Y119.009
M205 X10 Y10
G0 F6000 X103.171 Y119.708
M205 X8 Y8
G1 F1350 X115.493 Y107.386 E49.1778
M205 X10 Y10
G0 F6000 X115.135 Y107.179
M205 X8 Y8
G1 F1350 X102.587 Y119.726 E49.768
M205 X10 Y10
G0 F6000 X102.587 Y119.16
M205 X8 Y8
G1 F1350 X114.776 Y106.972 E50.34131
M205 X10 Y10
G0 F6000 X114.416 Y106.766
M205 X8 Y8
G1 F1350 X102.587 Y118.595 E50.89771
M205 X10 Y10
G0 F6000 X102.587 Y118.029
M205 X8 Y8
G1 F1350 X114.058 Y106.558 E51.43727
M205 X10 Y10
G0 F6000 X113.699 Y106.352
M205 X8 Y8
G1 F1350 X102.587 Y117.463 E51.95992
M205 X10 Y10
G0 F6000 X102.587 Y116.898
M205 X8 Y8
G1 F1350 X113.34 Y106.145 E52.46571
M205 X10 Y10
G0 F6000 X112.981 Y105.938
M205 X8 Y8
G1 F1350 X102.588 Y116.331 E52.95456
M205 X10 Y10
G0 F6000 X102.588 Y115.766
M205 X8 Y8
G1 F1350 X112.622 Y105.732 E53.42653
M205 X10 Y10
G0 F6000 X112.263 Y105.525
M205 X8 Y8
G1 F1350 X102.588 Y115.2 E53.88161
M205 X10 Y10
G0 F6000 X102.588 Y114.634
M205 X8 Y8
G1 F1350 X111.904 Y105.318 E54.31981
M205 X10 Y10
G0 F6000 X111.545 Y105.112
M205 X8 Y8
G1 F1350 X102.588 Y114.069 E54.74112
M205 X10 Y10
G0 F6000 X102.588 Y113.503
M205 X8 Y8
G1 F1350 X111.186 Y104.904 E55.14556
M205 X10 Y10
G0 F6000 X110.827 Y104.698
M205 X8 Y8
G1 F1350 X102.589 Y112.936 E55.53305
M205 X10 Y10
G0 F6000 X102.589 Y112.371
M205 X8 Y8
G1 F1350 X110.469 Y104.491 E55.90371
M205 X10 Y10
G0 F6000 X110.109 Y104.284
M205 X8 Y8
G1 F1350 X102.589 Y111.805 E56.25745
M205 X10 Y10
G0 F6000 X102.589 Y111.239
M205 X8 Y8
G1 F1350 X109.75 Y104.078 E56.59428
M205 X10 Y10
G0 F6000 X109.392 Y103.871
M205 X8 Y8
G1 F1350 X102.589 Y110.674 E56.91427
M205 X10 Y10
G0 F6000 X102.589 Y110.108
M205 X8 Y8
G1 F1350 X109.033 Y103.664 E57.21738
M205 X10 Y10
G0 F6000 X108.673 Y103.458
M205 X8 Y8
G1 F1350 X102.589 Y109.542 E57.50355
M205 X10 Y10
G0 F6000 X102.589 Y108.976
M205 X8 Y8
G1 F1350 X108.315 Y103.251 E57.77286
M205 X10 Y10
G0 F6000 X107.956 Y103.044
M205 X8 Y8
G1 F1350 X102.589 Y108.41 E58.02528
M205 X10 Y10
G0 F6000 X102.589 Y107.845
M205 X8 Y8
G1 F1350 X107.596 Y102.838 E58.2608
M205 X10 Y10
G0 F6000 X107.238 Y102.63
M205 X8 Y8
G1 F1350 X102.589 Y107.279 E58.47947
M205 X10 Y10
G0 F6000 X102.589 Y106.713
M205 X8 Y8
G1 F1350 X106.879 Y102.424 E58.68124
M205 X10 Y10
G0 F6000 X106.52 Y102.217
M205 X8 Y8
G1 F1350 X102.59 Y106.147 E58.86609
M205 X10 Y10
G0 F6000 X102.59 Y105.581
M205 X8 Y8
G1 F1350 X106.161 Y102.01 E59.03406
M205 X10 Y10
G0 F6000 X105.802 Y101.804
M205 X8 Y8
G1 F1350 X102.59 Y105.015 E59.18512
M205 X10 Y10
G0 F6000 X102.59 Y104.45
M205 X8 Y8
G1 F1350 X105.443 Y101.597 E59.31932
M205 X10 Y10
G0 F6000 X105.084 Y101.39
M205 X8 Y8
G1 F1350 X102.59 Y103.884 E59.43663
M205 X10 Y10
G0 F6000 X102.59 Y103.318
M205 X8 Y8
G1 F1350 X104.725 Y101.184 E59.53703
M205 X10 Y10
G0 F6000 X104.366 Y100.976
M205 X8 Y8
G1 F1350 X102.591 Y102.752 E59.62054
M205 X10 Y10
G0 F6000 X102.591 Y102.186
M205 X8 Y8
G1 F1350 X104.007 Y100.77 E59.68715
M205 X10 Y10
G0 F6000 X103.648 Y100.564
M205 X8 Y8
G1 F1350 X102.591 Y101.621 E59.73686
M205 X10 Y10
G0 F6000 X102.591 Y101.055
M205 X8 Y8
G1 F1350 X103.289 Y100.356 E59.76972
M205 X10 Y10
G0 F6000 X102.93 Y100.15
M205 X8 Y8
G1 F1350 X102.591 Y100.489 E59.78566
M205 X10 Y10
G1 F1500 E53.78566
G1 F600 Z0.575
;MESH:NONMESH
G0 F6000 X121.057 Y109.995 Z0.575
;TIME_ELAPSED:75.013857
;LAYER:2
M106 S178.5
;MESH:pyra-3kant-mittel.stl
G0 X121.057 Y109.995 Z0.775
M205 X8 Y8
;TYPE:WALL-INNER
G1 F600 Z0.7
G1 F1500 E59.78566
G1 X102.071 Y120.939 E60.51454
G1 X102.076 Y99.063 E61.24214
G1 X121.057 Y109.995 E61.97067
M205 X10 Y10
G0 F6000 X121.859 Y109.995
M205 X8 Y8
G1 F1500 X101.671 Y121.632 E62.74569
G1 X101.676 Y98.37 E63.51939
G1 X121.859 Y109.995 E64.29407
M205 X10 Y10
G0 F6000 X122.661 Y109.995
M205 X8 Y8
;TYPE:WALL-OUTER
G1 F1500 X101.271 Y122.325 E65.11524
G1 X101.276 Y97.678 E65.935
G1 X122.661 Y109.995 E66.75581
M205 X10 Y10
G0 F6000 X122.488 Y110.094
G1 F1500 E60.75581
G1 F600 Z0.775
G0 F6000 X120.276 Y109.995 Z0.775
M205 X8 Y8
;TYPE:SKIN
G1 F600 Z0.7
G1 F1500 E66.75581
G1 X102.461 Y120.264 E67.43973
G1 X102.466 Y99.738 E68.12242
G1 X120.276 Y109.995 E68.806
M205 X10 Y10
G0 F6000 X119.722 Y110.105
M205 X8 Y8
G1 F1500 X119.198 Y109.581 E68.83065
M205 X10 Y10
G0 F6000 X119.363 Y110.312
M205 X8 Y8
G1 F1500 X117.864 Y108.813 E68.90116
G1 X117.794 Y108.743
M205 X10 Y10
G0 F6000 X116.53 Y108.045
M205 X8 Y8
G1 F1500 X119.004 Y110.519 E69.01753
M205 X10 Y10
G0 F6000 X118.645 Y110.725
M205 X8 Y8
G1 F1500 X115.196 Y107.277 E69.17973
G1 X115.126 Y107.207
M205 X10 Y10
G0 F6000 X113.863 Y106.509
M205 X8 Y8
G1 F1500 X118.286 Y110.933 E69.3878
M205 X10 Y10
G0 F6000 X117.927 Y111.139
M205 X8 Y8
G1 F1500 X112.529 Y105.741 E69.64171
G1 X112.459 Y105.671
M205 X10 Y10
G0 F6000 X111.195 Y104.972
M205 X8 Y8
G1 F1500 X117.569 Y111.346 E69.94152
M205 X10 Y10
G0 F6000 X117.21 Y111.553
M205 X8 Y8
G1 F1500 X109.861 Y104.204 E70.28719
G1 X109.791 Y104.134
M205 X10 Y10
G0 F6000 X108.528 Y103.436
M205 X8 Y8
G1 F1500 X116.851 Y111.76 E70.67871
M205 X10 Y10
G0 F6000 X116.493 Y111.967
M205 X8 Y8
G1 F1500 X107.194 Y102.669 E71.11608
G1 X107.124 Y102.599
M205 X10 Y10
G0 F6000 X105.86 Y101.9
M205 X8 Y8
G1 F1500 X116.133 Y112.174 E71.59931
M205 X10 Y10
G0 F6000 X115.775 Y112.381
M205 X8 Y8
G1 F1500 X104.526 Y101.132 E72.12843
G1 X104.456 Y101.062
M205 X10 Y10
G0 F6000 X103.193 Y100.364
M205 X8 Y8
G1 F1500 X115.416 Y112.587 E72.70336
M205 X10 Y10
G0 F6000 X115.057 Y112.794
M205 X8 Y8
G1 F1500 X102.645 Y100.382 E73.28719
M205 X10 Y10
G0 F6000 X102.645 Y100.947
M205 X8 Y8
G1 F1500 X114.698 Y113.001 E73.85415
M205 X10 Y10
G0 F6000 X114.339 Y113.208
M205 X8 Y8
G1 F1500 X102.645 Y101.513 E74.40422
M205 X10 Y10
G0 F6000 X102.645 Y102.079
M205 X8 Y8
G1 F1500 X113.98 Y113.414 E74.93738
M205 X10 Y10
G0 F6000 X113.622 Y113.622
M205 X8 Y8
G1 F1500 X102.645 Y102.645 E75.45371
M205 X10 Y10
G0 F6000 X102.644 Y103.21
M205 X8 Y8
G1 F1500 X113.262 Y113.828 E75.95315
M205 X10 Y10
G0 F6000 X112.904 Y114.035
M205 X8 Y8
G1 F1500 X102.644 Y103.775 E76.43574
M205 X10 Y10
G0 F6000 X102.644 Y104.341
M205 X8 Y8
G1 F1500 X112.545 Y114.242 E76.90146
M205 X10 Y10
G0 F6000 X112.186 Y114.449
M205 X8 Y8
G1 F1500 X102.644 Y104.907 E77.35028
M205 X10 Y10
G0 F6000 X102.644 Y105.472
M205 X8 Y8
G1 F1500 X111.827 Y114.655 E77.78222
M205 X10 Y10
G0 F6000 X111.469 Y114.863
M205 X8 Y8
G1 F1500 X102.643 Y106.037 E78.19737
M205 X10 Y10
G0 F6000 X102.643 Y106.603
M205 X8 Y8
G1 F1500 X111.109 Y115.069 E78.59559
M205 X10 Y10
G0 F6000 X110.751 Y115.276
M205 X8 Y8
G1 F1500 X102.643 Y107.169 E78.97694
M205 X10 Y10
G0 F6000 X102.643 Y107.734
M205 X8 Y8
G1 F1500 X110.392 Y115.483 E79.34143
M205 X10 Y10
G0 F6000 X110.033 Y115.69
M205 X8 Y8
G1 F1500 X102.643 Y108.3 E79.68903
M205 X10 Y10
G0 F6000 X102.642 Y108.865
M205 X8 Y8
G1 F1500 X109.674 Y115.896 E80.01977
M205 X10 Y10
G0 F6000 X109.315 Y116.104
M205 X8 Y8
G1 F1500 X102.642 Y109.431 E80.33365
M205 X10 Y10
G0 F6000 X102.642 Y109.996
M205 X8 Y8
G1 F1500 X108.956 Y116.31 E80.63064
M205 X10 Y10
G0 F6000 X108.598 Y116.517
M205 X8 Y8
G1 F1500 X102.642 Y110.562 E80.91077
M205 X10 Y10
G0 F6000 X102.642 Y111.128
M205 X8 Y8
G1 F1500 X108.238 Y116.724 E81.17399
M205 X10 Y10
G0 F6000 X107.88 Y116.931
M205 X8 Y8
G1 F1500 X102.642 Y111.693 E81.42037
M205 X10 Y10
G0 F6000 X102.642 Y112.258
