;FLAVOR:Marlin
;TIME:3855
;Filament used: 3.21953m
;Layer height: 0.2
;MINX:92.867
;MINY:90.664
;MINZ:0.3
;MAXX:132.132
;MAXY:129.714
;MAXZ:33.9
;Generated with Cura_SteamEngine 4.13.1
M140 S60
M105
M190 S60
M104 S200
M105
M109 S200
M82 ;absolute extrusion mode
G21                                        ; metric values
G90                                        ; absolute positioning
M82                                        ; set extruder to absolute mode
M107                                       ; start with the fan off
M190 S60                                   ; preheat and wait for bed
M109 S210                                  ; preheat and wait for hotend
M300 S1000 P500                            ; BEEP heating done
G28 X0 Y10 Z0                              ; move X/Y to min endstops
M420 S1                                    ; enable mesh leveling
G0 Z0.15                                   ; lift nozzle a bit
G0 X2                                      ; move away from clips
G92 E0                                     ; zero the extruded length
G1 Y50 E25 F500                            ; Extrude 25mm of filament in a 5cm line.
G92 E0                                     ; zero the extruded length again
G1 E-2 F500                                ; Retract a little
G1 Y120 F4000                              ; Quickly wipe away from the filament line
G92 E0
G92 E0
G1 F1500 E-6
;LAYER_COUNT:171
;LAYER:0
M106 S76.5
M205 X10 Y10
G1 F600 Z0.375
;MESH:pyra-4kant-gross.stl
G0 F6000 X131.332 Y128.913 Z0.375
M205 X8 Y8
;TYPE:WALL-INNER
G1 F600 Z0.3
G1 F1500 E0
G1 F1200 X93.667 Y128.914 E1.87911
G1 X93.668 Y91.464 E3.7475
G1 X131.332 Y91.465 E5.62657
G1 X131.332 Y128.913 E7.49486
M205 X10 Y10
G0 F6000 X131.732 Y129.313
M205 X8 Y8
G1 F1200 X93.267 Y129.314 E9.41388
G1 X93.268 Y91.064 E11.32218
G1 X131.732 Y91.065 E13.24116
G1 X131.732 Y129.313 E15.14936
M205 X10 Y10
G0 F6000 X132.132 Y129.713
M205 X8 Y8
;TYPE:WALL-OUTER
G1 F1200 X92.867 Y129.714 E17.1083
G1 X92.868 Y90.664 E19.05651
G1 X132.132 Y90.665 E21.0154
G1 X132.132 Y129.713 E22.96351
M205 X10 Y10
G0 F6000 X131.932 Y129.713
G0 X131.692 Y129.273
G0 X130.942 Y128.523
M205 X8 Y8
;TYPE:SKIN
G1 F1200 X94.057 Y128.524 E24.80371
G1 X94.058 Y91.854 E26.63319
G1 X130.942 Y91.855 E28.47334
G1 X130.942 Y128.523 E30.30271
M205 X10 Y10
G1 F1500 E24.30271
G1 F600 Z0.375
G0 F6000 X130.761 Y92.295 Z0.375
M205 X8 Y8
G1 F600 Z0.3
G1 F1500 E30.30271
G1 F1200 X130.501 Y92.034 E30.32109
M205 X10 Y10
G0 F6000 X129.935 Y92.034
M205 X8 Y8
G1 F1200 X130.761 Y92.86 E30.37937
M205 X10 Y10
G0 F6000 X130.761 Y93.426
M205 X8 Y8
G1 F1200 X129.37 Y92.034 E30.47755
M205 X10 Y10
G0 F6000 X128.804 Y92.034
M205 X8 Y8
G1 F1200 X130.761 Y93.992 E30.61566
M205 X10 Y10
G0 F6000 X130.761 Y94.557
M205 X8 Y8
G1 F1200 X128.238 Y92.034 E30.79367
M205 X10 Y10
G0 F6000 X127.673 Y92.034
M205 X8 Y8
G1 F1200 X130.761 Y95.123 E31.01158
M205 X10 Y10
G0 F6000 X130.761 Y95.689
M205 X8 Y8
G1 F1200 X127.107 Y92.034 E31.26943
M205 X10 Y10
G0 F6000 X126.541 Y92.034
M205 X8 Y8
G1 F1200 X130.761 Y96.254 E31.56717
M205 X10 Y10
G0 F6000 X130.761 Y96.82
M205 X8 Y8
G1 F1200 X125.976 Y92.034 E31.90481
M205 X10 Y10
G0 F6000 X125.41 Y92.034
M205 X8 Y8
G1 F1200 X130.761 Y97.386 E32.28239
M205 X10 Y10
G0 F6000 X130.761 Y97.951
M205 X8 Y8
G1 F1200 X124.844 Y92.034 E32.69987
M205 X10 Y10
G0 F6000 X124.278 Y92.034
M205 X8 Y8
G1 F1200 X130.761 Y98.517 E33.15728
M205 X10 Y10
G0 F6000 X130.761 Y99.083
M205 X8 Y8
G1 F1200 X123.713 Y92.034 E33.65459
M205 X10 Y10
G0 F6000 X123.147 Y92.034
M205 X8 Y8
G1 F1200 X130.761 Y99.649 E34.19183
M205 X10 Y10
G0 F6000 X130.761 Y100.214
M205 X8 Y8
G1 F1200 X122.581 Y92.034 E34.76897
M205 X10 Y10
G0 F6000 X122.016 Y92.034
M205 X8 Y8
G1 F1200 X130.761 Y100.78 E35.38602
M205 X10 Y10
G0 F6000 X130.761 Y101.346
M205 X8 Y8
G1 F1200 X121.45 Y92.034 E36.04299
M205 X10 Y10
G0 F6000 X120.884 Y92.034
M205 X8 Y8
G1 F1200 X130.761 Y101.911 E36.73987
M205 X10 Y10
G0 F6000 X130.761 Y102.477
M205 X8 Y8
G1 F1200 X120.319 Y92.034 E37.47664
M205 X10 Y10
G0 F6000 X119.753 Y92.034
M205 X8 Y8
G1 F1200 X130.761 Y103.043 E38.25335
M205 X10 Y10
G0 F6000 X130.761 Y103.608
M205 X8 Y8
G1 F1200 X119.187 Y92.034 E39.06996
M205 X10 Y10
G0 F6000 X118.622 Y92.034
M205 X8 Y8
G1 F1200 X130.761 Y104.174 E39.92647
M205 X10 Y10
G0 F6000 X130.761 Y104.74
M205 X8 Y8
G1 F1200 X118.056 Y92.034 E40.82291
M205 X10 Y10
G0 F6000 X117.49 Y92.034
M205 X8 Y8
G1 F1200 X130.761 Y105.305 E41.75925
M205 X10 Y10
G0 F6000 X130.761 Y105.871
M205 X8 Y8
G1 F1200 X116.925 Y92.034 E42.73549
M205 X10 Y10
G0 F6000 X116.359 Y92.034
M205 X8 Y8
G1 F1200 X130.761 Y106.437 E43.75166
M205 X10 Y10
G0 F6000 X130.761 Y107.002
M205 X8 Y8
G1 F1200 X115.793 Y92.034 E44.80774
M205 X10 Y10
G0 F6000 X115.227 Y92.034
M205 X8 Y8
G1 F1200 X130.761 Y107.568 E45.90374
M205 X10 Y10
G0 F6000 X130.761 Y108.134
M205 X8 Y8
G1 F1200 X114.662 Y92.034 E47.03965
M205 X10 Y10
G0 F6000 X114.096 Y92.034
M205 X8 Y8
G1 F1200 X130.761 Y108.699 E48.21546
M205 X10 Y10
G0 F6000 X130.761 Y109.265
M205 X8 Y8
G1 F1200 X113.53 Y92.034 E49.4312
M205 X10 Y10
G0 F6000 X112.965 Y92.034
M205 X8 Y8
G1 F1200 X130.761 Y109.831 E50.68684
M205 X10 Y10
G0 F6000 X130.761 Y110.397
M205 X8 Y8
G1 F1200 X112.399 Y92.034 E51.98241
M205 X10 Y10
G0 F6000 X111.833 Y92.034
M205 X8 Y8
G1 F1200 X130.761 Y110.962 E53.31788
M205 X10 Y10
G0 F6000 X130.761 Y111.528
M205 X8 Y8
G1 F1200 X111.268 Y92.034 E54.69325
M205 X10 Y10
G0 F6000 X110.702 Y92.034
M205 X8 Y8
G1 F1200 X130.761 Y112.094 E56.10856
M205 X10 Y10
G0 F6000 X130.761 Y112.659
M205 X8 Y8
G1 F1200 X110.136 Y92.034 E57.56377
M205 X10 Y10
G0 F6000 X109.571 Y92.034
M205 X8 Y8
G1 F1200 X130.761 Y113.225 E59.05887
M205 X10 Y10
G0 F6000 X130.761 Y113.791
M205 X8 Y8
G1 F1200 X109.005 Y92.034 E60.59391
M205 X10 Y10
G0 F6000 X108.439 Y92.034
M205 X8 Y8
G1 F1200 X130.761 Y114.356 E62.16885
M205 X10 Y10
G0 F6000 X130.761 Y114.922
M205 X8 Y8
G1 F1200 X107.874 Y92.034 E63.78368
M205 X10 Y10
G0 F6000 X107.308 Y92.034
M205 X8 Y8
G1 F1200 X130.761 Y115.488 E65.43845
M205 X10 Y10
G0 F6000 X130.761 Y116.053
M205 X8 Y8
G1 F1200 X106.742 Y92.034 E67.13312
M205 X10 Y10
G0 F6000 X106.177 Y92.034
M205 X8 Y8
G1 F1200 X130.761 Y116.619 E68.86769
M205 X10 Y10
G0 F6000 X130.761 Y117.185
M205 X8 Y8
G1 F1200 X105.611 Y92.034 E70.6422
M205 X10 Y10
G0 F6000 X105.045 Y92.034
M205 X8 Y8
G1 F1200 X130.761 Y117.75 E72.4566
M205 X10 Y10
G0 F6000 X130.761 Y118.316
M205 X8 Y8
G1 F1200 X104.479 Y92.034 E74.31094
M205 X10 Y10
G0 F6000 X103.914 Y92.034
M205 X8 Y8
G1 F1200 X130.761 Y118.882 E76.20517
M205 X10 Y10
G0 F6000 X130.761 Y119.448
M205 X8 Y8
G1 F1200 X103.348 Y92.034 E78.13934
M205 X10 Y10
G0 F6000 X102.782 Y92.034
M205 X8 Y8
G1 F1200 X130.761 Y120.013 E80.11341
M205 X10 Y10
G0 F6000 X130.761 Y120.579
M205 X8 Y8
G1 F1200 X102.217 Y92.034 E82.12738
M205 X10 Y10
G0 F6000 X101.651 Y92.034
M205 X8 Y8
G1 F1200 X130.761 Y121.145 E84.18128
M205 X10 Y10
G0 F6000 X130.761 Y121.71
M205 X8 Y8
G1 F1200 X101.085 Y92.034 E86.27509
M205 X10 Y10
G0 F6000 X100.52 Y92.034
M205 X8 Y8
G1 F1200 X130.761 Y122.276 E88.40879
M205 X10 Y10
G0 F6000 X130.761 Y122.842
M205 X8 Y8
G1 F1200 X99.954 Y92.034 E90.58242
M205 X10 Y10
G0 F6000 X99.388 Y92.034
M205 X8 Y8
G1 F1200 X130.761 Y123.407 E92.79596
M205 X10 Y10
G0 F6000 X130.761 Y123.973
M205 X8 Y8
G1 F1200 X98.823 Y92.034 E95.04939
M205 X10 Y10
G0 F6000 X98.257 Y92.034
M205 X8 Y8
G1 F1200 X130.761 Y124.539 E97.34276
M205 X10 Y10
G0 F6000 X130.761 Y125.104
M205 X8 Y8
G1 F1200 X97.691 Y92.034 E99.67603
M205 X10 Y10
G0 F6000 X97.126 Y92.034
M205 X8 Y8
G1 F1200 X130.761 Y125.67 E102.04919
M205 X10 Y10
G0 F6000 X130.761 Y126.236
M205 X8 Y8
G1 F1200 X96.56 Y92.034 E104.46229
M205 X10 Y10
G0 F6000 X95.994 Y92.034
M205 X8 Y8
G1 F1200 X130.761 Y126.801 E106.91529
M205 X10 Y10
G0 F6000 X130.761 Y127.367
M205 X8 Y8
G1 F1200 X95.429 Y92.034 E109.40819
M205 X10 Y10
G0 F6000 X94.863 Y92.034
M205 X8 Y8
G1 F1200 X130.761 Y127.933 E111.94102
M205 X10 Y10
G0 F6000 X130.605 Y128.342
M205 X8 Y8
G1 F1200 X94.297 Y92.034 E114.50275
M205 X10 Y10
G0 F6000 X94.236 Y92.539
M205 X8 Y8
G1 F1200 X130.039 Y128.342 E117.02885
M205 X10 Y10
G0 F6000 X129.474 Y128.342
M205 X8 Y8
G1 F1200 X94.236 Y93.105 E119.51504
M205 X10 Y10
G0 F6000 X94.236 Y93.671
M205 X8 Y8
G1 F1200 X128.908 Y128.342 E121.9613
M205 X10 Y10
G0 F6000 X128.342 Y128.342
M205 X8 Y8
G1 F1200 X94.236 Y94.236 E124.36767
M205 X10 Y10
G0 F6000 X94.236 Y94.802
M205 X8 Y8
G1 F1200 X127.777 Y128.342 E126.73413
M205 X10 Y10
G0 F6000 X127.211 Y128.342
M205 X8 Y8
G1 F1200 X94.236 Y95.368 E129.06066
M205 X10 Y10
G0 F6000 X94.236 Y95.933
M205 X8 Y8
G1 F1200 X126.645 Y128.342 E131.34729
M205 X10 Y10
G0 F6000 X126.079 Y128.342
M205 X8 Y8
G1 F1200 X94.236 Y96.499 E133.59398
M205 X10 Y10
G0 F6000 X94.236 Y97.065
M205 X8 Y8
G1 F1200 X125.514 Y128.342 E135.80078
M205 X10 Y10
G0 F6000 X124.948 Y128.342
M205 X8 Y8
G1 F1200 X94.236 Y97.63 E137.96768
M205 X10 Y10
G0 F6000 X94.236 Y98.196
M205 X8 Y8
G1 F1200 X124.382 Y128.342 E140.09464
M205 X10 Y10
G0 F6000 X123.817 Y128.342
M205 X8 Y8
G1 F1200 X94.236 Y98.762 E142.1817
M205 X10 Y10
G0 F6000 X94.236 Y99.327
M205 X8 Y8
G1 F1200 X123.251 Y128.342 E144.22887
M205 X10 Y10
G0 F6000 X122.685 Y128.342
M205 X8 Y8
G1 F1200 X94.236 Y99.893 E146.2361
M205 X10 Y10
G0 F6000 X94.236 Y100.459
M205 X8 Y8
G1 F1200 X122.12 Y128.342 E148.20343
M205 X10 Y10
G0 F6000 X121.554 Y128.342
M205 X8 Y8
G1 F1200 X94.236 Y101.025 E150.13083
M205 X10 Y10
G0 F6000 X94.236 Y101.59
M205 X8 Y8
G1 F1200 X120.988 Y128.342 E152.01833
M205 X10 Y10
G0 F6000 X120.423 Y128.342
M205 X8 Y8
G1 F1200 X94.236 Y102.156 E153.86593
M205 X10 Y10
G0 F6000 X94.236 Y102.722
M205 X8 Y8
G1 F1200 X119.857 Y128.342 E155.67359
M205 X10 Y10
G0 F6000 X119.291 Y128.342
M205 X8 Y8
G1 F1200 X94.236 Y103.287 E157.44136
M205 X10 Y10
G0 F6000 X94.236 Y103.853
M205 X8 Y8
G1 F1200 X118.726 Y128.342 E159.16922
M205 X10 Y10
G0 F6000 X118.16 Y128.342
M205 X8 Y8
G1 F1200 X94.236 Y104.419 E160.85715
M205 X10 Y10
G0 F6000 X94.236 Y104.984
M205 X8 Y8
G1 F1200 X117.594 Y128.342 E162.50519
M205 X10 Y10
G0 F6000 X117.029 Y128.342
M205 X8 Y8
G1 F1200 X94.236 Y105.55 E164.11332
M205 X10 Y10
G0 F6000 X94.236 Y106.116
M205 X8 Y8
G1 F1200 X116.463 Y128.342 E165.68152
M205 X10 Y10
G0 F6000 X115.897 Y128.342
M205 X8 Y8
G1 F1200 X94.236 Y106.681 E167.20982
M205 X10 Y10
G0 F6000 X94.236 Y107.247
M205 X8 Y8
G1 F1200 X115.331 Y128.342 E168.69819
M205 X10 Y10
G0 F6000 X114.766 Y128.342
M205 X8 Y8
G1 F1200 X94.236 Y107.813 E170.14666
M205 X10 Y10
G0 F6000 X94.236 Y108.378
M205 X8 Y8
G1 F1200 X114.2 Y128.342 E171.55522
M205 X10 Y10
G0 F6000 X113.634 Y128.342
M205 X8 Y8
G1 F1200 X94.236 Y108.944 E172.92386
M205 X10 Y10
G0 F6000 X94.236 Y109.51
M205 X8 Y8
G1 F1200 X113.069 Y128.342 E174.25259
M205 X10 Y10
G0 F6000 X112.503 Y128.342
M205 X8 Y8
G1 F1200 X94.236 Y110.076 E175.54139
M205 X10 Y10
G0 F6000 X94.236 Y110.641
M205 X8 Y8
G1 F1200 X111.937 Y128.342 E176.79029
M205 X10 Y10
G0 F6000 X111.372 Y128.342
M205 X8 Y8
G1 F1200 X94.236 Y111.207 E177.99929
M205 X10 Y10
G0 F6000 X94.236 Y111.773
M205 X8 Y8
G1 F1200 X110.806 Y128.342 E179.16836
M205 X10 Y10
G0 F6000 X110.24 Y128.342
M205 X8 Y8
G1 F1200 X94.236 Y112.338 E180.29753
M205 X10 Y10
G0 F6000 X94.236 Y112.904
M205 X8 Y8
G1 F1200 X109.675 Y128.342 E181.3868
M205 X10 Y10
G0 F6000 X109.109 Y128.342
M205 X8 Y8
G1 F1200 X94.236 Y113.47 E182.43614
M205 X10 Y10
G0 F6000 X94.236 Y114.035
M205 X8 Y8
G1 F1200 X108.543 Y128.342 E183.44557
M205 X10 Y10
G0 F6000 X107.978 Y128.342
M205 X8 Y8
G1 F1200 X94.236 Y114.601 E184.41511
M205 X10 Y10
G0 F6000 X94.236 Y115.167
M205 X8 Y8
G1 F1200 X107.412 Y128.342 E185.34471
M205 X10 Y10
G0 F6000 X106.846 Y128.342
M205 X8 Y8
G1 F1200 X94.236 Y115.732 E186.23442
M205 X10 Y10
G0 F6000 X94.236 Y116.298
M205 X8 Y8
G1 F1200 X106.28 Y128.342 E187.08418
M205 X10 Y10
G0 F6000 X105.715 Y128.342
M205 X8 Y8
G1 F1200 X94.236 Y116.864 E187.89405
M205 X10 Y10
G0 F6000 X94.236 Y117.429
M205 X8 Y8
G1 F1200 X105.149 Y128.342 E188.66403
M205 X10 Y10
G0 F6000 X104.583 Y128.342
M205 X8 Y8
G1 F1200 X94.236 Y117.995 E189.39406
M205 X10 Y10
G0 F6000 X94.236 Y118.561
M205 X8 Y8
G1 F1200 X104.018 Y128.342 E190.0842
M205 X10 Y10
G0 F6000 X103.452 Y128.342
M205 X8 Y8
G1 F1200 X94.236 Y119.126 E190.73444
M205 X10 Y10
G0 F6000 X94.236 Y119.692
M205 X8 Y8
G1 F1200 X102.886 Y128.342 E191.34474
M205 X10 Y10
G0 F6000 X102.321 Y128.342
M205 X8 Y8
G1 F1200 X94.236 Y120.258 E191.91515
M205 X10 Y10
G0 F6000 X94.236 Y120.824
M205 X8 Y8
G1 F1200 X101.755 Y128.342 E192.44562
M205 X10 Y10
G0 F6000 X101.189 Y128.342
M205 X8 Y8
G1 F1200 X94.236 Y121.389 E192.93619
M205 X10 Y10
G0 F6000 X94.236 Y121.955
M205 X8 Y8
G1 F1200 X100.624 Y128.342 E193.38686
M205 X10 Y10
G0 F6000 X100.058 Y128.342
M205 X8 Y8
G1 F1200 X94.236 Y122.521 E193.7976
M205 X10 Y10
G0 F6000 X94.236 Y123.086
M205 X8 Y8
G1 F1200 X99.492 Y128.342 E194.16844
M205 X10 Y10
G0 F6000 X98.927 Y128.342
M205 X8 Y8
G1 F1200 X94.236 Y123.652 E194.49938
M205 X10 Y10
G0 F6000 X94.236 Y124.218
M205 X8 Y8
G1 F1200 X98.361 Y128.342 E194.79039
M205 X10 Y10
G0 F6000 X97.795 Y128.342
M205 X8 Y8
G1 F1200 X94.236 Y124.783 E195.04149
M205 X10 Y10
G0 F6000 X94.236 Y125.349
M205 X8 Y8
G1 F1200 X97.23 Y128.342 E195.2527
M205 X10 Y10
G0 F6000 X96.664 Y128.342
M205 X8 Y8
G1 F1200 X94.236 Y125.915 E195.42397
M205 X10 Y10
G0 F6000 X94.236 Y126.48
M205 X8 Y8
G1 F1200 X96.098 Y128.342 E195.55535
M205 X10 Y10
G0 F6000 X95.532 Y128.342
M205 X8 Y8
G1 F1200 X94.236 Y127.046 E195.64679
M205 X10 Y10
G0 F6000 X94.236 Y127.612
M205 X8 Y8
G1 F1200 X94.967 Y128.342 E195.69833
M205 X10 Y10
G0 F6000 X94.401 Y128.342
M205 X8 Y8
G1 F1200 X94.236 Y128.177 E195.70997
M205 X10 Y10
G1 F1500 E189.70997
G1 F600 Z0.375
;MESH:NONMESH
G0 F6000 X131.187 Y128.768 Z0.375
;TIME_ELAPSED:203.831822
;LAYER:1
M106 S127.5
;MESH:pyra-4kant-gross.stl
G0 X131.187 Y128.768 Z0.575
M205 X8 Y8
;TYPE:WALL-INNER
G1 F600 Z0.5
G1 F1500 E195.70997
G1 F1350 X93.812 Y128.769 E196.95307
G1 X93.814 Y91.609 E198.18901
G1 X131.187 Y91.61 E199.43205
G1 X131.187 Y128.768 E200.66793
M205 X10 Y10
G0 F6000 X131.587 Y129.168
M205 X8 Y8
G1 F1350 X93.412 Y129.169 E201.93763
G1 X93.414 Y91.209 E203.20019
G1 X131.587 Y91.21 E204.46983
G1 X131.587 Y129.168 E205.73231
M205 X10 Y10
G0 F6000 X131.987 Y129.568
M205 X8 Y8
;TYPE:WALL-OUTER
G1 F1350 X93.012 Y129.569 E207.02863
G1 X93.014 Y90.809 E208.31779
G1 X131.987 Y90.81 E209.61404
G1 X131.987 Y129.568 E210.90313
M205 X10 Y10
G0 F6000 X131.787 Y129.568
G0 X131.547 Y129.128
G0 X130.797 Y128.378
M205 X8 Y8
;TYPE:SKIN
G1 F1350 X94.202 Y128.379 E212.12029
G1 X94.204 Y91.999 E213.33029
G1 X130.797 Y92 E214.54738
G1 X130.797 Y128.378 E215.75732
M205 X10 Y10
G0 F6000 X130.616 Y127.902
M205 X8 Y8
G1 F1350 X130.319 Y128.198 E215.77126
M205 X10 Y10
G0 F6000 X129.754 Y128.198
M205 X8 Y8
G1 F1350 X130.616 Y127.336 E215.81181
M205 X10 Y10
G0 F6000 X130.616 Y126.77
M205 X8 Y8
G1 F1350 X129.188 Y128.198 E215.87898
M205 X10 Y10
G0 F6000 X128.622 Y128.198
M205 X8 Y8
G1 F1350 X130.616 Y126.205 E215.97275
M205 X10 Y10
G0 F6000 X130.616 Y125.639
M205 X8 Y8
G1 F1350 X128.057 Y128.198 E216.09311
M205 X10 Y10
G0 F6000 X127.491 Y128.198
M205 X8 Y8
G1 F1350 X130.616 Y125.073 E216.2401
M205 X10 Y10
G0 F6000 X130.616 Y124.508
M205 X8 Y8
G1 F1350 X126.925 Y128.198 E216.41369
M205 X10 Y10
G0 F6000 X126.359 Y128.198
M205 X8 Y8
G1 F1350 X130.616 Y123.942 E216.61391
M205 X10 Y10
G0 F6000 X130.616 Y123.376
M205 X8 Y8
G1 F1350 X125.794 Y128.198 E216.84072
M205 X10 Y10
G0 F6000 X125.228 Y128.198
M205 X8 Y8
G1 F1350 X130.616 Y122.811 E217.09413
M205 X10 Y10
G0 F6000 X130.616 Y122.245
M205 X8 Y8
G1 F1350 X124.662 Y128.198 E217.37417
M205 X10 Y10
G0 F6000 X124.097 Y128.198
M205 X8 Y8
G1 F1350 X130.616 Y121.679 E217.6808
M205 X10 Y10
G0 F6000 X130.616 Y121.113
M205 X8 Y8
G1 F1350 X123.531 Y128.198 E218.01406
M205 X10 Y10
G0 F6000 X122.965 Y128.198
M205 X8 Y8
G1 F1350 X130.616 Y120.548 E218.37391
M205 X10 Y10
G0 F6000 X130.616 Y119.982
M205 X8 Y8
G1 F1350 X122.4 Y128.198 E218.76037
M205 X10 Y10
G0 F6000 X121.834 Y128.198
M205 X8 Y8
G1 F1350 X130.616 Y119.416 E219.17345
