;FLAVOR:Marlin
;TIME:1594
;Filament used: 1.14211m
;Layer height: 0.2
;MINX:99.64
;MINY:97.336
;MINZ:0.3
;MAXX:125.359
;MAXY:122.914
;MAXZ:22.3
;Generated with Cura_SteamEngine 4.13.1
M140 S60
M105
M190 S60
M104 S200
M105
M109 S200
M82 ;absolute extrusion mode
G21                                        ; metric values
G90                                        ; absolute positioning
M82                                        ; set extruder to absolute mode
M107                                       ; start with the fan off
M190 S60                                   ; preheat and wait for bed
M109 S210                                  ; preheat and wait for hotend
M300 S1000 P500                            ; BEEP heating done
G28 X0 Y10 Z0                              ; move X/Y to min endstops
M420 S1                                    ; enable mesh leveling
G0 Z0.15                                   ; lift nozzle a bit
G0 X2                                      ; move away from clips
G92 E0                                     ; zero the extruded length
G1 Y50 E25 F500                            ; Extrude 25mm of filament in a 5cm line.
G92 E0                                     ; zero the extruded length again
G1 E-2 F500                                ; Retract a little
G1 Y120 F4000                              ; Quickly wipe away from the filament line
G92 E0
G92 E0
G1 F1500 E-6
;LAYER_COUNT:113
;LAYER:0
M106 S76.5
M205 X10 Y10
G1 F600 Z0.375
;MESH:pyra-4kant-gross.stl
G0 F6000 X124.559 Y122.113 Z0.375
M205 X8 Y8
;TYPE:WALL-INNER
G1 F600 Z0.3
G1 F1500 E0
G1 F1200 X100.44 Y122.114 E1.2033
G1 X100.441 Y98.136 E2.39957
G1 X124.559 Y98.137 E3.60282
G1 X124.559 Y122.113 E4.79899
M205 X10 Y10
G0 F6000 X124.959 Y122.513
M205 X8 Y8
G1 F1200 X100.04 Y122.514 E6.0422
G1 X100.041 Y97.736 E7.27838
G1 X124.959 Y97.737 E8.52155
G1 X124.959 Y122.513 E9.75763
M205 X10 Y10
G0 F6000 X125.359 Y122.913
M205 X8 Y8
;TYPE:WALL-OUTER
G1 F1200 X99.64 Y122.914 E11.04075
G1 X99.641 Y97.336 E12.31684
G1 X125.359 Y97.337 E13.59992
G1 X125.359 Y122.913 E14.87591
M205 X10 Y10
G0 F6000 X125.159 Y122.913
G0 X124.919 Y122.473
G0 X124.169 Y121.723
M205 X8 Y8
;TYPE:SKIN
G1 F1200 X100.83 Y121.724 E16.0403
G1 X100.831 Y98.526 E17.19765
G1 X124.169 Y98.527 E18.36199
G1 X124.169 Y121.723 E19.51924
M205 X10 Y10
G1 F1500 E13.51924
G1 F600 Z0.375
G0 F6000 X123.988 Y99.098 Z0.375
M205 X8 Y8
G1 F600 Z0.3
G1 F1500 E19.51924
G1 F1200 X123.596 Y98.706 E19.5469
M205 X10 Y10
G0 F6000 X123.03 Y98.706
M205 X8 Y8
G1 F1200 X123.988 Y99.663 E19.61446
M205 X10 Y10
G0 F6000 X123.988 Y100.229
M205 X8 Y8
G1 F1200 X122.465 Y98.706 E19.72191
M205 X10 Y10
G0 F6000 X121.899 Y98.706
M205 X8 Y8
G1 F1200 X123.988 Y100.795 E19.8693
M205 X10 Y10
G0 F6000 X123.988 Y101.36
M205 X8 Y8
G1 F1200 X121.333 Y98.706 E20.05659
M205 X10 Y10
G0 F6000 X120.768 Y98.706
M205 X8 Y8
G1 F1200 X123.988 Y101.926 E20.28378
M205 X10 Y10
G0 F6000 X123.988 Y102.492
M205 X8 Y8
G1 F1200 X120.202 Y98.706 E20.5509
M205 X10 Y10
G0 F6000 X119.636 Y98.706
M205 X8 Y8
G1 F1200 X123.988 Y103.057 E20.85793
M205 X10 Y10
G0 F6000 X123.988 Y103.623
M205 X8 Y8
G1 F1200 X119.071 Y98.706 E21.20485
M205 X10 Y10
G0 F6000 X118.505 Y98.706
M205 X8 Y8
G1 F1200 X123.988 Y104.189 E21.5917
M205 X10 Y10
G0 F6000 X123.988 Y104.755
M205 X8 Y8
G1 F1200 X117.939 Y98.706 E22.01849
M205 X10 Y10
G0 F6000 X117.374 Y98.706
M205 X8 Y8
G1 F1200 X123.988 Y105.32 E22.48514
M205 X10 Y10
G0 F6000 X123.988 Y105.886
M205 X8 Y8
G1 F1200 X116.808 Y98.706 E22.99173
M205 X10 Y10
G0 F6000 X116.242 Y98.706
M205 X8 Y8
G1 F1200 X123.988 Y106.452 E23.53825
M205 X10 Y10
G0 F6000 X123.988 Y107.017
M205 X8 Y8
G1 F1200 X115.677 Y98.706 E24.12464
M205 X10 Y10
G0 F6000 X115.111 Y98.706
M205 X8 Y8
G1 F1200 X123.988 Y107.583 E24.75096
M205 X10 Y10
G0 F6000 X123.988 Y108.149
M205 X8 Y8
G1 F1200 X114.545 Y98.706 E25.41722
M205 X10 Y10
G0 F6000 X113.979 Y98.706
M205 X8 Y8
G1 F1200 X123.988 Y108.714 E26.12337
M205 X10 Y10
G0 F6000 X123.988 Y109.28
M205 X8 Y8
G1 F1200 X113.414 Y98.706 E26.86942
M205 X10 Y10
G0 F6000 X112.848 Y98.706
M205 X8 Y8
G1 F1200 X123.988 Y109.846 E27.65541
M205 X10 Y10
G0 F6000 X123.988 Y110.411
M205 X8 Y8
G1 F1200 X112.282 Y98.706 E28.4813
M205 X10 Y10
G0 F6000 X111.717 Y98.706
M205 X8 Y8
G1 F1200 X123.988 Y110.977 E29.34708
M205 X10 Y10
G0 F6000 X123.988 Y111.543
M205 X8 Y8
G1 F1200 X111.151 Y98.706 E30.2528
M205 X10 Y10
G0 F6000 X110.585 Y98.706
M205 X8 Y8
G1 F1200 X123.988 Y112.108 E31.19842
M205 X10 Y10
G0 F6000 X123.988 Y112.674
M205 X8 Y8
G1 F1200 X110.02 Y98.706 E32.18394
M205 X10 Y10
G0 F6000 X109.454 Y98.706
M205 X8 Y8
G1 F1200 X123.988 Y113.24 E33.20939
M205 X10 Y10
G0 F6000 X123.988 Y113.806
M205 X8 Y8
G1 F1200 X108.888 Y98.706 E34.27478
M205 X10 Y10
G0 F6000 X108.323 Y98.706
M205 X8 Y8
G1 F1200 X123.988 Y114.371 E35.38003
M205 X10 Y10
G0 F6000 X123.988 Y114.937
M205 X8 Y8
G1 F1200 X107.757 Y98.706 E36.52521
M205 X10 Y10
G0 F6000 X107.191 Y98.706
M205 X8 Y8
G1 F1200 X123.988 Y115.503 E37.71033
M205 X10 Y10
G0 F6000 X123.988 Y116.068
M205 X8 Y8
G1 F1200 X106.626 Y98.706 E38.93531
M205 X10 Y10
G0 F6000 X106.06 Y98.706
M205 X8 Y8
G1 F1200 X123.988 Y116.634 E40.20023
M205 X10 Y10
G0 F6000 X123.988 Y117.2
M205 X8 Y8
G1 F1200 X105.494 Y98.706 E41.50508
M205 X10 Y10
G0 F6000 X104.928 Y98.706
M205 X8 Y8
G1 F1200 X123.988 Y117.765 E42.84983
M205 X10 Y10
G0 F6000 X123.988 Y118.331
M205 X8 Y8
G1 F1200 X104.363 Y98.706 E44.23448
M205 X10 Y10
G0 F6000 X103.797 Y98.706
M205 X8 Y8
G1 F1200 X123.988 Y118.897 E45.65907
M205 X10 Y10
G0 F6000 X123.988 Y119.462
M205 X8 Y8
G1 F1200 X103.231 Y98.706 E47.12355
M205 X10 Y10
G0 F6000 X102.666 Y98.706
M205 X8 Y8
G1 F1200 X123.988 Y120.028 E48.62793
M205 X10 Y10
G0 F6000 X123.988 Y120.594
M205 X8 Y8
G1 F1200 X102.1 Y98.706 E50.17225
M205 X10 Y10
G0 F6000 X101.534 Y98.706
M205 X8 Y8
G1 F1200 X123.988 Y121.159 E51.75646
M205 X10 Y10
G0 F6000 X123.805 Y121.543
M205 X8 Y8
G1 F1200 X101.01 Y98.747 E53.36481
M205 X10 Y10
G0 F6000 X101.01 Y99.313
M205 X8 Y8
G1 F1200 X123.24 Y121.543 E54.93326
M205 X10 Y10
G0 F6000 X122.674 Y121.543
M205 X8 Y8
G1 F1200 X101.01 Y99.878 E56.4618
M205 X10 Y10
G0 F6000 X101.01 Y100.444
M205 X8 Y8
G1 F1200 X122.108 Y121.543 E57.95042
M205 X10 Y10
G0 F6000 X121.543 Y121.543
M205 X8 Y8
G1 F1200 X101.01 Y101.01 E59.39913
M205 X10 Y10
G0 F6000 X101.01 Y101.575
M205 X8 Y8
G1 F1200 X120.977 Y121.543 E60.80795
M205 X10 Y10
G0 F6000 X120.411 Y121.543
M205 X8 Y8
G1 F1200 X101.01 Y102.141 E62.17683
M205 X10 Y10
G0 F6000 X101.01 Y102.707
M205 X8 Y8
G1 F1200 X119.846 Y121.543 E63.50581
M205 X10 Y10
G0 F6000 X119.28 Y121.543
M205 X8 Y8
G1 F1200 X101.01 Y103.272 E64.79489
M205 X10 Y10
G0 F6000 X101.01 Y103.838
M205 X8 Y8
G1 F1200 X118.714 Y121.543 E66.04404
M205 X10 Y10
G0 F6000 X118.149 Y121.543
M205 X8 Y8
G1 F1200 X101.01 Y104.404 E67.25329
M205 X10 Y10
G0 F6000 X101.01 Y104.97
M205 X8 Y8
G1 F1200 X117.583 Y121.543 E68.4226
M205 X10 Y10
G0 F6000 X117.017 Y121.543
M205 X8 Y8
G1 F1200 X101.01 Y105.535 E69.55202
M205 X10 Y10
G0 F6000 X101.01 Y106.101
M205 X8 Y8
G1 F1200 X116.452 Y121.543 E70.64153
M205 X10 Y10
G0 F6000 X115.886 Y121.543
M205 X8 Y8
G1 F1200 X101.01 Y106.667 E71.69112
M205 X10 Y10
G0 F6000 X101.01 Y107.232
M205 X8 Y8
G1 F1200 X115.32 Y121.543 E72.7008
M205 X10 Y10
G0 F6000 X114.754 Y121.543
M205 X8 Y8
G1 F1200 X101.01 Y107.798 E73.67055
M205 X10 Y10
G0 F6000 X101.01 Y108.364
M205 X8 Y8
G1 F1200 X114.189 Y121.543 E74.6004
M205 X10 Y10
G0 F6000 X113.623 Y121.543
M205 X8 Y8
G1 F1200 X101.01 Y108.929 E75.49035
M205 X10 Y10
G0 F6000 X101.01 Y109.495
M205 X8 Y8
G1 F1200 X113.057 Y121.543 E76.34036
M205 X10 Y10
G0 F6000 X112.492 Y121.543
M205 X8 Y8
G1 F1200 X101.01 Y110.061 E77.15048
M205 X10 Y10
G0 F6000 X101.01 Y110.626
M205 X8 Y8
G1 F1200 X111.926 Y121.543 E77.9207
M205 X10 Y10
G0 F6000 X111.36 Y121.543
M205 X8 Y8
G1 F1200 X101.01 Y111.192 E78.65098
M205 X10 Y10
G0 F6000 X101.01 Y111.758
M205 X8 Y8
G1 F1200 X110.795 Y121.543 E79.34137
M205 X10 Y10
G0 F6000 X110.229 Y121.543
M205 X8 Y8
G1 F1200 X101.01 Y112.323 E79.99185
M205 X10 Y10
G0 F6000 X101.01 Y112.889
M205 X8 Y8
G1 F1200 X109.663 Y121.543 E80.6024
M205 X10 Y10
G0 F6000 X109.098 Y121.543
M205 X8 Y8
G1 F1200 X101.01 Y113.455 E81.17306
M205 X10 Y10
G0 F6000 X101.01 Y114.02
M205 X8 Y8
G1 F1200 X108.532 Y121.543 E81.70381
M205 X10 Y10
G0 F6000 X107.966 Y121.543
M205 X8 Y8
G1 F1200 X101.01 Y114.586 E82.19463
M205 X10 Y10
G0 F6000 X101.01 Y115.152
M205 X8 Y8
G1 F1200 X107.401 Y121.543 E82.64555
M205 X10 Y10
G0 F6000 X106.835 Y121.543
M205 X8 Y8
G1 F1200 X101.01 Y115.718 E83.05653
M205 X10 Y10
G0 F6000 X101.01 Y116.283
M205 X8 Y8
G1 F1200 X106.269 Y121.543 E83.42762
M205 X10 Y10
G0 F6000 X105.703 Y121.543
M205 X8 Y8
G1 F1200 X101.01 Y116.849 E83.75877
M205 X10 Y10
G0 F6000 X101.01 Y117.415
M205 X8 Y8
G1 F1200 X105.138 Y121.543 E84.05002
M205 X10 Y10
G0 F6000 X104.572 Y121.543
M205 X8 Y8
G1 F1200 X101.01 Y117.98 E84.30138
M205 X10 Y10
G0 F6000 X101.01 Y118.546
M205 X8 Y8
G1 F1200 X104.006 Y121.543 E84.5128
M205 X10 Y10
G0 F6000 X103.441 Y121.543
M205 X8 Y8
G1 F1200 X101.01 Y119.112 E84.68432
M205 X10 Y10
G0 F6000 X101.01 Y119.677
M205 X8 Y8
G1 F1200 X102.875 Y121.543 E84.81594
M205 X10 Y10
G0 F6000 X102.309 Y121.543
M205 X8 Y8
G1 F1200 X101.01 Y120.243 E84.90762
M205 X10 Y10
G0 F6000 X101.01 Y120.809
M205 X8 Y8
G1 F1200 X101.744 Y121.543 E84.95941
M205 X10 Y10
G0 F6000 X101.178 Y121.543
M205 X8 Y8
G1 F1200 X101.01 Y121.374 E84.9713
M205 X10 Y10
G1 F1500 E78.9713
G1 F600 Z0.375
;MESH:NONMESH
G0 F6000 X124.414 Y121.968 Z0.375
;TIME_ELAPSED:91.157100
;LAYER:1
M106 S127.5
;MESH:pyra-4kant-gross.stl
G0 X124.414 Y121.968 Z0.575
M205 X8 Y8
;TYPE:WALL-INNER
G1 F600 Z0.5
G1 F1500 E84.9713
G1 F1350 X100.585 Y121.969 E85.76386
G1 X100.587 Y98.281 E86.55172
G1 X124.414 Y98.282 E87.34421
G1 X124.414 Y121.968 E88.13201
M205 X10 Y10
G0 F6000 X124.814 Y122.368
M205 X8 Y8
G1 F1350 X100.185 Y122.369 E88.95118
G1 X100.187 Y97.881 E89.76565
G1 X124.814 Y97.882 E90.58475
G1 X124.814 Y122.368 E91.39915
M205 X10 Y10
G0 F6000 X125.214 Y122.768
M205 X8 Y8
;TYPE:WALL-OUTER
G1 F1350 X99.785 Y122.769 E92.24493
G1 X99.787 Y97.481 E93.08601
G1 X125.214 Y97.482 E93.93171
G1 X125.214 Y122.768 E94.77273
M205 X10 Y10
G0 F6000 X125.014 Y122.768
G0 X124.774 Y122.328
G0 X124.024 Y121.578
M205 X8 Y8
;TYPE:SKIN
G1 F1350 X100.975 Y121.579 E95.53934
G1 X100.977 Y98.671 E96.30127
G1 X124.024 Y98.672 E97.06781
G1 X124.024 Y121.578 E97.82967
M205 X10 Y10
G0 F6000 X123.843 Y121.098
M205 X8 Y8
G1 F1350 X123.543 Y121.398 E97.84378
M205 X10 Y10
G0 F6000 X122.977 Y121.398
M205 X8 Y8
G1 F1350 X123.843 Y120.532 E97.88451
M205 X10 Y10
G0 F6000 X123.843 Y119.967
M205 X8 Y8
G1 F1350 X122.412 Y121.398 E97.95182
M205 X10 Y10
G0 F6000 X121.846 Y121.398
M205 X8 Y8
G1 F1350 X123.843 Y119.401 E98.04576
M205 X10 Y10
G0 F6000 X123.843 Y118.835
M205 X8 Y8
G1 F1350 X121.28 Y121.398 E98.16631
M205 X10 Y10
G0 F6000 X120.715 Y121.398
M205 X8 Y8
G1 F1350 X123.843 Y118.269 E98.31347
M205 X10 Y10
G0 F6000 X123.843 Y117.704
M205 X8 Y8
G1 F1350 X120.149 Y121.398 E98.48722
M205 X10 Y10
G0 F6000 X119.583 Y121.398
M205 X8 Y8
G1 F1350 X123.843 Y117.138 E98.6876
M205 X10 Y10
G0 F6000 X123.843 Y116.572
M205 X8 Y8
G1 F1350 X119.018 Y121.398 E98.91458
M205 X10 Y10
G0 F6000 X118.452 Y121.398
M205 X8 Y8
G1 F1350 X123.843 Y116.007 E99.16815
M205 X10 Y10
G0 F6000 X123.843 Y115.441
M205 X8 Y8
G1 F1350 X117.886 Y121.398 E99.44835
M205 X10 Y10
G0 F6000 X117.321 Y121.398
M205 X8 Y8
G1 F1350 X123.843 Y114.875 E99.75515
M205 X10 Y10
G0 F6000 X123.843 Y114.31
M205 X8 Y8
G1 F1350 X116.755 Y121.398 E100.08855
M205 X10 Y10
G0 F6000 X116.189 Y121.398
M205 X8 Y8
G1 F1350 X123.843 Y113.744 E100.44857
M205 X10 Y10
G0 F6000 X123.843 Y113.178
M205 X8 Y8
G1 F1350 X115.623 Y121.398 E100.83521
M205 X10 Y10
G0 F6000 X115.058 Y121.398
M205 X8 Y8
G1 F1350 X123.843 Y112.613 E101.24843
M205 X10 Y10
G0 F6000 X123.843 Y112.047
M205 X8 Y8
G1 F1350 X114.492 Y121.398 E101.68827
M205 X10 Y10
G0 F6000 X113.926 Y121.398
M205 X8 Y8
G1 F1350 X123.843 Y111.481 E102.15474
M205 X10 Y10
G0 F6000 X123.843 Y110.916
M205 X8 Y8
G1 F1350 X113.361 Y121.398 E102.64778
M205 X10 Y10
G0 F6000 X112.795 Y121.398
M205 X8 Y8
G1 F1350 X123.843 Y110.35 E103.16744
M205 X10 Y10
G0 F6000 X123.843 Y109.784
M205 X8 Y8
G1 F1350 X112.229 Y121.398 E103.71373
M205 X10 Y10
G0 F6000 X111.664 Y121.398
M205 X8 Y8
G1 F1350 X123.843 Y109.219 E104.28659
M205 X10 Y10
G0 F6000 X123.843 Y108.653
M205 X8 Y8
G1 F1350 X111.098 Y121.398 E104.88608
M205 X10 Y10
G0 F6000 X110.532 Y121.398
M205 X8 Y8
G1 F1350 X123.843 Y108.087 E105.51219
M205 X10 Y10
G0 F6000 X123.843 Y107.521
M205 X8 Y8
G1 F1350 X109.967 Y121.398 E106.1649
M205 X10 Y10
G0 F6000 X109.401 Y121.398
M205 X8 Y8
G1 F1350 X123.843 Y106.956 E106.8442
M205 X10 Y10
G0 F6000 X123.843 Y106.39
M205 X8 Y8
G1 F1350 X108.835 Y121.398 E107.55013
M205 X10 Y10
G0 F6000 X108.27 Y121.398
M205 X8 Y8
G1 F1350 X123.843 Y105.824 E108.28266
M205 X10 Y10
G0 F6000 X123.843 Y105.259
M205 X8 Y8
G1 F1350 X107.704 Y121.398 E109.04179
M205 X10 Y10
G0 F6000 X107.138 Y121.398
M205 X8 Y8
G1 F1350 X123.843 Y104.693 E109.82754
M205 X10 Y10
G0 F6000 X123.843 Y104.127
M205 X8 Y8
G1 F1350 X106.573 Y121.398 E110.6399
M205 X10 Y10
G0 F6000 X106.007 Y121.398
M205 X8 Y8
G1 F1350 X123.843 Y103.562 E111.47885
M205 X10 Y10
G0 F6000 X123.843 Y102.996
M205 X8 Y8
G1 F1350 X105.441 Y121.398 E112.34442
M205 X10 Y10
G0 F6000 X104.875 Y121.398
M205 X8 Y8
G1 F1350 X123.843 Y102.43 E113.23662
M205 X10 Y10
G0 F6000 X123.843 Y101.865
M205 X8 Y8
G1 F1350 X104.31 Y121.398 E114.15539
M205 X10 Y10
G0 F6000 X103.744 Y121.398
M205 X8 Y8
G1 F1350 X123.843 Y101.299 E115.10078
M205 X10 Y10
G0 F6000 X123.843 Y100.733
M205 X8 Y8
G1 F1350 X103.178 Y121.398 E116.0728
M205 X10 Y10
G0 F6000 X102.613 Y121.398
M205 X8 Y8
G1 F1350 X123.843 Y100.168 E117.0714
M205 X10 Y10
G0 F6000 X123.843 Y99.602
M205 X8 Y8
G1 F1350 X102.047 Y121.398 E118.09661
M205 X10 Y10
G0 F6000 X101.481 Y121.398
M205 X8 Y8
G1 F1350 X123.843 Y99.036 E119.14845
M205 X10 Y10
G0 F6000 X123.462 Y98.851
M205 X8 Y8
G1 F1350 X101.155 Y121.158 E120.19771
M205 X10 Y10
G0 F6000 X101.155 Y120.592
M205 X8 Y8
G1 F1350 X122.897 Y98.851 E121.22036
M205 X10 Y10
G0 F6000 X122.331 Y98.851
M205 X8 Y8
G1 F1350 X101.155 Y120.027 E122.21641
M205 X10 Y10
G0 F6000 X101.155 Y119.461
M205 X8 Y8
G1 F1350 X121.765 Y98.851 E123.18585
M205 X10 Y10
G0 F6000 X121.2 Y98.851
M205 X8 Y8
G1 F1350 X101.155 Y118.895 E124.12868
M205 X10 Y10
G0 F6000 X101.155 Y118.33
M205 X8 Y8
G1 F1350 X120.634 Y98.851 E125.04491
M205 X10 Y10
G0 F6000 X120.068 Y98.851
M205 X8 Y8
G1 F1350 X101.155 Y117.764 E125.93452
M205 X10 Y10
G0 F6000 X101.155 Y117.198
M205 X8 Y8
G1 F1350 X119.503 Y98.851 E126.79753
M205 X10 Y10
G0 F6000 X118.937 Y98.851
M205 X8 Y8
G1 F1350 X101.155 Y116.633 E127.63394
M205 X10 Y10
G0 F6000 X101.155 Y116.067
M205 X8 Y8
G1 F1350 X118.371 Y98.851 E128.44373
M205 X10 Y10
G0 F6000 X117.806 Y98.851
M205 X8 Y8
G1 F1350 X101.155 Y115.501 E129.22692
M205 X10 Y10
G0 F6000 X101.155 Y114.935
M205 X8 Y8
G1 F1350 X117.24 Y98.851 E129.98348
M205 X10 Y10
G0 F6000 X116.674 Y98.851
M205 X8 Y8
G1 F1350 X101.155 Y114.37 E130.71345
M205 X10 Y10
G0 F6000 X101.155 Y113.804
M205 X8 Y8
G1 F1350 X116.109 Y98.851 E131.41682
M205 X10 Y10
G0 F6000 X115.543 Y98.851
M205 X8 Y8
G1 F1350 X101.155 Y113.238 E132.09356
M205 X10 Y10
G0 F6000 X101.155 Y112.673
M205 X8 Y8
G1 F1350 X114.977 Y98.851 E132.7437
M205 X10 Y10
G0 F6000 X114.411 Y98.851
M205 X8 Y8
G1 F1350 X101.155 Y112.107 E133.36723
M205 X10 Y10
G0 F6000 X101.155 Y111.541
M205 X8 Y8
G1 F1350 X113.846 Y98.851 E133.96415
M205 X10 Y10
G0 F6000 X113.28 Y98.851
M205 X8 Y8
G1 F1350 X101.155 Y110.976 E134.53447
M205 X10 Y10
G0 F6000 X101.155 Y110.41
M205 X8 Y8
G1 F1350 X112.714 Y98.851 E135.07817
M205 X10 Y10
G0 F6000 X112.149 Y98.851
M205 X8 Y8
G1 F1350 X101.156 Y109.844 E135.59525
M205 X10 Y10
G0 F6000 X101.156 Y109.278
M205 X8 Y8
G1 F1350 X111.583 Y98.851 E136.0857
M205 X10 Y10
G0 F6000 X111.017 Y98.851
M205 X8 Y8
G1 F1350 X101.156 Y108.712 E136.54953
M205 X10 Y10
G0 F6000 X101.156 Y108.147
M205 X8 Y8
