;FLAVOR:Marlin
;TIME:2550
;Filament used: 1.62835m
;Layer height: 0.2
;MINX:95.2
;MINY:82
;MINZ:0.3
;MAXX:129.8
;MAXY:138
;MAXZ:13.375
;Generated with Cura_SteamEngine 4.13.1
M140 S60
M105
M190 S60
M104 S200
M105
M109 S200
M82 ;absolute extrusion mode
G21                                        ; metric values
G90                                        ; absolute positioning
M82                                        ; set extruder to absolute mode
M107                                       ; start with the fan off
M190 S60                                   ; preheat and wait for bed
M109 S210                                  ; preheat and wait for hotend
M300 S1000 P500                            ; BEEP heating done
G28 X0 Y10 Z0                              ; move X/Y to min endstops
M420 S1                                    ; enable mesh leveling
G0 Z0.15                                   ; lift nozzle a bit
G0 X2                                      ; move away from clips
G92 E0                                     ; zero the extruded length
G1 Y50 E25 F500                            ; Extrude 25mm of filament in a 5cm line.
G92 E0                                     ; zero the extruded length again
G1 E-2 F500                                ; Retract a little
G1 Y120 F4000                              ; Quickly wipe away from the filament line
G92 E0
G92 E0
G1 F1500 E-6
;LAYER_COUNT:66
;LAYER:0
M106 S76.5
M205 X10 Y10
G1 F600 Z0.375
;MESH:bat-skelett-2xAA.stl
G0 F6000 X106 Y100.8 Z0.375
M205 X8 Y8
;TYPE:WALL-INNER
G1 F600 Z0.3
G1 F1500 E0
G1 F1200 X106 Y119.8 E0.94791
G1 X119 Y119.8 E1.59649
G1 X119 Y100.8 E2.5444
G1 X106 Y100.8 E3.19297
M205 X10 Y10
G0 F6000 X106.4 Y101.2
M205 X8 Y8
G1 F1200 X106.4 Y119.4 E4.10097
G1 X118.6 Y119.4 E4.70964
G1 X118.6 Y101.2 E5.61764
G1 X106.4 Y101.2 E6.2263
M205 X10 Y10
G0 F6000 X106.8 Y101.6
M205 X8 Y8
;TYPE:WALL-OUTER
G1 F1200 X106.8 Y119 E7.09439
G1 X118.2 Y119 E7.66314
G1 X118.2 Y101.6 E8.53122
G1 X106.8 Y101.6 E9.09997
M205 X10 Y10
G0 F6000 X106.8 Y101.8
G0 X106.36 Y101.8
G1 F1500 E3.09997
G1 F600 Z0.375
G0 F6000 X106 Y121.8 Z0.375
M205 X8 Y8
;TYPE:WALL-INNER
G1 F600 Z0.3
G1 F1500 E9.09997
G1 F1200 X106 Y137.2 E9.86828
G1 X102 Y137.2 E10.06784
G1 X102 Y121.8 E10.83615
G1 X96 Y121.8 E11.13549
G1 X96 Y119.8 E11.23527
G1 X102 Y119.8 E11.53461
G1 X102 Y100.8 E12.48253
G1 X96 Y100.8 E12.78187
G1 X96 Y98.8 E12.88165
G1 X102 Y98.8 E13.18099
G1 X102 Y82.8 E13.97923
G1 X106 Y82.8 E14.1788
G1 X106 Y98.8 E14.97704
G1 X119 Y98.8 E15.62561
G1 X119 Y82.8 E16.42385
G1 X123 Y82.8 E16.62342
G1 X123 Y98.8 E17.42166
G1 X129 Y98.8 E17.721
G1 X129 Y100.8 E17.82078
G1 X123 Y100.8 E18.12012
G1 X123 Y119.8 E19.06804
G1 X129 Y119.8 E19.36738
G1 X129 Y121.8 E19.46716
G1 X123 Y121.8 E19.7665
G1 X123 Y137.2 E20.53481
G1 X119 Y137.2 E20.73437
G1 X119 Y121.8 E21.50268
G1 X106 Y121.8 E22.15125
M205 X10 Y10
G0 F6000 X106.4 Y122.2
M205 X8 Y8
G1 F1200 X106.4 Y137.6 E22.91956
G1 X101.6 Y137.6 E23.15903
G1 X101.6 Y122.2 E23.92734
G1 X95.6 Y122.2 E24.22668
G1 X95.6 Y119.4 E24.36637
G1 X101.6 Y119.4 E24.66572
G1 X101.6 Y101.2 E25.57372
G1 X95.6 Y101.2 E25.87306
G1 X95.6 Y98.4 E26.01275
G1 X101.6 Y98.4 E26.31209
G1 X101.6 Y82.4 E27.11034
G1 X106.4 Y82.4 E27.34981
G1 X106.4 Y98.4 E28.14805
G1 X118.6 Y98.4 E28.75671
G1 X118.6 Y82.4 E29.55496
G1 X123.4 Y82.4 E29.79443
G1 X123.4 Y98.4 E30.59267
G1 X129.4 Y98.4 E30.89201
G1 X129.4 Y101.2 E31.03171
G1 X123.4 Y101.2 E31.33105
G1 X123.4 Y119.4 E32.23905
G1 X129.4 Y119.4 E32.53839
G1 X129.4 Y122.2 E32.67808
G1 X123.4 Y122.2 E32.97742
G1 X123.4 Y137.6 E33.74573
G1 X118.6 Y137.6 E33.98521
G1 X118.6 Y122.2 E34.75352
G1 X106.4 Y122.2 E35.36218
M205 X10 Y10
G0 F6000 X106.8 Y122.6
M205 X8 Y8
;TYPE:WALL-OUTER
G1 F1200 X106.8 Y138 E36.13048
G1 X101.2 Y138 E36.40987
G1 X101.2 Y122.6 E37.17818
G1 X95.2 Y122.6 E37.47752
G1 X95.2 Y119 E37.65712
G1 X101.2 Y119 E37.95647
G1 X101.2 Y101.6 E38.82456
G1 X95.2 Y101.6 E39.1239
G1 X95.2 Y98 E39.3035
G1 X101.2 Y98 E39.60284
G1 X101.2 Y82 E40.40109
G1 X106.8 Y82 E40.68047
G1 X106.8 Y98 E41.47871
G1 X118.2 Y98 E42.04746
G1 X118.2 Y82 E42.84571
G1 X123.8 Y82 E43.12509
G1 X123.8 Y98 E43.92333
G1 X129.8 Y98 E44.22268
G1 X129.8 Y101.6 E44.40228
G1 X123.8 Y101.6 E44.70162
G1 X123.8 Y119 E45.56971
G1 X129.8 Y119 E45.86905
G1 X129.8 Y122.6 E46.04866
G1 X123.8 Y122.6 E46.348
G1 X123.8 Y138 E47.11631
G1 X118.2 Y138 E47.39569
G1 X118.2 Y122.6 E48.164
G1 X106.8 Y122.6 E48.73275
M205 X10 Y10
G0 F6000 X106.8 Y122.8
G0 X106.36 Y122.8
G1 F1500 E42.73275
G1 F600 Z0.375
G0 F6000 X105.61 Y121.41 Z0.375
M205 X8 Y8
;TYPE:SKIN
G1 F600 Z0.3
G1 F1500 E48.73275
G1 F1200 X105.61 Y136.81 E49.50106
G1 X102.39 Y136.81 E49.66171
G1 X102.39 Y121.41 E50.43001
G1 X96.39 Y121.41 E50.72936
G1 X96.39 Y120.19 E50.79022
G1 X102.39 Y120.19 E51.08956
G1 X102.39 Y100.41 E52.07639
G1 X96.39 Y100.41 E52.37573
G1 X96.39 Y99.19 E52.4366
G1 X102.39 Y99.19 E52.73594
G1 X102.39 Y83.19 E53.53418
G1 X105.61 Y83.19 E53.69483
G1 X105.61 Y99.19 E54.49307
G1 X119.39 Y99.19 E55.18056
G1 X119.39 Y83.19 E55.9788
G1 X122.61 Y83.19 E56.13945
G1 X122.61 Y99.19 E56.93769
G1 X128.61 Y99.19 E57.23703
G1 X128.61 Y100.41 E57.2979
G1 X122.61 Y100.41 E57.59724
G1 X122.61 Y120.19 E58.58407
G1 X128.61 Y120.19 E58.88341
G1 X128.61 Y121.41 E58.94428
G1 X122.61 Y121.41 E59.24362
G1 X122.61 Y136.81 E60.01193
G1 X119.39 Y136.81 E60.17257
G1 X119.39 Y121.41 E60.94088
G1 X105.61 Y121.41 E61.62837
M205 X10 Y10
G0 F6000 X105.61 Y120.19
M205 X8 Y8
G1 F1200 X119.39 Y120.19 E62.31586
G1 X119.39 Y100.41 E63.30268
G1 X105.61 Y100.41 E63.99017
G1 X105.61 Y120.19 E64.977
M205 X10 Y10
G1 F1500 E58.977
G1 F600 Z0.375
G0 F6000 X102.688 Y136.629 Z0.375
M205 X8 Y8
G1 F600 Z0.3
G1 F1500 E64.977
G1 F1200 X102.569 Y136.51 E64.9854
M205 X10 Y10
G0 F6000 X102.569 Y135.944
M205 X8 Y8
G1 F1200 X103.253 Y136.629 E65.03369
M205 X10 Y10
G0 F6000 X103.819 Y136.629
M205 X8 Y8
G1 F1200 X102.569 Y135.379 E65.12189
M205 X10 Y10
G0 F6000 X102.569 Y134.813
M205 X8 Y8
G1 F1200 X104.385 Y136.629 E65.25001
M205 X10 Y10
G0 F6000 X104.95 Y136.629
M205 X8 Y8
G1 F1200 X102.569 Y134.247 E65.41804
M205 X10 Y10
G0 F6000 X102.569 Y133.682
M205 X8 Y8
G1 F1200 X105.43 Y136.543 E65.6199
M205 X10 Y10
G0 F6000 X105.43 Y135.977
M205 X8 Y8
G1 F1200 X102.569 Y133.116 E65.82176
M205 X10 Y10
G0 F6000 X102.569 Y132.55
M205 X8 Y8
G1 F1200 X105.43 Y135.411 E66.02362
M205 X10 Y10
G0 F6000 X105.43 Y134.845
M205 X8 Y8
G1 F1200 X102.569 Y131.985 E66.22544
M205 X10 Y10
G0 F6000 X102.569 Y131.419
M205 X8 Y8
G1 F1200 X105.43 Y134.28 E66.4273
M205 X10 Y10
G0 F6000 X105.43 Y133.714
M205 X8 Y8
G1 F1200 X102.569 Y130.853 E66.62916
M205 X10 Y10
G0 F6000 X102.569 Y130.287
M205 X8 Y8
G1 F1200 X105.43 Y133.148 E66.83102
M205 X10 Y10
G0 F6000 X105.43 Y132.583
M205 X8 Y8
G1 F1200 X102.569 Y129.722 E67.03288
M205 X10 Y10
G0 F6000 X102.569 Y129.156
M205 X8 Y8
G1 F1200 X105.43 Y132.017 E67.23474
M205 X10 Y10
G0 F6000 X105.43 Y131.451
M205 X8 Y8
G1 F1200 X102.569 Y128.59 E67.4366
M205 X10 Y10
G0 F6000 X102.569 Y128.025
M205 X8 Y8
G1 F1200 X105.43 Y130.886 E67.63846
M205 X10 Y10
G0 F6000 X105.43 Y130.32
M205 X8 Y8
G1 F1200 X102.569 Y127.459 E67.84031
M205 X10 Y10
G0 F6000 X102.569 Y126.893
M205 X8 Y8
G1 F1200 X105.43 Y129.754 E68.04217
M205 X10 Y10
G0 F6000 X105.43 Y129.189
M205 X8 Y8
G1 F1200 X102.569 Y126.328 E68.24403
M205 X10 Y10
G0 F6000 X102.569 Y125.762
M205 X8 Y8
G1 F1200 X105.43 Y128.623 E68.44589
M205 X10 Y10
G0 F6000 X105.43 Y128.057
M205 X8 Y8
G1 F1200 X102.569 Y125.196 E68.64775
M205 X10 Y10
G0 F6000 X102.569 Y124.631
M205 X8 Y8
G1 F1200 X105.43 Y127.492 E68.84961
M205 X10 Y10
G0 F6000 X105.43 Y126.926
M205 X8 Y8
G1 F1200 X102.569 Y124.065 E69.05147
M205 X10 Y10
G0 F6000 X102.569 Y123.499
M205 X8 Y8
G1 F1200 X105.43 Y126.36 E69.25333
M205 X10 Y10
G0 F6000 X105.43 Y125.795
M205 X8 Y8
G1 F1200 X102.569 Y122.934 E69.45519
M205 X10 Y10
G0 F6000 X102.569 Y122.368
M205 X8 Y8
G1 F1200 X105.43 Y125.229 E69.65705
M205 X10 Y10
G0 F6000 X105.43 Y124.663
M205 X8 Y8
G1 F1200 X102.569 Y121.802 E69.8589
M205 X10 Y10
G0 F6000 X102.569 Y121.236
M205 X8 Y8
G1 F1200 X105.43 Y124.097 E70.06076
M205 X10 Y10
G0 F6000 X105.43 Y123.532
M205 X8 Y8
G1 F1200 X102.267 Y120.369 E70.28393
M205 X10 Y10
G0 F6000 X102.569 Y120.105
M205 X8 Y8
G1 F1200 X105.43 Y122.966 E70.48579
M205 X10 Y10
G0 F6000 X105.43 Y122.4
M205 X8 Y8
G1 F1200 X102.569 Y119.539 E70.68765
M205 X10 Y10
G0 F6000 X102.569 Y118.974
M205 X8 Y8
G1 F1200 X105.43 Y121.835 E70.88951
M205 X10 Y10
G0 F6000 X105.43 Y121.269
M205 X8 Y8
G1 F1200 X102.569 Y118.408 E71.09137
M205 X10 Y10
G0 F6000 X102.569 Y117.842
M205 X8 Y8
G1 F1200 X105.955 Y121.229 E71.3303
M205 X10 Y10
G0 F6000 X106.521 Y121.229
M205 X8 Y8
G1 F1200 X105.661 Y120.369 E71.39098
M205 X10 Y10
G0 F6000 X105.429 Y120.137
M205 X8 Y8
G1 F1200 X102.569 Y117.277 E71.59277
M205 X10 Y10
G0 F6000 X102.569 Y116.711
M205 X8 Y8
G1 F1200 X105.429 Y119.571 E71.79456
M205 X10 Y10
G0 F6000 X105.429 Y119.006
M205 X8 Y8
G1 F1200 X102.569 Y116.145 E71.99638
M205 X10 Y10
G0 F6000 X102.569 Y115.58
M205 X8 Y8
G1 F1200 X105.429 Y118.44 E72.19817
M205 X10 Y10
G0 F6000 X105.429 Y117.874
M205 X8 Y8
G1 F1200 X102.569 Y115.014 E72.39996
M205 X10 Y10
G0 F6000 X102.569 Y114.448
M205 X8 Y8
G1 F1200 X105.429 Y117.309 E72.60178
M205 X10 Y10
G0 F6000 X105.429 Y116.743
M205 X8 Y8
G1 F1200 X102.569 Y113.883 E72.80357
M205 X10 Y10
G0 F6000 X102.569 Y113.317
M205 X8 Y8
G1 F1200 X105.429 Y116.177 E73.00536
M205 X10 Y10
G0 F6000 X105.429 Y115.611
M205 X8 Y8
G1 F1200 X102.569 Y112.751 E73.20715
M205 X10 Y10
G0 F6000 X102.569 Y112.186
M205 X8 Y8
G1 F1200 X105.429 Y115.046 E73.40893
M205 X10 Y10
G0 F6000 X105.429 Y114.48
M205 X8 Y8
G1 F1200 X102.569 Y111.62 E73.61072
M205 X10 Y10
G0 F6000 X102.569 Y111.054
M205 X8 Y8
G1 F1200 X105.429 Y113.914 E73.81251
M205 X10 Y10
G0 F6000 X105.429 Y113.349
M205 X8 Y8
G1 F1200 X102.569 Y110.488 E74.01434
M205 X10 Y10
G0 F6000 X102.569 Y109.923
M205 X8 Y8
G1 F1200 X105.429 Y112.783 E74.21612
M205 X10 Y10
G0 F6000 X105.429 Y112.217
M205 X8 Y8
G1 F1200 X102.569 Y109.357 E74.41791
M205 X10 Y10
G0 F6000 X102.569 Y108.791
M205 X8 Y8
G1 F1200 X105.429 Y111.652 E74.61974
M205 X10 Y10
G0 F6000 X105.429 Y111.086
M205 X8 Y8
G1 F1200 X102.569 Y108.226 E74.82152
M205 X10 Y10
G0 F6000 X102.569 Y107.66
M205 X8 Y8
G1 F1200 X105.429 Y110.52 E75.02331
M205 X10 Y10
G0 F6000 X105.429 Y109.955
M205 X8 Y8
G1 F1200 X102.569 Y107.094 E75.22514
M205 X10 Y10
G0 F6000 X102.569 Y106.529
M205 X8 Y8
G1 F1200 X105.429 Y109.389 E75.42693
M205 X10 Y10
G0 F6000 X105.429 Y108.823
M205 X8 Y8
G1 F1200 X102.569 Y105.963 E75.62871
M205 X10 Y10
G0 F6000 X102.569 Y105.397
M205 X8 Y8
G1 F1200 X105.429 Y108.258 E75.83054
M205 X10 Y10
G0 F6000 X105.429 Y107.692
M205 X8 Y8
G1 F1200 X102.569 Y104.832 E76.03233
M205 X10 Y10
G0 F6000 X102.569 Y104.266
M205 X8 Y8
G1 F1200 X105.429 Y107.126 E76.23411
M205 X10 Y10
G0 F6000 X105.429 Y106.56
M205 X8 Y8
G1 F1200 X102.569 Y103.7 E76.4359
M205 X10 Y10
G0 F6000 X102.569 Y103.135
M205 X8 Y8
G1 F1200 X105.429 Y105.995 E76.63769
M205 X10 Y10
G0 F6000 X105.429 Y105.429
M205 X8 Y8
G1 F1200 X102.569 Y102.569 E76.83948
M205 X10 Y10
G0 F6000 X102.569 Y102.003
M205 X8 Y8
G1 F1200 X105.429 Y104.863 E77.04127
M205 X10 Y10
G0 F6000 X105.429 Y104.298
M205 X8 Y8
G1 F1200 X102.569 Y101.438 E77.24306
M205 X10 Y10
G0 F6000 X102.569 Y100.872
M205 X8 Y8
G1 F1200 X105.429 Y103.732 E77.44484
M205 X10 Y10
G0 F6000 X105.429 Y103.166
M205 X8 Y8
G1 F1200 X102.569 Y100.306 E77.64663
G1 X102.492 Y100.229
G1 X101.633 Y99.37 E77.70724
M205 X10 Y10
G0 F6000 X102.198 Y99.37
M205 X8 Y8
G1 F1200 X105.429 Y102.601 E77.9352
M205 X10 Y10
G0 F6000 X105.429 Y102.035
M205 X8 Y8
G1 F1200 X102.569 Y99.175 E78.13699
M205 X10 Y10
G0 F6000 X102.569 Y98.609
M205 X8 Y8
G1 F1200 X105.429 Y101.469 E78.33878
M205 X10 Y10
G0 F6000 X105.429 Y100.904
M205 X8 Y8
G1 F1200 X102.569 Y98.043 E78.54061
M205 X10 Y10
G0 F6000 X102.569 Y97.478
M205 X8 Y8
G1 F1200 X105.429 Y100.338 E78.74239
M205 X10 Y10
G0 F6000 X105.887 Y100.23
M205 X8 Y8
G1 F1200 X102.569 Y96.912 E78.9765
M205 X10 Y10
G0 F6000 X102.569 Y96.346
M205 X8 Y8
G1 F1200 X105.429 Y99.207 E79.17832
M205 X10 Y10
G0 F6000 X105.592 Y99.369
M205 X8 Y8
G1 F1200 X106.452 Y100.23 E79.23903
M205 X10 Y10
G0 F6000 X107.018 Y100.23
M205 X8 Y8
G1 F1200 X106.157 Y99.369 E79.29978
M205 X10 Y10
G0 F6000 X106.723 Y99.369
M205 X8 Y8
G1 F1200 X107.584 Y100.23 E79.36053
M205 X10 Y10
G0 F6000 X108.149 Y100.23
M205 X8 Y8
G1 F1200 X107.289 Y99.369 E79.42124
M205 X10 Y10
G0 F6000 X107.854 Y99.369
M205 X8 Y8
G1 F1200 X108.715 Y100.23 E79.48199
M205 X10 Y10
G0 F6000 X109.281 Y100.23
M205 X8 Y8
G1 F1200 X108.42 Y99.369 E79.54274
M205 X10 Y10
G0 F6000 X108.986 Y99.369
M205 X8 Y8
G1 F1200 X109.846 Y100.23 E79.60345
M205 X10 Y10
G0 F6000 X110.412 Y100.23
M205 X8 Y8
G1 F1200 X109.552 Y99.369 E79.66416
M205 X10 Y10
G0 F6000 X110.117 Y99.369
M205 X8 Y8
G1 F1200 X110.978 Y100.23 E79.72491
M205 X10 Y10
G0 F6000 X111.543 Y100.23
M205 X8 Y8
G1 F1200 X110.683 Y99.369 E79.78563
M205 X10 Y10
G0 F6000 X111.249 Y99.369
M205 X8 Y8
G1 F1200 X112.109 Y100.23 E79.84634
M205 X10 Y10
G0 F6000 X112.675 Y100.23
M205 X8 Y8
G1 F1200 X111.814 Y99.369 E79.90709
M205 X10 Y10
G0 F6000 X112.38 Y99.369
M205 X8 Y8
G1 F1200 X113.241 Y100.23 E79.96784
M205 X10 Y10
G0 F6000 X113.806 Y100.23
M205 X8 Y8
G1 F1200 X112.946 Y99.369 E80.02855
M205 X10 Y10
G0 F6000 X113.511 Y99.369
M205 X8 Y8
G1 F1200 X114.372 Y100.23 E80.0893
M205 X10 Y10
G0 F6000 X114.938 Y100.23
M205 X8 Y8
G1 F1200 X114.077 Y99.369 E80.15004
M205 X10 Y10
G0 F6000 X114.643 Y99.369
M205 X8 Y8
G1 F1200 X115.503 Y100.23 E80.21076
M205 X10 Y10
G0 F6000 X116.069 Y100.23
M205 X8 Y8
G1 F1200 X115.208 Y99.369 E80.27151
M205 X10 Y10
G0 F6000 X115.774 Y99.369
M205 X8 Y8
G1 F1200 X116.635 Y100.23 E80.33225
M205 X10 Y10
G0 F6000 X117.2 Y100.23
M205 X8 Y8
G1 F1200 X116.34 Y99.369 E80.39297
M205 X10 Y10
G0 F6000 X116.905 Y99.369
M205 X8 Y8
G1 F1200 X117.766 Y100.23 E80.45372
M205 X10 Y10
G0 F6000 X118.332 Y100.23
M205 X8 Y8
G1 F1200 X117.471 Y99.369 E80.51446
M205 X10 Y10
G0 F6000 X118.037 Y99.369
M205 X8 Y8
G1 F1200 X118.897 Y100.23 E80.57518
M205 X10 Y10
G0 F6000 X119.463 Y100.23
M205 X8 Y8
G1 F1200 X118.603 Y99.369 E80.63589
M205 X10 Y10
G0 F6000 X119.168 Y99.369
M205 X8 Y8
G1 F1200 X122.429 Y102.63 E80.86597
M205 X10 Y10
G0 F6000 X122.429 Y103.195
M205 X8 Y8
G1 F1200 X119.569 Y100.336 E81.06772
M205 X10 Y10
G0 F6000 X119.569 Y100.902
M205 X8 Y8
G1 F1200 X122.429 Y103.761 E81.26948
M205 X10 Y10
G0 F6000 X122.429 Y104.327
M205 X8 Y8
G1 F1200 X119.569 Y101.467 E81.47127
M205 X10 Y10
G0 F6000 X119.569 Y102.033
M205 X8 Y8
G1 F1200 X122.429 Y104.892 E81.67302
M205 X10 Y10
G0 F6000 X122.429 Y105.458
M205 X8 Y8
G1 F1200 X119.569 Y102.599 E81.87477
M205 X10 Y10
G0 F6000 X119.569 Y103.164
M205 X8 Y8
G1 F1200 X122.429 Y106.024 E82.07656
M205 X10 Y10
G0 F6000 X122.429 Y106.589
M205 X8 Y8
G1 F1200 X119.569 Y103.73 E82.27831
M205 X10 Y10
G0 F6000 X119.569 Y104.296
M205 X8 Y8
G1 F1200 X122.429 Y107.155 E82.48007
M205 X10 Y10
G0 F6000 X122.429 Y107.721
M205 X8 Y8
G1 F1200 X119.569 Y104.861 E82.68185
M205 X10 Y10
G0 F6000 X119.569 Y105.427
M205 X8 Y8
G1 F1200 X122.429 Y108.287 E82.88364
M205 X10 Y10
G0 F6000 X122.429 Y108.852
M205 X8 Y8
G1 F1200 X119.569 Y105.993 E83.0854
M205 X10 Y10
G0 F6000 X119.569 Y106.558
M205 X8 Y8
G1 F1200 X122.429 Y109.418 E83.28718
M205 X10 Y10
G0 F6000 X122.429 Y109.984
M205 X8 Y8
G1 F1200 X119.569 Y107.124 E83.48897
M205 X10 Y10
G0 F6000 X119.569 Y107.69
M205 X8 Y8
G1 F1200 X122.429 Y110.549 E83.69073
M205 X10 Y10
G0 F6000 X122.429 Y111.115
M205 X8 Y8
G1 F1200 X119.569 Y108.255 E83.89251
M205 X10 Y10
G0 F6000 X119.569 Y108.821
M205 X8 Y8
G1 F1200 X122.429 Y111.681 E84.0943
M205 X10 Y10
G0 F6000 X122.429 Y112.246
M205 X8 Y8
G1 F1200 X119.569 Y109.387 E84.29606
M205 X10 Y10
G0 F6000 X119.569 Y109.952
M205 X8 Y8
G1 F1200 X122.429 Y112.812 E84.49785
M205 X10 Y10
G0 F6000 X122.429 Y113.378
M205 X8 Y8
G1 F1200 X119.569 Y110.518 E84.69963
M205 X10 Y10
G0 F6000 X119.569 Y111.084
M205 X8 Y8
G1 F1200 X122.429 Y113.943 E84.90139
M205 X10 Y10
G0 F6000 X122.429 Y114.509
M205 X8 Y8
