;FLAVOR:Marlin
;TIME:2773
;Filament used: 1.74886m
;Layer height: 0.2
;MINX:95.7
;MINY:82
;MINZ:0.3
;MAXX:129.3
;MAXY:138
;MAXZ:13.375
;Generated with Cura_SteamEngine 4.13.1
M140 S60
M105
M190 S60
M104 S200
M105
M109 S200
M82 ;absolute extrusion mode
G21                                        ; metric values
G90                                        ; absolute positioning
M82                                        ; set extruder to absolute mode
M107                                       ; start with the fan off
M190 S60                                   ; preheat and wait for bed
M109 S210                                  ; preheat and wait for hotend
M300 S1000 P500                            ; BEEP heating done
G28 X0 Y10 Z0                              ; move X/Y to min endstops
M420 S1                                    ; enable mesh leveling
G0 Z0.15                                   ; lift nozzle a bit
G0 X2                                      ; move away from clips
G92 E0                                     ; zero the extruded length
G1 Y50 E25 F500                            ; Extrude 25mm of filament in a 5cm line.
G92 E0                                     ; zero the extruded length again
G1 E-2 F500                                ; Retract a little
G1 Y120 F4000                              ; Quickly wipe away from the filament line
G92 E0
G92 E0
G1 F1500 E-6
;LAYER_COUNT:66
;LAYER:0
M106 S76.5
M205 X10 Y10
G1 F600 Z0.375
;MESH:bat-skelett-2xAA.stl
G0 F6000 X106.5 Y85.8 Z0.375
M205 X8 Y8
;TYPE:WALL-INNER
G1 F600 Z0.3
G1 F1500 E0
G1 F1200 X106.5 Y98.8 E0.64857
G1 X118.5 Y98.8 E1.24726
G1 X118.5 Y85.8 E1.89583
G1 X106.5 Y85.8 E2.49451
M205 X10 Y10
G0 F6000 X106.9 Y86.2
M205 X8 Y8
G1 F1200 X106.9 Y98.4 E3.10317
G1 X118.1 Y98.4 E3.66194
G1 X118.1 Y86.2 E4.2706
G1 X106.9 Y86.2 E4.82937
M205 X10 Y10
G0 F6000 X107.3 Y86.6
M205 X8 Y8
;TYPE:WALL-OUTER
G1 F1200 X107.3 Y98 E5.39812
G1 X117.7 Y98 E5.91698
G1 X117.7 Y86.6 E6.48573
G1 X107.3 Y86.6 E7.00458
M205 X10 Y10
G0 F6000 X107.3 Y86.8
G0 X106.86 Y86.8
G1 F1500 E1.00458
G1 F600 Z0.375
G0 F6000 X106.5 Y100.8 Z0.375
M205 X8 Y8
;TYPE:WALL-INNER
G1 F600 Z0.3
G1 F1500 E7.00458
G1 F1200 X106.5 Y119.8 E7.9525
G1 X118.5 Y119.8 E8.55118
G1 X118.5 Y100.8 E9.49909
G1 X106.5 Y100.8 E10.09778
M205 X10 Y10
G0 F6000 X106.9 Y101.2
M205 X8 Y8
G1 F1200 X106.9 Y119.4 E11.00578
G1 X118.1 Y119.4 E11.56455
G1 X118.1 Y101.2 E12.47255
G1 X106.9 Y101.2 E13.03132
M205 X10 Y10
G0 F6000 X107.3 Y101.6
M205 X8 Y8
;TYPE:WALL-OUTER
G1 F1200 X107.3 Y119 E13.89941
G1 X117.7 Y119 E14.41827
G1 X117.7 Y101.6 E15.28636
G1 X107.3 Y101.6 E15.80522
M205 X10 Y10
G0 F6000 X107.3 Y101.8
G0 X106.86 Y101.8
G1 F1500 E9.80522
G1 F600 Z0.375
G0 F6000 X106.5 Y121.8 Z0.375
M205 X8 Y8
;TYPE:WALL-INNER
G1 F600 Z0.3
G1 F1500 E15.80522
G1 F1200 X106.5 Y134.2 E16.42385
G1 X118.5 Y134.2 E17.02254
G1 X118.5 Y121.8 E17.64118
G1 X106.5 Y121.8 E18.23986
M205 X10 Y10
G0 F6000 X106.9 Y122.2
M205 X8 Y8
G1 F1200 X106.9 Y133.8 E18.81858
G1 X118.1 Y133.8 E19.37735
G1 X118.1 Y122.2 E19.95608
G1 X106.9 Y122.2 E20.51485
M205 X10 Y10
G0 F6000 X107.3 Y122.6
M205 X8 Y8
;TYPE:WALL-OUTER
G1 F1200 X107.3 Y133.4 E21.05367
G1 X117.7 Y133.4 E21.57252
G1 X117.7 Y122.6 E22.11134
G1 X107.3 Y122.6 E22.6302
M205 X10 Y10
G0 F6000 X107.3 Y122.8
G0 X106.86 Y122.8
G1 F1500 E16.6302
G1 F600 Z0.375
G0 F6000 X122.5 Y121.8 Z0.375
M205 X8 Y8
;TYPE:WALL-INNER
G1 F600 Z0.3
G1 F1500 E22.6302
G1 F1200 X122.5 Y137.2 E23.39851
G1 X102.5 Y137.2 E24.39631
G1 X102.5 Y121.8 E25.16462
G1 X96.5 Y121.8 E25.46396
G1 X96.5 Y119.8 E25.56374
G1 X102.5 Y119.8 E25.86308
G1 X102.5 Y100.8 E26.81099
G1 X96.5 Y100.8 E27.11034
G1 X96.5 Y98.8 E27.21012
G1 X102.5 Y98.8 E27.50946
G1 X102.5 Y82.8 E28.3077
G1 X122.5 Y82.8 E29.3055
G1 X122.5 Y98.8 E30.10375
G1 X128.5 Y98.8 E30.40309
G1 X128.5 Y100.8 E30.50287
G1 X122.5 Y100.8 E30.80221
G1 X122.5 Y119.8 E31.75012
G1 X128.5 Y119.8 E32.04947
G1 X128.5 Y121.8 E32.14925
G1 X122.5 Y121.8 E32.44859
M205 X10 Y10
G0 F6000 X122.9 Y122.2
M205 X8 Y8
G1 F1200 X122.9 Y137.6 E33.2169
G1 X102.1 Y137.6 E34.25461
G1 X102.1 Y122.2 E35.02292
G1 X96.1 Y122.2 E35.32226
G1 X96.1 Y119.4 E35.46196
G1 X102.1 Y119.4 E35.7613
G1 X102.1 Y101.2 E36.6693
G1 X96.1 Y101.2 E36.96864
G1 X96.1 Y98.4 E37.10833
G1 X102.1 Y98.4 E37.40767
G1 X102.1 Y82.4 E38.20592
G1 X122.9 Y82.4 E39.24363
G1 X122.9 Y98.4 E40.04188
G1 X128.9 Y98.4 E40.34122
G1 X128.9 Y101.2 E40.48091
G1 X122.9 Y101.2 E40.78025
G1 X122.9 Y119.4 E41.68825
G1 X128.9 Y119.4 E41.98759
G1 X128.9 Y122.2 E42.12729
G1 X122.9 Y122.2 E42.42663
M205 X10 Y10
G0 F6000 X123.3 Y122.6
M205 X8 Y8
;TYPE:WALL-OUTER
G1 F1200 X123.3 Y138 E43.19494
G1 X101.7 Y138 E44.27257
G1 X101.7 Y122.6 E45.04087
G1 X95.7 Y122.6 E45.34022
G1 X95.7 Y119 E45.51982
G1 X101.7 Y119 E45.81916
G1 X101.7 Y101.6 E46.68725
G1 X95.7 Y101.6 E46.98659
G1 X95.7 Y98 E47.1662
G1 X101.7 Y98 E47.46554
G1 X101.7 Y82 E48.26378
G1 X123.3 Y82 E49.34141
G1 X123.3 Y98 E50.13965
G1 X129.3 Y98 E50.43899
G1 X129.3 Y101.6 E50.6186
G1 X123.3 Y101.6 E50.91794
G1 X123.3 Y119 E51.78603
G1 X129.3 Y119 E52.08537
G1 X129.3 Y122.6 E52.26498
G1 X123.3 Y122.6 E52.56432
M205 X10 Y10
G0 F6000 X123.3 Y122.8
G0 X122.86 Y122.8
G1 F1500 E46.56432
G1 F600 Z0.375
G0 F6000 X122.11 Y121.41 Z0.375
M205 X8 Y8
;TYPE:SKIN
G1 F600 Z0.3
G1 F1500 E52.56432
G1 F1200 X122.11 Y136.81 E53.33263
G1 X102.89 Y136.81 E54.29152
G1 X102.89 Y121.41 E55.05983
G1 X96.89 Y121.41 E55.35917
G1 X96.89 Y120.19 E55.42003
G1 X102.89 Y120.19 E55.71937
G1 X102.89 Y100.41 E56.7062
G1 X96.89 Y100.41 E57.00554
G1 X96.89 Y99.19 E57.06641
G1 X102.89 Y99.19 E57.36575
G1 X102.89 Y83.19 E58.16399
G1 X122.11 Y83.19 E59.12288
G1 X122.11 Y99.19 E59.92113
G1 X128.11 Y99.19 E60.22047
G1 X128.11 Y100.41 E60.28133
G1 X122.11 Y100.41 E60.58068
G1 X122.11 Y120.19 E61.5675
G1 X128.11 Y120.19 E61.86684
G1 X128.11 Y121.41 E61.92771
G1 X122.11 Y121.41 E62.22705
M205 X10 Y10
G1 F1500 E56.22705
G1 F600 Z0.375
G0 F6000 X118.89 Y121.41 Z0.375
M205 X8 Y8
G1 F600 Z0.3
G1 F1500 E62.22705
G1 F1200 X106.11 Y121.41 E62.86465
G1 X106.11 Y134.59 E63.5222
G1 X118.89 Y134.59 E64.1598
G1 X118.89 Y121.41 E64.81735
M205 X10 Y10
G0 F6000 X118.89 Y120.19
M205 X8 Y8
G1 F1200 X118.89 Y100.41 E65.80418
G1 X106.11 Y100.41 E66.44178
G1 X106.11 Y120.19 E67.4286
G1 X118.89 Y120.19 E68.0662
M205 X10 Y10
G1 F1500 E62.0662
G1 F600 Z0.375
G0 F6000 X118.89 Y99.19 Z0.375
M205 X8 Y8
G1 F600 Z0.3
G1 F1500 E68.0662
G1 F1200 X118.89 Y85.41 E68.75369
G1 X106.11 Y85.41 E69.39128
G1 X106.11 Y99.19 E70.07877
G1 X118.89 Y99.19 E70.71637
M205 X10 Y10
G1 F1500 E64.71637
G1 F600 Z0.375
G0 F6000 X121.929 Y83.463 Z0.375
M205 X8 Y8
G1 F600 Z0.3
G1 F1500 E70.71637
G1 F1200 X121.836 Y83.37 E70.72293
M205 X10 Y10
G0 F6000 X121.27 Y83.37
M205 X8 Y8
G1 F1200 X121.929 Y84.029 E70.76943
M205 X10 Y10
G0 F6000 X121.929 Y84.594
M205 X8 Y8
G1 F1200 X120.705 Y83.37 E70.85579
M205 X10 Y10
G0 F6000 X120.139 Y83.37
M205 X8 Y8
G1 F1200 X121.929 Y85.16 E70.98208
M205 X10 Y10
G0 F6000 X121.929 Y85.726
M205 X8 Y8
G1 F1200 X119.573 Y83.37 E71.14831
M205 X10 Y10
G0 F6000 X119.008 Y83.37
M205 X8 Y8
G1 F1200 X121.929 Y86.291 E71.3544
M205 X10 Y10
G0 F6000 X121.929 Y86.857
M205 X8 Y8
G1 F1200 X118.442 Y83.37 E71.60043
M205 X10 Y10
G0 F6000 X117.876 Y83.37
M205 X8 Y8
G1 F1200 X121.929 Y87.423 E71.88639
M205 X10 Y10
G0 F6000 X121.929 Y87.988
M205 X8 Y8
G1 F1200 X117.311 Y83.37 E72.21221
M205 X10 Y10
G0 F6000 X116.745 Y83.37
M205 X8 Y8
G1 F1200 X118.605 Y85.229 E72.34341
M205 X10 Y10
G0 F6000 X118.039 Y85.229
M205 X8 Y8
G1 F1200 X116.179 Y83.37 E72.47461
M205 X10 Y10
G0 F6000 X115.614 Y83.37
M205 X8 Y8
G1 F1200 X117.473 Y85.229 E72.60577
M205 X10 Y10
G0 F6000 X116.908 Y85.229
M205 X8 Y8
G1 F1200 X115.048 Y83.37 E72.73697
M205 X10 Y10
G0 F6000 X114.482 Y83.37
M205 X8 Y8
G1 F1200 X116.342 Y85.229 E72.86817
M205 X10 Y10
G0 F6000 X115.776 Y85.229
M205 X8 Y8
G1 F1200 X113.917 Y83.37 E72.99933
M205 X10 Y10
G0 F6000 X113.351 Y83.37
M205 X8 Y8
G1 F1200 X115.211 Y85.229 E73.13053
M205 X10 Y10
G0 F6000 X114.645 Y85.229
M205 X8 Y8
G1 F1200 X112.785 Y83.37 E73.26173
M205 X10 Y10
G0 F6000 X112.219 Y83.37
M205 X8 Y8
G1 F1200 X114.079 Y85.229 E73.39292
M205 X10 Y10
G0 F6000 X113.513 Y85.229
M205 X8 Y8
G1 F1200 X111.654 Y83.37 E73.52409
M205 X10 Y10
G0 F6000 X111.088 Y83.37
M205 X8 Y8
G1 F1200 X112.948 Y85.229 E73.65528
M205 X10 Y10
G0 F6000 X112.382 Y85.229
M205 X8 Y8
G1 F1200 X110.522 Y83.37 E73.78648
M205 X10 Y10
G0 F6000 X109.957 Y83.37
M205 X8 Y8
G1 F1200 X111.816 Y85.229 E73.91764
M205 X10 Y10
G0 F6000 X111.251 Y85.229
M205 X8 Y8
G1 F1200 X109.391 Y83.37 E74.04884
M205 X10 Y10
G0 F6000 X108.825 Y83.37
M205 X8 Y8
G1 F1200 X110.685 Y85.229 E74.18004
M205 X10 Y10
G0 F6000 X110.119 Y85.229
M205 X8 Y8
G1 F1200 X108.26 Y83.37 E74.3112
M205 X10 Y10
G0 F6000 X107.694 Y83.37
M205 X8 Y8
G1 F1200 X109.554 Y85.229 E74.4424
M205 X10 Y10
G0 F6000 X108.988 Y85.229
M205 X8 Y8
G1 F1200 X107.128 Y83.37 E74.5736
M205 X10 Y10
G0 F6000 X106.563 Y83.37
M205 X8 Y8
G1 F1200 X108.422 Y85.229 E74.70476
M205 X10 Y10
G0 F6000 X107.857 Y85.229
M205 X8 Y8
G1 F1200 X105.997 Y83.37 E74.83596
M205 X10 Y10
G0 F6000 X105.431 Y83.37
M205 X8 Y8
G1 F1200 X107.291 Y85.229 E74.96716
M205 X10 Y10
G0 F6000 X106.725 Y85.229
M205 X8 Y8
G1 F1200 X104.866 Y83.37 E75.09832
M205 X10 Y10
G0 F6000 X104.3 Y83.37
M205 X8 Y8
G1 F1200 X106.16 Y85.229 E75.22952
M205 X10 Y10
G0 F6000 X105.929 Y85.564
M205 X8 Y8
G1 F1200 X103.734 Y83.37 E75.38435
M205 X10 Y10
G0 F6000 X103.169 Y83.37
M205 X8 Y8
G1 F1200 X105.929 Y86.13 E75.57908
M205 X10 Y10
G0 F6000 X105.929 Y86.696
M205 X8 Y8
G1 F1200 X103.069 Y83.835 E75.78091
M205 X10 Y10
G0 F6000 X103.069 Y84.401
M205 X8 Y8
G1 F1200 X105.929 Y87.261 E75.98269
M205 X10 Y10
G0 F6000 X105.929 Y87.827
M205 X8 Y8
G1 F1200 X103.069 Y84.967 E76.18448
M205 X10 Y10
G0 F6000 X103.069 Y85.533
M205 X8 Y8
G1 F1200 X105.929 Y88.393 E76.38627
M205 X10 Y10
G0 F6000 X105.929 Y88.958
M205 X8 Y8
G1 F1200 X103.069 Y86.098 E76.58806
M205 X10 Y10
G0 F6000 X103.069 Y86.664
M205 X8 Y8
G1 F1200 X105.929 Y89.524 E76.78985
M205 X10 Y10
G0 F6000 X105.929 Y90.09
M205 X8 Y8
G1 F1200 X103.069 Y87.23 E76.99164
M205 X10 Y10
G0 F6000 X103.069 Y87.795
M205 X8 Y8
G1 F1200 X105.929 Y90.656 E77.19346
M205 X10 Y10
G0 F6000 X105.929 Y91.221
M205 X8 Y8
G1 F1200 X103.069 Y88.361 E77.39525
M205 X10 Y10
G0 F6000 X103.069 Y88.927
M205 X8 Y8
G1 F1200 X105.929 Y91.787 E77.59704
M205 X10 Y10
G0 F6000 X105.929 Y92.353
M205 X8 Y8
G1 F1200 X103.069 Y89.492 E77.79886
M205 X10 Y10
G0 F6000 X103.069 Y90.058
M205 X8 Y8
G1 F1200 X105.929 Y92.918 E78.00065
M205 X10 Y10
G0 F6000 X105.929 Y93.484
M205 X8 Y8
G1 F1200 X103.069 Y90.624 E78.20244
M205 X10 Y10
G0 F6000 X103.069 Y91.189
M205 X8 Y8
G1 F1200 X105.929 Y94.05 E78.40426
M205 X10 Y10
G0 F6000 X105.929 Y94.615
M205 X8 Y8
G1 F1200 X103.069 Y91.755 E78.60605
M205 X10 Y10
G0 F6000 X103.069 Y92.321
M205 X8 Y8
G1 F1200 X105.929 Y95.181 E78.80784
M205 X10 Y10
G0 F6000 X105.929 Y95.747
M205 X8 Y8
G1 F1200 X103.069 Y92.886 E79.00966
M205 X10 Y10
G0 F6000 X103.069 Y93.452
M205 X8 Y8
G1 F1200 X105.929 Y96.312 E79.21145
M205 X10 Y10
G0 F6000 X105.929 Y96.878
M205 X8 Y8
G1 F1200 X103.069 Y94.018 E79.41324
M205 X10 Y10
G0 F6000 X103.069 Y94.584
M205 X8 Y8
G1 F1200 X105.929 Y97.444 E79.61503
M205 X10 Y10
G0 F6000 X105.929 Y98.009
M205 X8 Y8
G1 F1200 X103.069 Y95.149 E79.81682
M205 X10 Y10
G0 F6000 X103.069 Y95.715
M205 X8 Y8
G1 F1200 X105.929 Y98.575 E80.0186
M205 X10 Y10
G0 F6000 X105.929 Y99.141
M205 X8 Y8
G1 F1200 X103.069 Y96.281 E80.22039
M205 X10 Y10
G0 F6000 X103.069 Y96.846
M205 X8 Y8
G1 F1200 X106.452 Y100.23 E80.45912
M205 X10 Y10
G0 F6000 X105.93 Y100.273
M205 X8 Y8
G1 F1200 X103.069 Y97.412 E80.66098
M205 X10 Y10
G0 F6000 X103.069 Y97.978
M205 X8 Y8
G1 F1200 X105.93 Y100.839 E80.86284
M205 X10 Y10
G0 F6000 X105.93 Y101.404
M205 X8 Y8
G1 F1200 X103.069 Y98.543 E81.06469
M205 X10 Y10
G0 F6000 X103.069 Y99.109
M205 X8 Y8
G1 F1200 X105.93 Y101.97 E81.26655
M205 X10 Y10
G0 F6000 X105.93 Y102.536
M205 X8 Y8
G1 F1200 X102.763 Y99.369 E81.49
M205 X10 Y10
G0 F6000 X102.198 Y99.369
M205 X8 Y8
G1 F1200 X103.057 Y100.229 E81.55064
G1 X103.069 Y100.24
G1 X105.93 Y103.101 E81.7525
M205 X10 Y10
G0 F6000 X105.93 Y103.667
M205 X8 Y8
G1 F1200 X103.069 Y100.806 E81.95436
M205 X10 Y10
G0 F6000 X103.069 Y101.372
M205 X8 Y8
G1 F1200 X105.93 Y104.233 E82.15622
M205 X10 Y10
G0 F6000 X105.93 Y104.798
M205 X8 Y8
G1 F1200 X103.069 Y101.937 E82.35808
M205 X10 Y10
G0 F6000 X103.069 Y102.503
M205 X8 Y8
G1 F1200 X105.93 Y105.364 E82.55994
M205 X10 Y10
G0 F6000 X105.93 Y105.93
M205 X8 Y8
G1 F1200 X103.069 Y103.069 E82.7618
M205 X10 Y10
G0 F6000 X103.069 Y103.634
M205 X8 Y8
G1 F1200 X105.93 Y106.495 E82.96366
M205 X10 Y10
G0 F6000 X105.93 Y107.061
M205 X8 Y8
G1 F1200 X103.069 Y104.2 E83.16552
M205 X10 Y10
G0 F6000 X103.069 Y104.766
M205 X8 Y8
G1 F1200 X105.93 Y107.627 E83.36738
M205 X10 Y10
G0 F6000 X105.93 Y108.192
M205 X8 Y8
G1 F1200 X103.069 Y105.332 E83.5692
M205 X10 Y10
G0 F6000 X103.069 Y105.897
M205 X8 Y8
G1 F1200 X105.93 Y108.758 E83.77106
M205 X10 Y10
G0 F6000 X105.93 Y109.324
M205 X8 Y8
G1 F1200 X103.069 Y106.463 E83.97292
M205 X10 Y10
G0 F6000 X103.069 Y107.029
M205 X8 Y8
G1 F1200 X105.93 Y109.89 E84.17478
M205 X10 Y10
G0 F6000 X105.93 Y110.455
M205 X8 Y8
G1 F1200 X103.069 Y107.594 E84.37664
M205 X10 Y10
G0 F6000 X103.069 Y108.16
M205 X8 Y8
G1 F1200 X105.93 Y111.021 E84.57849
M205 X10 Y10
G0 F6000 X105.93 Y111.587
M205 X8 Y8
G1 F1200 X103.069 Y108.726 E84.78035
M205 X10 Y10
G0 F6000 X103.069 Y109.291
M205 X8 Y8
G1 F1200 X105.93 Y112.152 E84.98221
M205 X10 Y10
G0 F6000 X105.93 Y112.718
M205 X8 Y8
G1 F1200 X103.069 Y109.857 E85.18407
M205 X10 Y10
G0 F6000 X103.069 Y110.423
M205 X8 Y8
G1 F1200 X105.93 Y113.284 E85.38593
M205 X10 Y10
G0 F6000 X105.93 Y113.849
M205 X8 Y8
G1 F1200 X103.069 Y110.988 E85.58779
M205 X10 Y10
G0 F6000 X103.069 Y111.554
M205 X8 Y8
G1 F1200 X105.93 Y114.415 E85.78965
M205 X10 Y10
G0 F6000 X105.93 Y114.981
M205 X8 Y8
G1 F1200 X103.069 Y112.12 E85.99151
M205 X10 Y10
G0 F6000 X103.069 Y112.685
M205 X8 Y8
G1 F1200 X105.93 Y115.546 E86.19337
M205 X10 Y10
G0 F6000 X105.93 Y116.112
M205 X8 Y8
G1 F1200 X103.069 Y113.251 E86.39523
M205 X10 Y10
G0 F6000 X103.069 Y113.817
M205 X8 Y8
G1 F1200 X105.93 Y116.678 E86.59708
M205 X10 Y10
G0 F6000 X105.93 Y117.243
M205 X8 Y8
G1 F1200 X103.069 Y114.383 E86.79891
M205 X10 Y10
G0 F6000 X103.069 Y114.948
M205 X8 Y8
G1 F1200 X105.93 Y117.809 E87.00077
M205 X10 Y10
G0 F6000 X105.93 Y118.375
M205 X8 Y8
G1 F1200 X103.069 Y115.514 E87.20263
M205 X10 Y10
G0 F6000 X103.069 Y116.08
M205 X8 Y8
G1 F1200 X105.93 Y118.941 E87.40449
M205 X10 Y10
G0 F6000 X105.93 Y119.506
M205 X8 Y8
G1 F1200 X103.069 Y116.645 E87.60634
M205 X10 Y10
G0 F6000 X103.069 Y117.211
M205 X8 Y8
G1 F1200 X105.93 Y120.072 E87.8082
M205 X10 Y10
G0 F6000 X106.227 Y120.369
M205 X8 Y8
G1 F1200 X107.087 Y121.229 E87.86888
M205 X10 Y10
G0 F6000 X107.652 Y121.229
M205 X8 Y8
G1 F1200 X106.792 Y120.369 E87.92956
M205 X10 Y10
G0 F6000 X107.358 Y120.369
M205 X8 Y8
G1 F1200 X108.218 Y121.229 E87.99024
M205 X10 Y10
G0 F6000 X108.784 Y121.229
M205 X8 Y8
G1 F1200 X107.924 Y120.369 E88.05091
M205 X10 Y10
G0 F6000 X108.489 Y120.369
M205 X8 Y8
G1 F1200 X109.349 Y121.229 E88.11159
M205 X10 Y10
G0 F6000 X109.915 Y121.229
M205 X8 Y8
G1 F1200 X109.055 Y120.369 E88.17227
M205 X10 Y10
G0 F6000 X109.621 Y120.369
M205 X8 Y8
G1 F1200 X110.481 Y121.229 E88.23295
M205 X10 Y10
G0 F6000 X111.046 Y121.229
M205 X8 Y8
G1 F1200 X110.187 Y120.369 E88.29359
M205 X10 Y10
G0 F6000 X110.752 Y120.369
M205 X8 Y8
G1 F1200 X111.612 Y121.229 E88.35427
M205 X10 Y10
G0 F6000 X112.178 Y121.229
M205 X8 Y8
G1 F1200 X111.318 Y120.369 E88.41494
M205 X10 Y10
G0 F6000 X111.884 Y120.369
M205 X8 Y8
G1 F1200 X112.743 Y121.229 E88.47559
M205 X10 Y10
G0 F6000 X113.309 Y121.229
M205 X8 Y8
G1 F1200 X112.449 Y120.369 E88.53626
M205 X10 Y10
G0 F6000 X113.015 Y120.369
M205 X8 Y8
G1 F1200 X113.875 Y121.229 E88.59694
M205 X10 Y10
G0 F6000 X114.44 Y121.229
M205 X8 Y8
G1 F1200 X113.581 Y120.369 E88.65758
M205 X10 Y10
G0 F6000 X114.146 Y120.369
M205 X8 Y8
G1 F1200 X115.006 Y121.229 E88.71826
