;FLAVOR:Marlin
;TIME:1536
;Filament used: 0.964068m
;Layer height: 0.2
;MINX:97.7
;MINY:95.2
;MINZ:0.3
;MAXX:127.3
;MAXY:124.8
;MAXZ:6.175
;Generated with Cura_SteamEngine 4.13.1
M140 S60
M105
M190 S60
M104 S200
M105
M109 S200
M82 ;absolute extrusion mode
G21                                        ; metric values
G90                                        ; absolute positioning
M82                                        ; set extruder to absolute mode
M107                                       ; start with the fan off
M190 S60                                   ; preheat and wait for bed
M109 S210                                  ; preheat and wait for hotend
M300 S1000 P500                            ; BEEP heating done
G28 X0 Y10 Z0                              ; move X/Y to min endstops
M420 S1                                    ; enable mesh leveling
G0 Z0.15                                   ; lift nozzle a bit
G0 X2                                      ; move away from clips
G92 E0                                     ; zero the extruded length
G1 Y50 E25 F500                            ; Extrude 25mm of filament in a 5cm line.
G92 E0                                     ; zero the extruded length again
G1 E-2 F500                                ; Retract a little
G1 Y120 F4000                              ; Quickly wipe away from the filament line
G92 E0
G92 E0
G1 F1500 E-6
;LAYER_COUNT:30
;LAYER:0
M106 S76.5
M205 X10 Y10
G1 F600 Z0.375
;MESH:bat-deckelsys-us-4xAA.stl
G0 F6000 X118.711 Y105.08 Z0.375
M205 X8 Y8
;TYPE:WALL-INNER
G1 F600 Z0.3
G1 F1500 E0
G1 F1200 X119.767 Y105.209 E0.05308
G1 X120.765 Y104.832 E0.1063
G1 X121.471 Y104.034 E0.15946
G1 X121.725 Y103 E0.21258
G1 X121.471 Y101.966 E0.2657
G1 X120.765 Y101.168 E0.31885
G1 X119.767 Y100.791 E0.37208
G1 X118.711 Y100.92 E0.42515
G1 X117.835 Y101.524 E0.47824
G1 X117.339 Y102.467 E0.5314
G1 X117.339 Y103.533 E0.58458
G1 X117.835 Y104.476 E0.63774
G1 X118.711 Y105.08 E0.69082
M205 X10 Y10
G0 F6000 X118.857 Y104.695
M205 X8 Y8
G1 F1200 X119.718 Y104.8 E0.7341
G1 X120.531 Y104.493 E0.77745
G1 X121.106 Y103.843 E0.82075
G1 X121.313 Y103 E0.86406
G1 X121.106 Y102.157 E0.90736
G1 X120.531 Y101.507 E0.95066
G1 X119.718 Y101.2 E0.99401
G1 X118.857 Y101.305 E1.03729
G1 X118.143 Y101.797 E1.08055
G1 X117.739 Y102.566 E1.12389
G1 X117.739 Y103.434 E1.16719
G1 X118.143 Y104.203 E1.21053
G1 X118.857 Y104.695 E1.25379
M205 X10 Y10
G0 F6000 X119.003 Y104.31
M205 X8 Y8
;TYPE:WALL-OUTER
G1 F1200 X119.669 Y104.391 E1.28726
G1 X120.297 Y104.154 E1.32075
G1 X120.741 Y103.652 E1.35418
G1 X120.901 Y103 E1.38768
G1 X120.741 Y102.348 E1.42117
G1 X120.297 Y101.846 E1.45461
G1 X119.669 Y101.609 E1.48809
G1 X119.003 Y101.69 E1.52157
G1 X118.451 Y102.07 E1.555
G1 X118.139 Y102.665 E1.58852
G1 X118.139 Y103.335 E1.62194
G1 X118.451 Y103.93 E1.65546
G1 X119.003 Y104.31 E1.6889
M205 X10 Y10
G0 F6000 X119.201 Y104.334
G0 X119.147 Y104.771
G1 F1500 E-4.3111
G1 F600 Z0.375
G0 F6000 X104.711 Y119.08 Z0.375
M205 X8 Y8
;TYPE:WALL-INNER
G1 F600 Z0.3
G1 F1500 E1.6889
G1 F1200 X105.767 Y119.209 E1.74197
G1 X106.765 Y118.832 E1.7952
G1 X107.471 Y118.034 E1.84835
G1 X107.725 Y117 E1.90147
G1 X107.471 Y115.966 E1.95459
G1 X106.765 Y115.168 E2.00775
G1 X105.767 Y114.791 E2.06098
G1 X104.711 Y114.92 E2.11405
G1 X103.835 Y115.524 E2.16714
G1 X103.339 Y116.467 E2.22029
G1 X103.339 Y117.533 E2.27348
G1 X103.835 Y118.476 E2.32663
G1 X104.711 Y119.08 E2.37972
M205 X10 Y10
G0 F6000 X104.857 Y118.695
M205 X8 Y8
G1 F1200 X105.718 Y118.8 E2.42299
G1 X106.531 Y118.493 E2.46635
G1 X107.106 Y117.843 E2.50965
G1 X107.313 Y117 E2.55295
G1 X107.106 Y116.157 E2.59626
G1 X106.531 Y115.507 E2.63956
G1 X105.718 Y115.2 E2.68291
G1 X104.857 Y115.305 E2.72619
G1 X104.143 Y115.797 E2.76944
G1 X103.739 Y116.566 E2.81278
G1 X103.739 Y117.434 E2.85609
G1 X104.143 Y118.203 E2.89943
G1 X104.857 Y118.695 E2.94268
M205 X10 Y10
G0 F6000 X105.003 Y118.31
M205 X8 Y8
;TYPE:WALL-OUTER
G1 F1200 X105.669 Y118.391 E2.97616
G1 X106.297 Y118.154 E3.00964
G1 X106.741 Y117.652 E3.04308
G1 X106.901 Y117 E3.07657
G1 X106.741 Y116.348 E3.11007
G1 X106.297 Y115.846 E3.1435
G1 X105.669 Y115.609 E3.17699
G1 X105.003 Y115.69 E3.21046
G1 X104.451 Y116.07 E3.2439
G1 X104.139 Y116.665 E3.27741
G1 X104.139 Y117.335 E3.31084
G1 X104.451 Y117.93 E3.34436
G1 X105.003 Y118.31 E3.37779
M205 X10 Y10
G0 F6000 X105.201 Y118.334
G0 X105.147 Y118.771
G1 F1500 E-2.62221
G1 F600 Z0.375
G0 F6000 X104.711 Y105.08 Z0.375
M205 X8 Y8
;TYPE:WALL-INNER
G1 F600 Z0.3
G1 F1500 E3.37779
G1 F1200 X105.767 Y105.209 E3.43087
G1 X106.765 Y104.832 E3.48409
G1 X107.471 Y104.034 E3.53725
G1 X107.725 Y103 E3.59037
G1 X107.471 Y101.966 E3.64349
G1 X106.765 Y101.168 E3.69665
G1 X105.767 Y100.791 E3.74987
G1 X104.711 Y100.92 E3.80295
G1 X103.835 Y101.524 E3.85603
G1 X103.339 Y102.467 E3.90919
G1 X103.339 Y103.533 E3.96237
G1 X103.835 Y104.476 E4.01553
G1 X104.711 Y105.08 E4.06862
M205 X10 Y10
G0 F6000 X104.857 Y104.695
M205 X8 Y8
G1 F1200 X105.718 Y104.8 E4.11189
G1 X106.531 Y104.493 E4.15525
G1 X107.106 Y103.843 E4.19854
G1 X107.313 Y103 E4.24185
G1 X107.106 Y102.157 E4.28516
G1 X106.531 Y101.507 E4.32845
G1 X105.718 Y101.2 E4.37181
G1 X104.857 Y101.305 E4.41508
G1 X104.143 Y101.797 E4.45834
G1 X103.739 Y102.566 E4.50168
G1 X103.739 Y103.434 E4.54498
G1 X104.143 Y104.203 E4.58832
G1 X104.857 Y104.695 E4.63158
M205 X10 Y10
G0 F6000 X105.003 Y104.31
M205 X8 Y8
;TYPE:WALL-OUTER
G1 F1200 X105.669 Y104.391 E4.66505
G1 X106.297 Y104.154 E4.69854
G1 X106.741 Y103.652 E4.73198
G1 X106.901 Y103 E4.76547
G1 X106.741 Y102.348 E4.79896
G1 X106.297 Y101.846 E4.8324
G1 X105.669 Y101.609 E4.86589
G1 X105.003 Y101.69 E4.89936
G1 X104.451 Y102.07 E4.93279
G1 X104.139 Y102.665 E4.96631
G1 X104.139 Y103.335 E4.99974
G1 X104.451 Y103.93 E5.03326
G1 X105.003 Y104.31 E5.06669
M205 X10 Y10
G0 F6000 X105.201 Y104.334
G0 X105.147 Y104.771
G1 F1500 E-0.93331
G1 F600 Z0.375
G0 F6000 X110.349 Y111.118 Z0.375
M205 X8 Y8
;TYPE:WALL-INNER
G1 F600 Z0.3
G1 F1500 E5.06669
G1 F1200 X111.071 Y111.945 E5.12146
G1 X111.717 Y112.282 E5.15781
G1 X112.789 Y112.409 E5.21167
G1 X113.794 Y112.035 E5.26517
G1 X114.345 Y111.557 E5.30156
G1 X114.852 Y110.583 E5.35634
G1 X114.854 Y109.418 E5.41446
G1 X114.327 Y108.407 E5.47134
G1 X113.439 Y107.78 E5.52558
G1 X112.75 Y107.598 E5.56113
G1 X111.671 Y107.723 E5.61532
G1 X110.767 Y108.325 E5.66951
G1 X110.341 Y108.915 E5.70581
G1 X110.074 Y110.004 E5.76175
G1 X110.349 Y111.118 E5.819
M205 X10 Y10
G0 F6000 X110.714 Y110.928
M205 X8 Y8
G1 F1200 X111.323 Y111.625 E5.86518
G1 X111.837 Y111.893 E5.8941
G1 X112.74 Y112 E5.93946
G1 X113.587 Y111.685 E5.98455
G1 X114.025 Y111.305 E6.01348
G1 X114.452 Y110.485 E6.0596
G1 X114.454 Y109.516 E6.10794
G1 X114.017 Y108.678 E6.1551
G1 X113.267 Y108.148 E6.20091
G1 X112.721 Y108.004 E6.22908
G1 X111.813 Y108.109 E6.27469
G1 X111.049 Y108.618 E6.32049
G1 X110.711 Y109.086 E6.34929
G1 X110.486 Y110.004 E6.39644
G1 X110.714 Y110.928 E6.44392
M205 X10 Y10
G0 F6000 X111.079 Y110.738
M205 X8 Y8
;TYPE:WALL-OUTER
G1 F1200 X111.575 Y111.305 E6.48151
G1 X111.957 Y111.504 E6.503
G1 X112.691 Y111.591 E6.53987
G1 X113.38 Y111.335 E6.57654
G1 X113.705 Y111.053 E6.59801
G1 X114.052 Y110.387 E6.63548
G1 X114.054 Y109.614 E6.67404
G1 X113.707 Y108.949 E6.71146
G1 X113.095 Y108.516 E6.74887
G1 X112.692 Y108.41 E6.76966
G1 X111.955 Y108.495 E6.80667
G1 X111.331 Y108.911 E6.84408
G1 X111.081 Y109.257 E6.86538
G1 X110.898 Y110.004 E6.90375
G1 X111.079 Y110.738 E6.94147
M205 X10 Y10
G0 F6000 X111.21 Y110.888
G0 X110.879 Y111.176
G1 F1500 E0.94147
G1 F600 Z0.375
G0 F6000 X118.711 Y119.08 Z0.375
M205 X8 Y8
;TYPE:WALL-INNER
G1 F600 Z0.3
G1 F1500 E6.94147
G1 F1200 X119.767 Y119.209 E6.99454
G1 X120.765 Y118.832 E7.04777
G1 X121.471 Y118.034 E7.10092
G1 X121.725 Y117 E7.15404
G1 X121.471 Y115.966 E7.20716
G1 X120.765 Y115.168 E7.26032
G1 X119.767 Y114.791 E7.31355
G1 X118.711 Y114.92 E7.36662
G1 X117.835 Y115.524 E7.41971
G1 X117.339 Y116.467 E7.47286
G1 X117.339 Y117.533 E7.52605
G1 X117.835 Y118.476 E7.5792
G1 X118.711 Y119.08 E7.63229
M205 X10 Y10
G0 F6000 X118.857 Y118.695
M205 X8 Y8
G1 F1200 X119.718 Y118.8 E7.67556
G1 X120.531 Y118.493 E7.71892
G1 X121.106 Y117.843 E7.76222
G1 X121.313 Y117 E7.80552
G1 X121.106 Y116.157 E7.84883
G1 X120.531 Y115.507 E7.89213
G1 X119.718 Y115.2 E7.93548
G1 X118.857 Y115.305 E7.97876
G1 X118.143 Y115.797 E8.02202
G1 X117.739 Y116.566 E8.06535
G1 X117.739 Y117.434 E8.10866
G1 X118.143 Y118.203 E8.152
G1 X118.857 Y118.695 E8.19526
M205 X10 Y10
G0 F6000 X119.003 Y118.31
M205 X8 Y8
;TYPE:WALL-OUTER
G1 F1200 X119.669 Y118.391 E8.22873
G1 X120.297 Y118.154 E8.26222
G1 X120.741 Y117.652 E8.29565
G1 X120.901 Y117 E8.32914
G1 X120.741 Y116.348 E8.36264
G1 X120.297 Y115.846 E8.39607
G1 X119.669 Y115.609 E8.42956
G1 X119.003 Y115.69 E8.46303
G1 X118.451 Y116.07 E8.49647
G1 X118.139 Y116.665 E8.52998
G1 X118.139 Y117.335 E8.56341
G1 X118.451 Y117.93 E8.59693
G1 X119.003 Y118.31 E8.63036
M205 X10 Y10
G0 F6000 X119.201 Y118.334
G0 X119.147 Y118.771
G1 F1500 E2.63036
G1 F600 Z0.375
G0 F6000 X123.086 Y124 Z0.375
M205 X8 Y8
;TYPE:WALL-INNER
G1 F600 Z0.3
G1 F1500 E8.63036
G1 F1200 X102.072 Y124 E9.67876
G1 X98.5 Y120.429 E9.93074
G1 X98.5 Y99.572 E10.9713
G1 X102.071 Y96 E11.22329
G1 X123.086 Y96 E12.27174
G1 X126.5 Y99.414 E12.51261
G1 X126.5 Y120.586 E13.56889
G1 X123.086 Y124 E13.80976
M205 X10 Y10
G0 F6000 X123.252 Y124.4
M205 X8 Y8
G1 F1200 X101.906 Y124.4 E14.87472
G1 X98.1 Y120.595 E15.14322
G1 X98.1 Y99.406 E16.20034
G1 X101.905 Y95.6 E16.46884
G1 X123.252 Y95.6 E17.53385
G1 X126.9 Y99.248 E17.79123
G1 X126.9 Y120.752 E18.86407
G1 X123.252 Y124.4 E19.12146
M205 X10 Y10
G0 F6000 X123.418 Y124.8
M205 X8 Y8
;TYPE:WALL-OUTER
G1 F1200 X101.74 Y124.8 E20.20298
G1 X97.7 Y120.761 E20.48799
G1 X97.7 Y99.24 E21.56167
G1 X101.739 Y95.2 E21.84668
G1 X123.418 Y95.2 E22.92825
G1 X127.3 Y99.082 E23.20215
G1 X127.3 Y120.918 E24.29155
G1 X123.418 Y124.8 E24.56545
M205 X10 Y10
G0 F6000 X123.218 Y124.8
G0 X123.218 Y124.36
G0 X122.926 Y123.61
M205 X8 Y8
;TYPE:SKIN
G1 F1200 X102.232 Y123.61 E25.59787
G1 X98.89 Y120.269 E25.83363
G1 X98.89 Y99.732 E26.85823
G1 X102.231 Y96.39 E27.09399
G1 X122.926 Y96.39 E28.12647
G1 X126.11 Y99.574 E28.35112
G1 X126.11 Y120.426 E29.39143
G1 X122.926 Y123.61 E29.61608
M205 X10 Y10
G1 F1500 E23.61608
G1 F600 Z0.375
G0 F6000 X120.993 Y119.163 Z0.375
M205 X8 Y8
G1 F600 Z0.3
G1 F1500 E29.61608
G1 F1200 X121.826 Y118.221 E29.67881
G1 X122.127 Y117 E29.74155
G1 X121.826 Y115.779 E29.80429
G1 X120.993 Y114.837 E29.86703
G1 X119.815 Y114.393 E29.92983
G1 X118.569 Y114.544 E29.99245
G1 X117.535 Y115.257 E30.05511
G1 X116.949 Y116.371 E30.11791
G1 X116.949 Y117.629 E30.18067
G1 X117.535 Y118.743 E30.24347
G1 X118.569 Y119.456 E30.30613
G1 X119.815 Y119.607 E30.36875
G1 X120.993 Y119.163 E30.43156
M205 X10 Y10
G1 F1500 E24.43156
G1 F600 Z0.375
G0 F6000 X113.997 Y112.376 Z0.375
M205 X8 Y8
G1 F600 Z0.3
G1 F1500 E30.43156
G1 F1200 X114.657 Y111.803 E30.47516
G1 X115.242 Y110.679 E30.53838
G1 X115.244 Y109.323 E30.60603
G1 X114.629 Y108.143 E30.67242
G1 X113.607 Y107.421 E30.73485
G1 X112.779 Y107.202 E30.77758
G1 X111.533 Y107.347 E30.84016
G1 X110.492 Y108.04 E30.90255
G1 X109.98 Y108.749 E30.94618
G1 X109.672 Y110.004 E31.01065
G1 X109.993 Y111.303 E31.07741
G1 X110.825 Y112.257 E31.14056
G1 X111.6 Y112.661 E31.18416
G1 X112.836 Y112.807 E31.24626
G1 X113.997 Y112.376 E31.30804
M205 X10 Y10
G1 F1500 E25.30804
G1 F600 Z0.375
G0 F6000 X107.826 Y118.221 Z0.375
M205 X8 Y8
G1 F600 Z0.3
G1 F1500 E31.30804
G1 F1200 X108.127 Y117 E31.37078
G1 X107.826 Y115.779 E31.43352
G1 X106.993 Y114.837 E31.49626
G1 X105.815 Y114.393 E31.55906
G1 X104.569 Y114.544 E31.62168
G1 X103.535 Y115.257 E31.68434
G1 X102.949 Y116.371 E31.74714
G1 X102.949 Y117.629 E31.8099
G1 X103.535 Y118.743 E31.8727
G1 X104.569 Y119.456 E31.93536
G1 X105.815 Y119.607 E31.99798
G1 X106.993 Y119.163 E32.06079
G1 X107.826 Y118.221 E32.12352
M205 X10 Y10
G1 F1500 E26.12352
G1 F600 Z0.375
G0 F6000 X106.993 Y105.163 Z0.375
M205 X8 Y8
G1 F600 Z0.3
G1 F1500 E32.12352
G1 F1200 X107.826 Y104.221 E32.18626
G1 X108.127 Y103 E32.249
G1 X107.826 Y101.779 E32.31174
G1 X106.993 Y100.837 E32.37447
G1 X105.815 Y100.393 E32.43728
G1 X104.569 Y100.544 E32.4999
G1 X103.535 Y101.257 E32.56256
G1 X102.949 Y102.371 E32.62536
G1 X102.949 Y103.629 E32.68812
G1 X103.535 Y104.743 E32.75092
G1 X104.569 Y105.456 E32.81358
G1 X105.815 Y105.607 E32.8762
G1 X106.993 Y105.163 E32.93901
M205 X10 Y10
G1 F1500 E26.93901
G1 F600 Z0.375
G0 F6000 X119.815 Y105.607 Z0.375
M205 X8 Y8
G1 F600 Z0.3
G1 F1500 E32.93901
G1 F1200 X120.993 Y105.163 E33.00181
G1 X121.826 Y104.221 E33.06455
G1 X122.127 Y103 E33.12729
G1 X121.826 Y101.779 E33.19003
G1 X120.993 Y100.837 E33.25276
G1 X119.815 Y100.393 E33.31557
G1 X118.569 Y100.544 E33.37819
G1 X117.535 Y101.257 E33.44085
G1 X116.949 Y102.371 E33.50365
G1 X116.949 Y103.629 E33.56641
G1 X117.535 Y104.743 E33.62921
G1 X118.569 Y105.456 E33.69187
G1 X119.815 Y105.607 E33.75449
M205 X10 Y10
G1 F1500 E27.75449
G1 F600 Z0.375
G0 F6000 X125.929 Y99.907 Z0.375
M205 X8 Y8
G1 F600 Z0.3
G1 F1500 E33.75449
G1 F1200 X122.591 Y96.569 E33.99
M205 X10 Y10
G0 F6000 X122.025 Y96.569
M205 X8 Y8
G1 F1200 X125.929 Y100.473 E34.26545
M205 X10 Y10
G0 F6000 X125.929 Y101.039
M205 X8 Y8
G1 F1200 X121.459 Y96.569 E34.58083
M205 X10 Y10
G0 F6000 X120.894 Y96.569
M205 X8 Y8
G1 F1200 X125.929 Y101.604 E34.93608
M205 X10 Y10
G0 F6000 X125.929 Y102.17
M205 X8 Y8
G1 F1200 X120.328 Y96.569 E35.33126
M205 X10 Y10
G0 F6000 X119.762 Y96.569
M205 X8 Y8
G1 F1200 X125.929 Y102.736 E35.76637
M205 X10 Y10
G0 F6000 X125.929 Y103.301
M205 X8 Y8
G1 F1200 X119.196 Y96.569 E36.24139
M205 X10 Y10
G0 F6000 X118.631 Y96.569
M205 X8 Y8
G1 F1200 X125.929 Y103.867 E36.7563
M205 X10 Y10
G0 F6000 X125.929 Y104.433
M205 X8 Y8
G1 F1200 X118.065 Y96.569 E37.31115
M205 X10 Y10
G0 F6000 X117.499 Y96.569
M205 X8 Y8
G1 F1200 X125.929 Y104.998 E37.9059
M205 X10 Y10
G0 F6000 X125.929 Y105.564
M205 X8 Y8
G1 F1200 X121.473 Y101.109 E38.22026
M205 X10 Y10
G0 F6000 X121.018 Y100.653
M205 X8 Y8
G1 F1200 X116.934 Y96.569 E38.5084
M205 X10 Y10
G0 F6000 X116.368 Y96.569
M205 X8 Y8
G1 F1200 X120.111 Y100.312 E38.77249
M205 X10 Y10
G0 F6000 X119.484 Y100.251
M205 X8 Y8
G1 F1200 X115.802 Y96.569 E39.03228
M205 X10 Y10
G0 F6000 X115.237 Y96.569
M205 X8 Y8
G1 F1200 X118.98 Y100.312 E39.29637
M205 X10 Y10
G0 F6000 X118.484 Y100.382
M205 X8 Y8
G1 F1200 X114.671 Y96.569 E39.5654
M205 X10 Y10
G0 F6000 X114.105 Y96.569
M205 X8 Y8
G1 F1200 X118.149 Y100.612 E39.85069
M205 X10 Y10
G0 F6000 X117.813 Y100.843
M205 X8 Y8
G1 F1200 X113.54 Y96.569 E40.1522
M205 X10 Y10
G0 F6000 X112.974 Y96.569
M205 X8 Y8
G1 F1200 X117.479 Y101.074 E40.47006
M205 X10 Y10
G0 F6000 X117.25 Y101.411
M205 X8 Y8
G1 F1200 X112.408 Y96.569 E40.81169
M205 X10 Y10
G0 F6000 X111.843 Y96.569
M205 X8 Y8
G1 F1200 X117.055 Y101.782 E41.17946
M205 X10 Y10
G0 F6000 X116.86 Y102.152
M205 X8 Y8
G1 F1200 X111.277 Y96.569 E41.57337
M205 X10 Y10
G0 F6000 X110.711 Y96.569
M205 X8 Y8
G1 F1200 X116.768 Y102.626 E42.00072
M205 X10 Y10
G0 F6000 X116.768 Y103.192
M205 X8 Y8
G1 F1200 X110.146 Y96.569 E42.46797
M205 X10 Y10
G0 F6000 X109.58 Y96.569
M205 X8 Y8
G1 F1200 X116.862 Y103.852 E42.98179
G1 X116.932 Y103.922
M205 X10 Y10
G1 F1500 E36.98179
G1 F600 Z0.375
G0 F6000 X118.658 Y105.648 Z0.375
M205 X8 Y8
G1 F600 Z0.3
G1 F1500 E42.98179
G1 F1200 X125.929 Y112.918 E43.49477
M205 X10 Y10
G0 F6000 X125.929 Y112.352
M205 X8 Y8
G1 F1200 X119.302 Y105.725 E43.96234
M205 X10 Y10
G0 F6000 X119.906 Y105.764
M205 X8 Y8
G1 F1200 X125.929 Y111.787 E44.38729
M205 X10 Y10
G0 F6000 X125.929 Y111.221
M205 X8 Y8
G1 F1200 X120.317 Y105.609 E44.78325
M205 X10 Y10
G0 F6000 X120.728 Y105.455
M205 X8 Y8
G1 F1200 X125.929 Y110.655 E45.15017
M205 X10 Y10
G0 F6000 X125.929 Y110.09
M205 X8 Y8
G1 F1200 X121.124 Y105.285 E45.48919
M205 X10 Y10
G0 F6000 X121.389 Y104.984
M205 X8 Y8
G1 F1200 X125.929 Y109.524 E45.80951
M205 X10 Y10
G0 F6000 X125.929 Y108.958
M205 X8 Y8
G1 F1200 X121.655 Y104.685 E46.11103
M205 X10 Y10
