;FLAVOR:Marlin
;TIME:973
;Filament used: 0.698805m
;Layer height: 0.2
;MINX:97.211
;MINY:94.706
;MINZ:0.3
;MAXX:127.787
;MAXY:125.294
;MAXZ:9.1
;Generated with Cura_SteamEngine 4.13.1
M140 S60
M105
M190 S60
M104 S200
M105
M109 S200
M82 ;absolute extrusion mode
G21                                        ; metric values
G90                                        ; absolute positioning
M82                                        ; set extruder to absolute mode
M107                                       ; start with the fan off
M190 S60                                   ; preheat and wait for bed
M109 S210                                  ; preheat and wait for hotend
M300 S1000 P500                            ; BEEP heating done
G28 X0 Y10 Z0                              ; move X/Y to min endstops
M420 S1                                    ; enable mesh leveling
G0 Z0.15                                   ; lift nozzle a bit
G0 X2                                      ; move away from clips
G92 E0                                     ; zero the extruded length
G1 Y50 E25 F500                            ; Extrude 25mm of filament in a 5cm line.
G92 E0                                     ; zero the extruded length again
G1 E-2 F500                                ; Retract a little
G1 Y120 F4000                              ; Quickly wipe away from the filament line
G92 E0
G92 E0
G1 F1500 E-6
;LAYER_COUNT:45
;LAYER:0
M106 S76.5
M205 X10 Y10
G1 F600 Z0.375
;MESH:frm-gitterdeckel-28mm.stl
G0 F6000 X108.143 Y96.07 Z0.375
M205 X8 Y8
;TYPE:WALL-INNER
G1 F600 Z0.3
G1 F1500 E0
G1 F1200 X106.79 Y96.558 E0.07176
G1 X105.329 Y97.274 E0.15293
G1 X103.956 Y98.151 E0.23421
G1 X102.488 Y99.339 E0.32843
G1 X102.488 Y102.6 E0.49112
G1 X109.088 Y102.6 E0.82039
G1 X109.088 Y95.73 E1.16314
G1 X108.143 Y96.07 E1.21325
M205 X10 Y10
G0 F6000 X108.688 Y96.299
M205 X8 Y8
;TYPE:WALL-OUTER
G1 F1200 X106.946 Y96.927 E1.30563
G1 X105.525 Y97.623 E1.38457
G1 X104.19 Y98.476 E1.46361
G1 X102.888 Y99.53 E1.54718
G1 X102.888 Y102.2 E1.68039
G1 X108.688 Y102.2 E1.96975
G1 X108.688 Y96.299 E2.26415
M205 X10 Y10
G0 F6000 X108.5 Y96.366
G0 X108.352 Y95.952
G1 F1500 E-3.73585
G1 F600 Z0.375
G0 F6000 X122.488 Y102.6 Z0.375
M205 X8 Y8
;TYPE:WALL-INNER
G1 F600 Z0.3
G1 F1500 E2.26415
G1 F1200 X124.343 Y102.6 E2.3567
G1 X124.679 Y101.947 E2.39334
G1 X124.201 Y101.285 E2.43408
G1 X123.835 Y100.814 E2.46383
G1 X123.28 Y100.147 E2.50712
G1 X122.488 Y100.435 E2.54917
G1 X122.488 Y102.6 E2.65718
M205 X10 Y10
G0 F6000 X122.888 Y102.2
M205 X8 Y8
;TYPE:WALL-OUTER
G1 F1200 X124.099 Y102.2 E2.7176
G1 X124.211 Y101.982 E2.72983
G1 X123.881 Y101.525 E2.75795
G1 X123.523 Y101.065 E2.78703
G1 X123.152 Y100.619 E2.81597
G1 X122.888 Y100.715 E2.82999
G1 X122.888 Y102.2 E2.90407
M205 X10 Y10
G0 F6000 X123.088 Y102.2
G0 X123.088 Y102.64
G1 F1500 E-3.09593
G1 F600 Z0.375
G0 F6000 X127.13 Y109.6 Z0.375
M205 X8 Y8
;TYPE:WALL-INNER
G1 F600 Z0.3
G1 F1500 E2.90407
G1 F1200 X126.983 Y108.403 E2.96424
G1 X126.87 Y107.484 E3.01044
G1 X126.717 Y106.806 E3.04511
G1 X126.551 Y106.072 E3.08266
G1 X126.28 Y105.264 E3.12517
G1 X126.082 Y104.675 E3.15618
G1 X125.676 Y103.774 E3.20548
G1 X125.326 Y103 E3.24786
G1 X122.488 Y103 E3.38945
G1 X122.488 Y109.6 E3.71872
G1 X127.13 Y109.6 E3.95031
M205 X10 Y10
G0 F6000 X126.678 Y109.2
M205 X8 Y8
;TYPE:WALL-OUTER
G1 F1200 X126.475 Y107.553 E4.0331
G1 X126.165 Y106.18 E4.10333
G1 X125.709 Y104.821 E4.17484
G1 X125.068 Y103.4 E4.25262
G1 X122.888 Y103.4 E4.36138
G1 X122.888 Y109.2 E4.65074
G1 X126.678 Y109.2 E4.83982
M205 X10 Y10
G0 F6000 X126.654 Y109.002
G0 X127.09 Y108.95
G0 X127.133 Y110
M205 X8 Y8
;TYPE:WALL-INNER
G1 F1200 X122.488 Y110 E5.07156
G1 X122.488 Y116.6 E5.40084
G1 X125.538 Y116.6 E5.553
G1 X126.239 Y114.909 E5.64433
G1 X126.661 Y113.508 E5.71733
G1 X126.94 Y112.073 E5.79026
G1 X126.983 Y111.607 E5.81361
G1 X127.133 Y110 E5.89413
M205 X10 Y10
G0 F6000 X126.694 Y110.4
M205 X8 Y8
;TYPE:WALL-OUTER
G1 F1200 X122.888 Y110.4 E6.08401
G1 X122.888 Y116.2 E6.37338
G1 X125.271 Y116.2 E6.49226
G1 X125.862 Y114.774 E6.56928
G1 X126.272 Y113.412 E6.64024
G1 X126.544 Y112.016 E6.71119
G1 X126.694 Y110.4 E6.79216
M205 X10 Y10
G0 F6000 X126.494 Y110.4
G0 X126.494 Y109.96
G1 F1500 E0.79216
G1 F600 Z0.375
G0 F6000 X122.488 Y117 Z0.375
M205 X8 Y8
;TYPE:WALL-INNER
G1 F600 Z0.3
G1 F1500 E6.79216
G1 F1200 X122.488 Y119.568 E6.92028
G1 X123.283 Y119.853 E6.96242
G1 X123.966 Y119.022 E7.01608
G1 X124.361 Y118.495 E7.04894
G1 X124.944 Y117.639 E7.10061
G1 X124.606 Y117 E7.13667
G1 X122.488 Y117 E7.24234
M205 X10 Y10
G0 F6000 X122.888 Y117.4
M205 X8 Y8
;TYPE:WALL-OUTER
G1 F1200 X122.888 Y119.286 E7.33643
G1 X123.153 Y119.381 E7.35048
G1 X123.651 Y118.775 E7.38961
G1 X124.036 Y118.262 E7.42161
G1 X124.478 Y117.613 E7.46079
G1 X124.365 Y117.4 E7.47282
G1 X122.888 Y117.4 E7.5465
M205 X10 Y10
G0 F6000 X122.888 Y117.6
G0 X122.448 Y117.6
G1 F1500 E1.5465
G1 F600 Z0.375
G0 F6000 X102.088 Y117 Z0.375
M205 X8 Y8
;TYPE:WALL-INNER
G1 F600 Z0.3
G1 F1500 E7.5465
G1 F1200 X100.37 Y117 E7.63221
G1 X100.031 Y117.636 E7.66817
G1 X100.455 Y118.267 E7.7061
G1 X100.766 Y118.705 E7.7329
G1 X101.273 Y119.366 E7.77446
G1 X102.088 Y119.09 E7.81739
G1 X102.088 Y117 E7.92166
M205 X10 Y10
G0 F6000 X101.688 Y117.4
M205 X8 Y8
;TYPE:WALL-OUTER
G1 F1200 X100.61 Y117.4 E7.97544
G1 X100.497 Y117.612 E7.98743
G1 X100.784 Y118.04 E8.01314
G1 X101.088 Y118.467 E8.03929
G1 X101.416 Y118.895 E8.06619
G1 X101.688 Y118.803 E8.08051
G1 X101.688 Y117.4 E8.15051
M205 X10 Y10
G0 F6000 X101.488 Y117.4
G0 X101.488 Y116.96
G1 F1500 E2.15051
G1 F600 Z0.375
G0 F6000 X102.488 Y110 Z0.375
M205 X8 Y8
;TYPE:WALL-INNER
G1 F600 Z0.3
G1 F1500 E8.15051
G1 F1200 X102.488 Y116.6 E8.47978
G1 X109.088 Y116.6 E8.80906
G1 X109.088 Y110 E9.13834
G1 X102.488 Y110 E9.46761
M205 X10 Y10
G0 F6000 X102.888 Y110.4
M205 X8 Y8
;TYPE:WALL-OUTER
G1 F1200 X102.888 Y116.2 E9.75697
G1 X108.688 Y116.2 E10.04634
G1 X108.688 Y110.4 E10.3357
G1 X102.888 Y110.4 E10.62506
M205 X10 Y10
G0 F6000 X102.888 Y110.6
G0 X102.448 Y110.6
G1 F1500 E4.62506
G1 F600 Z0.375
G0 F6000 X97.904 Y110.785 Z0.375
M205 X8 Y8
;TYPE:WALL-INNER
G1 F600 Z0.3
G1 F1500 E10.62506
G1 F1200 X98.037 Y112.088 E10.69041
G1 X98.318 Y113.52 E10.76321
G1 X98.451 Y113.963 E10.78629
G1 X98.732 Y114.895 E10.83485
G1 X98.974 Y115.479 E10.86639
G1 X99.438 Y116.6 E10.92692
G1 X102.088 Y116.6 E11.05913
G1 X102.088 Y110 E11.38841
G1 X97.825 Y110 E11.60109
G1 X97.904 Y110.785 E11.64045
M205 X10 Y10
G0 F6000 X98.268 Y110.4
M205 X8 Y8
;TYPE:WALL-OUTER
G1 F1200 X98.433 Y112.029 E11.72214
G1 X98.707 Y113.424 E11.79306
G1 X99.109 Y114.761 E11.86272
G1 X99.705 Y116.2 E11.94042
G1 X101.688 Y116.2 E12.03935
G1 X101.688 Y110.4 E12.32872
G1 X98.268 Y110.4 E12.49934
M205 X10 Y10
G0 F6000 X98.288 Y110.599
G0 X97.851 Y110.642
G0 X97.845 Y109.6
M205 X8 Y8
;TYPE:WALL-INNER
G1 F1200 X102.088 Y109.6 E12.71103
G1 X102.088 Y103 E13.0403
G1 X99.649 Y103 E13.16198
G1 X98.898 Y104.662 E13.25297
G1 X98.43 Y106.057 E13.32638
G1 X98.102 Y107.498 E13.40011
G1 X97.845 Y109.6 E13.50576
M205 X10 Y10
G0 F6000 X98.297 Y109.2
M205 X8 Y8
;TYPE:WALL-OUTER
G1 F1200 X101.688 Y109.2 E13.67494
G1 X101.688 Y103.4 E13.9643
G1 X99.907 Y103.4 E14.05316
G1 X99.271 Y104.808 E14.13024
G1 X98.816 Y106.165 E14.20164
G1 X98.497 Y107.567 E14.27338
G1 X98.297 Y109.2 E14.35546
M205 X10 Y10
G0 F6000 X98.497 Y109.2
G0 X98.497 Y109.64
G1 F1500 E8.35546
G1 F600 Z0.375
G0 F6000 X102.088 Y102.6 Z0.375
M205 X8 Y8
;TYPE:WALL-INNER
G1 F600 Z0.3
G1 F1500 E14.35546
G1 F1200 X102.088 Y100.912 E14.43967
G1 X101.274 Y100.632 E14.48262
G1 X100.658 Y101.444 E14.53347
G1 X100.298 Y101.952 E14.56453
G1 X100.634 Y102.6 E14.60095
G1 X102.088 Y102.6 E14.67349
M205 X10 Y10
G0 F6000 X101.688 Y102.2
M205 X8 Y8
;TYPE:WALL-OUTER
G1 F1200 X101.688 Y101.197 E14.72353
G1 X101.418 Y101.104 E14.73777
G1 X100.98 Y101.681 E14.77391
G1 X100.765 Y101.984 E14.79245
G1 X100.877 Y102.2 E14.80459
G1 X101.688 Y102.2 E14.84505
M205 X10 Y10
G0 F6000 X101.688 Y102
G0 X102.128 Y102
G0 X102.488 Y103
M205 X8 Y8
;TYPE:WALL-INNER
G1 F1200 X102.488 Y109.6 E15.17432
G1 X109.088 Y109.6 E15.5036
G1 X109.088 Y103 E15.83287
G1 X102.488 Y103 E16.16215
M205 X10 Y10
G0 F6000 X102.888 Y103.4
M205 X8 Y8
;TYPE:WALL-OUTER
G1 F1200 X102.888 Y109.2 E16.45151
G1 X108.688 Y109.2 E16.74088
G1 X108.688 Y103.4 E17.03024
G1 X102.888 Y103.4 E17.3196
M205 X10 Y10
G0 F6000 X102.888 Y103.6
G0 X102.448 Y103.6
G1 F1500 E11.3196
G1 F600 Z0.375
G0 F6000 X109.488 Y103 Z0.375
M205 X8 Y8
;TYPE:WALL-INNER
G1 F600 Z0.3
G1 F1500 E17.3196
G1 F1200 X109.488 Y109.6 E17.64888
G1 X116.088 Y109.6 E17.97815
G1 X116.088 Y103 E18.30743
G1 X109.488 Y103 E18.6367
M205 X10 Y10
G0 F6000 X109.888 Y103.4
M205 X8 Y8
;TYPE:WALL-OUTER
G1 F1200 X109.888 Y109.2 E18.92607
G1 X115.688 Y109.2 E19.21543
G1 X115.688 Y103.4 E19.50479
G1 X109.888 Y103.4 E19.79416
M205 X10 Y10
G0 F6000 X109.888 Y103.6
G0 X109.448 Y103.6
G1 F1500 E13.79416
G1 F600 Z0.375
G0 F6000 X116.088 Y102.6 Z0.375
M205 X8 Y8
;TYPE:WALL-INNER
G1 F600 Z0.3
G1 F1500 E19.79416
G1 F1200 X116.088 Y95.818 E20.13251
G1 X114.212 Y95.501 E20.22743
G1 X112.793 Y95.403 E20.2984
G1 X111.376 Y95.442 E20.36912
G1 X109.488 Y95.677 E20.46404
G1 X109.488 Y102.6 E20.80943
G1 X116.088 Y102.6 E21.1387
M205 X10 Y10
G0 F6000 X115.688 Y102.2
M205 X8 Y8
;TYPE:WALL-OUTER
G1 F1200 X115.688 Y96.156 E21.44024
G1 X114.165 Y95.899 E21.5173
G1 X112.785 Y95.803 E21.58631
G1 X111.406 Y95.841 E21.65513
G1 X109.888 Y96.03 E21.73145
G1 X109.888 Y102.2 E22.03928
G1 X115.688 Y102.2 E22.32864
M205 X10 Y10
G0 F6000 X115.688 Y102
G0 X116.128 Y102
G0 X116.488 Y102.6
M205 X8 Y8
;TYPE:WALL-INNER
G1 F1200 X122.088 Y102.6 E22.60802
G1 X122.088 Y100.1 E22.73275
G1 X122.174 Y100.1 E22.73704
G1 X122.455 Y99.296 E22.77953
G1 X121.764 Y98.744 E22.82365
G1 X121.045 Y98.17 E22.86955
G1 X120.465 Y97.792 E22.90409
G1 X119.857 Y97.395 E22.94032
G1 X119.071 Y96.985 E22.98455
G1 X118.597 Y96.738 E23.01121
G1 X117.603 Y96.338 E23.06467
G1 X116.488 Y95.889 E23.12464
G1 X116.488 Y102.6 E23.45945
M205 X10 Y10
G0 F6000 X116.888 Y102.2
M205 X8 Y8
;TYPE:WALL-OUTER
G1 F1200 X121.688 Y102.2 E23.69892
G1 X121.688 Y99.7 E23.82365
G1 X121.89 Y99.7 E23.83373
G1 X121.984 Y99.432 E23.8479
G1 X120.81 Y98.495 E23.92284
G1 X119.655 Y97.741 E23.99165
G1 X118.429 Y97.102 E24.06063
G1 X116.888 Y96.481 E24.14351
G1 X116.888 Y102.2 E24.42884
M205 X10 Y10
G0 F6000 X117.088 Y102.2
G0 X117.088 Y102.64
G0 X116.488 Y103
M205 X8 Y8
;TYPE:WALL-INNER
G1 F1200 X116.488 Y109.6 E24.75811
G1 X122.088 Y109.6 E25.0375
G1 X122.088 Y103 E25.36677
G1 X116.488 Y103 E25.64616
M205 X10 Y10
G0 F6000 X116.888 Y103.4
M205 X8 Y8
;TYPE:WALL-OUTER
G1 F1200 X116.888 Y109.2 E25.93552
G1 X121.688 Y109.2 E26.17499
G1 X121.688 Y103.4 E26.46436
G1 X116.888 Y103.4 E26.70383
M205 X10 Y10
G0 F6000 X116.888 Y103.6
G0 X116.448 Y103.6
G1 F1500 E20.70383
G1 F600 Z0.375
G0 F6000 X116.488 Y110 Z0.375
M205 X8 Y8
;TYPE:WALL-INNER
G1 F600 Z0.3
G1 F1500 E26.70383
G1 F1200 X116.488 Y116.6 E27.03311
G1 X122.088 Y116.6 E27.31249
G1 X122.088 Y110 E27.64177
G1 X116.488 Y110 E27.92115
M205 X10 Y10
G0 F6000 X116.888 Y110.4
M205 X8 Y8
;TYPE:WALL-OUTER
G1 F1200 X116.888 Y116.2 E28.21051
G1 X121.688 Y116.2 E28.44999
G1 X121.688 Y110.4 E28.73935
G1 X116.888 Y110.4 E28.97882
M205 X10 Y10
G0 F6000 X116.888 Y110.6
G0 X116.448 Y110.6
G1 F1500 E22.97882
G1 F600 Z0.375
G0 F6000 X109.488 Y110 Z0.375
M205 X8 Y8
;TYPE:WALL-INNER
G1 F600 Z0.3
G1 F1500 E28.97882
G1 F1200 X109.488 Y116.6 E29.3081
G1 X116.088 Y116.6 E29.63737
G1 X116.088 Y110 E29.96665
G1 X109.488 Y110 E30.29592
M205 X10 Y10
G0 F6000 X109.888 Y110.4
M205 X8 Y8
;TYPE:WALL-OUTER
G1 F1200 X109.888 Y116.2 E30.58529
G1 X115.688 Y116.2 E30.87465
G1 X115.688 Y110.4 E31.16401
G1 X109.888 Y110.4 E31.45338
M205 X10 Y10
G0 F6000 X109.888 Y110.6
G0 X109.448 Y110.6
G1 F1500 E25.45338
G1 F600 Z0.375
G0 F6000 X109.488 Y117 Z0.375
M205 X8 Y8
;TYPE:WALL-INNER
G1 F600 Z0.3
G1 F1500 E31.45338
G1 F1200 X109.488 Y124.323 E31.81872
G1 X111.376 Y124.558 E31.91364
G1 X112.821 Y124.596 E31.98576
G1 X114.211 Y124.5 E32.05527
G1 X116.088 Y124.182 E32.15025
G1 X116.088 Y117 E32.50856
G1 X109.488 Y117 E32.83784
M205 X10 Y10
G0 F6000 X109.888 Y117.4
M205 X8 Y8
;TYPE:WALL-OUTER
G1 F1200 X109.888 Y123.97 E33.16562
G1 X111.406 Y124.159 E33.24193
G1 X112.812 Y124.196 E33.3121
G1 X114.164 Y124.102 E33.37972
G1 X115.688 Y123.844 E33.45683
G1 X115.688 Y117.4 E33.77832
G1 X109.888 Y117.4 E34.06769
M205 X10 Y10
G0 F6000 X109.888 Y117.6
G0 X109.448 Y117.6
G1 F1500 E28.06769
G1 F600 Z0.375
G0 F6000 X108.142 Y123.929 Z0.375
M205 X8 Y8
;TYPE:WALL-INNER
G1 F600 Z0.3
G1 F1500 E34.06769
G1 F1200 X109.088 Y124.27 E34.11786
G1 X109.088 Y117 E34.48056
G1 X102.488 Y117 E34.80983
G1 X102.488 Y120.661 E34.99248
G1 X103.955 Y121.848 E35.08663
G1 X105.328 Y122.725 E35.16791
G1 X106.79 Y123.442 E35.24915
G1 X108.142 Y123.929 E35.32084
M205 X10 Y10
G0 F6000 X108.688 Y123.701
M205 X8 Y8
;TYPE:WALL-OUTER
G1 F1200 X108.688 Y117.4 E35.6352
G1 X102.888 Y117.4 E35.92456
G1 X102.888 Y120.47 E36.07773
G1 X104.189 Y121.523 E36.16123
G1 X105.524 Y122.376 E36.24027
G1 X106.946 Y123.073 E36.31928
G1 X108.688 Y123.701 E36.41166
M205 X10 Y10
G0 F6000 X108.688 Y123.501
G0 X109.128 Y123.501
G1 F1500 E30.41166
G1 F600 Z0.375
G0 F6000 X116.488 Y124.112 Z0.375
M205 X8 Y8
;TYPE:WALL-INNER
G1 F600 Z0.3
G1 F1500 E36.41166
G1 F1200 X117.602 Y123.663 E36.47158
G1 X118.598 Y123.261 E36.52517
G1 X119.07 Y123.015 E36.55172
G1 X119.856 Y122.606 E36.59593
G1 X120.464 Y122.209 E36.63215
G1 X121.045 Y121.829 E36.66679
G1 X121.762 Y121.257 E36.71255
G1 X122.455 Y120.704 E36.75678
G1 X122.174 Y119.9 E36.79927
G1 X122.088 Y119.9 E36.80356
G1 X122.088 Y117 E36.94824
G1 X116.488 Y117 E37.22763
G1 X116.488 Y124.112 E37.58245
M205 X10 Y10
G0 F6000 X116.888 Y123.519
M205 X8 Y8
;TYPE:WALL-OUTER
G1 F1200 X118.43 Y122.897 E37.6654
G1 X119.654 Y122.26 E37.73424
G1 X120.81 Y121.505 E37.80313
G1 X121.984 Y120.568 E37.87807
G1 X121.89 Y120.3 E37.89223
G1 X121.688 Y120.3 E37.90231
G1 X121.688 Y117.4 E38.04699
G1 X116.888 Y117.4 E38.28647
G1 X116.888 Y123.519 E38.59175
M205 X10 Y10
G0 F6000 X117.073 Y123.445
G0 X117.236 Y123.853
G1 F1500 E32.59175
G1 F600 Z0.375
G0 F6000 X102.088 Y120.071 Z0.375
M205 X8 Y8
;TYPE:WALL-INNER
G1 F600 Z0.3
G1 F1500 E38.59175
G1 F1200 X101.68 Y119.651 E38.62096
G1 X102.088 Y119.512 E38.64246
G1 X102.088 Y120.071 E38.6568
M205 X10 Y10
G1 F1500 E32.6568
G1 F600 Z0.375
G0 F6000 X99.861 Y117.104 Z0.375
M205 X8 Y8
G1 F600 Z0.3
G1 F1500 E38.6568
G1 F1200 X99.797 Y117 E38.66289
G1 X99.917 Y117 E38.66429
G1 X99.861 Y117.104 E38.66568
M205 X10 Y10
G1 F1500 E32.66568
G1 F600 Z0.375
G0 F6000 X100.184 Y102.6 Z0.375
M205 X8 Y8
G1 F600 Z0.3
G1 F1500 E38.66568
G1 F1200 X100.043 Y102.6 E38.67271
G1 X100.119 Y102.476 E38.67471
G1 X100.184 Y102.6 E38.67643
M205 X10 Y10
G1 F1500 E32.67643
G1 F600 Z0.375
G0 F6000 X102.088 Y100.489 Z0.375
M205 X8 Y8
G1 F600 Z0.3
G1 F1500 E38.67643
G1 F1200 X101.68 Y100.349 E38.69795
G1 X102.088 Y99.929 E38.72717
G1 X102.088 Y100.489 E38.74154
M205 X10 Y10
G1 F1500 E32.74154
G1 F600 Z0.375
G0 F6000 X122.65 Y99.951 Z0.375
M205 X8 Y8
G1 F600 Z0.3
G1 F1500 E38.74154
G1 F1200 X122.722 Y99.743 E38.75252
G1 X122.864 Y99.873 E38.7554
G1 X122.65 Y99.951 E38.75881
M205 X10 Y10
G1 F1500 E32.75881
G1 F600 Z0.375
G0 F6000 X124.793 Y102.6 Z0.375
M205 X8 Y8
G1 F600 Z0.3
G1 F1500 E38.75881
G1 F1200 X124.866 Y102.458 E38.76677
G1 X124.943 Y102.6 E38.76891
G1 X124.793 Y102.6 E38.77082
M205 X10 Y10
G1 F1500 E32.77082
G1 F600 Z0.375
G0 F6000 X125.108 Y117.093 Z0.375
M205 X8 Y8
G1 F600 Z0.3
G1 F1500 E38.77082
G1 F1200 X125.058 Y117 E38.77609
G1 X125.158 Y117 E38.77717
G1 X125.108 Y117.093 E38.77829
M205 X10 Y10
G1 F1500 E32.77829
G1 F600 Z0.375
G0 F6000 X122.722 Y120.257 Z0.375
M205 X8 Y8
G1 F600 Z0.3
G1 F1500 E38.77829
G1 F1200 X122.651 Y120.052 E38.78911
G1 X122.863 Y120.128 E38.79257
G1 X122.722 Y120.257 E38.79511
M205 X10 Y10
G1 F1500 E32.79511
G1 F600 Z0.375
G0 F6000 X114.534 Y124.758 Z0.375
M205 X8 Y8
G1 F600 Z0.3
G1 F1500 E38.79511
G1 F1200 X112.9 Y124.893 E38.86102
G1 X111.253 Y124.848 E38.92561
