;FLAVOR:Marlin
;TIME:1654
;Filament used: 1.1356m
;Layer height: 0.2
;MINX:84.661
;MINY:100.752
;MINZ:0.3
;MAXX:126.325
;MAXY:130.104
;MAXZ:13.175
;Generated with Cura_SteamEngine 4.13.1
M140 S60
M105
M190 S60
M104 S200
M105
M109 S200
M82 ;absolute extrusion mode
G21                                        ; metric values
G90                                        ; absolute positioning
M82                                        ; set extruder to absolute mode
M107                                       ; start with the fan off
M190 S60                                   ; preheat and wait for bed
M109 S210                                  ; preheat and wait for hotend
M300 S1000 P500                            ; BEEP heating done
G28 X0 Y10 Z0                              ; move X/Y to min endstops
M420 S1                                    ; enable mesh leveling
G0 Z0.15                                   ; lift nozzle a bit
G0 X2                                      ; move away from clips
G92 E0                                     ; zero the extruded length
G1 Y50 E25 F500                            ; Extrude 25mm of filament in a 5cm line.
G92 E0                                     ; zero the extruded length again
G1 E-2 F500                                ; Retract a little
G1 Y120 F4000                              ; Quickly wipe away from the filament line
G92 E0
G92 E0
G1 F1500 E-6
;LAYER_COUNT:65
;LAYER:0
M106 S76.5
M205 X10 Y10
G1 F600 Z0.375
G0 F6000 X105.954 Y120.544 Z0.375
M205 X8 Y8
;TYPE:SKIRT
G1 F600 Z0.3
G1 F1500 E0
G1 F1200 X106.156 Y120.693 E0.01252
G1 X105.844 Y120.805 E0.02906
G1 X105.954 Y120.544 E0.04319
M205 X10 Y10
G0 F6000 X105.572 Y120.427
M205 X8 Y8
G1 F1200 X105.753 Y119.828 E0.07441
G1 X106.232 Y120.255 E0.10642
G1 X106.768 Y120.586 E0.13785
G1 X108.047 Y121.092 E0.20648
G1 X108.156 Y121.131 E0.21225
G1 X109.475 Y121.557 E0.2814
G1 X109.673 Y121.609 E0.29162
G1 X111.034 Y121.883 E0.36088
G1 X111.235 Y121.911 E0.371
G1 X112.56 Y122.025 E0.43735
G1 X112.852 Y122.027 E0.45192
G1 X114.654 Y121.888 E0.54209
G1 X114.998 Y121.827 E0.55952
G1 X116.352 Y121.451 E0.62963
G1 X115.502 Y121.83 E0.67606
G1 X114.203 Y121.992 E0.74137
G1 X112.032 Y122.138 E0.84992
G1 X110.801 Y122.081 E0.91141
G1 X109.686 Y121.905 E0.96772
G1 X108.647 Y121.624 E1.02142
G1 X107.425 Y121.131 E1.08716
G1 X106.682 Y121.002 E1.12478
G1 X105.952 Y121.189 E1.16238
G1 X105.342 Y121.682 E1.20151
G1 X104.391 Y122.881 E1.27786
G1 X104.317 Y122.982 E1.28411
G1 X103.478 Y124.205 E1.3581
G1 X102.755 Y125.005 E1.4119
G1 X101.765 Y125.862 E1.47722
G1 X100.778 Y126.552 E1.5373
G1 X99.71 Y127.26 E1.60123
G1 X98.71 Y127.561 E1.65333
G1 X98.394 Y127.69 E1.67036
G1 X97.567 Y128.123 E1.71693
G1 X96.397 Y128.312 E1.77606
G1 X95.275 Y128.504 E1.83285
G1 X94.792 Y128.487 E1.85696
G1 X94.973 Y128.375 E1.86758
G1 X95.898 Y128.307 E1.91386
G1 X96.181 Y128.264 E1.92814
G1 X97.662 Y127.914 E2.00406
G1 X97.998 Y127.798 E2.02179
G1 X99.242 Y127.228 E2.09006
G1 X99.332 Y127.184 E2.09506
G1 X100.754 Y126.434 E2.17527
G1 X100.997 Y126.28 E2.18962
G1 X102.201 Y125.373 E2.26482
G1 X102.497 Y125.092 E2.28519
G1 X103.414 Y123.999 E2.35636
G1 X103.511 Y123.872 E2.36434
G1 X104.453 Y122.522 E2.44647
G1 X104.554 Y122.359 E2.45603
G1 X105.426 Y120.773 E2.54633
G1 X105.572 Y120.427 E2.56506
M205 X10 Y10
G0 F6000 X105.189 Y120.311
M205 X8 Y8
G1 F1200 X105.421 Y119.543 E2.60509
G1 X105.644 Y119.381 E2.61884
G1 X105.852 Y119.381 E2.62922
G1 X106.498 Y119.957 E2.6724
G1 X106.915 Y120.214 E2.69684
G1 X108.194 Y120.72 E2.76546
G1 X108.279 Y120.75 E2.76996
G1 X109.598 Y121.176 E2.83911
G1 X109.752 Y121.216 E2.84705
G1 X111.113 Y121.49 E2.91631
G1 X111.269 Y121.513 E2.92418
G1 X112.594 Y121.627 E2.99052
G1 X112.822 Y121.628 E3.0019
G1 X114.624 Y121.489 E3.09207
G1 X114.891 Y121.442 E3.10559
G1 X116.393 Y121.025 E3.18336
G1 X116.695 Y120.902 E3.19963
G1 X118.111 Y120.119 E3.28036
G1 X119.429 Y119.345 E3.35661
G1 X119.63 Y119.202 E3.36892
G1 X120.924 Y118.095 E3.45388
G1 X121.1 Y117.915 E3.46644
G1 X122.034 Y116.767 E3.54027
G1 X122.16 Y116.584 E3.55136
G1 X122.841 Y115.407 E3.6192
G1 X122.936 Y115.208 E3.6302
G1 X123.476 Y113.802 E3.70534
G1 X123.514 Y113.687 E3.71138
G1 X123.923 Y112.267 E3.78511
G1 X123.977 Y111.931 E3.80209
G1 X124.033 Y110.402 E3.87842
G1 X124.07 Y108.91 E3.95288
G1 X124.05 Y108.639 E3.96644
G1 X123.819 Y107.29 E4.03472
G1 X123.774 Y107.104 E4.04426
G1 X123.372 Y105.833 E4.11077
G1 X123.334 Y105.728 E4.11634
G1 X122.798 Y104.406 E4.18751
G1 X122.87 Y104.185 E4.19911
G1 X123.106 Y104.013 E4.21368
G1 X123.302 Y104.013 E4.22346
G1 X123.736 Y104.414 E4.25294
G1 X124.221 Y105.564 E4.3152
G1 X124.801 Y107.381 E4.41036
G1 X125.056 Y108.73 E4.47885
G1 X125.124 Y109.839 E4.53429
G1 X125.073 Y111.004 E4.59246
G1 X124.892 Y112.19 E4.65232
G1 X124.544 Y113.421 E4.71614
G1 X124.009 Y115.05 E4.80168
G1 X123.329 Y116.449 E4.87929
G1 X122.588 Y117.563 E4.94604
G1 X121.639 Y118.472 E5.0116
G1 X120.416 Y119.69 E5.09771
G1 X119.48 Y120.362 E5.1552
G1 X117.994 Y121.328 E5.24362
G1 X116.735 Y121.728 E5.30953
G1 X116.589 Y121.783 E5.31731
G1 X115.609 Y122.22 E5.37084
G1 X114.243 Y122.39 E5.43952
G1 X112.031 Y122.539 E5.55013
G1 X110.766 Y122.48 E5.61331
G1 X109.601 Y122.297 E5.67214
G1 X108.518 Y122.003 E5.72813
G1 X107.275 Y121.502 E5.79499
G1 X106.619 Y121.407 E5.82806
G1 X105.992 Y121.625 E5.86118
G1 X105.655 Y121.931 E5.88389
G1 X104.704 Y123.13 E5.96024
G1 X104.647 Y123.208 E5.96506
G1 X103.792 Y124.454 E6.04045
G1 X103.037 Y125.29 E6.09665
G1 X102.015 Y126.175 E6.1641
G1 X100.994 Y126.888 E6.22622
G1 X99.881 Y127.626 E6.29285
G1 X98.825 Y127.944 E6.34787
G1 X98.579 Y128.044 E6.36112
G1 X97.693 Y128.508 E6.41102
G1 X96.465 Y128.706 E6.47307
G1 X95.308 Y128.904 E6.53164
G1 X94.685 Y128.904 E6.56272
G1 X94.449 Y128.732 E6.57729
G1 X94.359 Y128.458 E6.59167
G1 X94.43 Y128.24 E6.60311
G1 X94.846 Y127.983 E6.62751
G1 X95.869 Y127.908 E6.67868
G1 X96.089 Y127.874 E6.68979
G1 X97.57 Y127.524 E6.76571
G1 X97.831 Y127.435 E6.77947
G1 X99.075 Y126.865 E6.84774
G1 X99.145 Y126.83 E6.85164
G1 X100.567 Y126.08 E6.93185
G1 X100.756 Y125.96 E6.94302
G1 X101.96 Y125.053 E7.01822
G1 X102.191 Y124.835 E7.03407
G1 X103.108 Y123.742 E7.10525
G1 X103.183 Y123.643 E7.11144
G1 X104.125 Y122.293 E7.19357
G1 X104.204 Y122.167 E7.20099
G1 X105.076 Y120.581 E7.29129
G1 X105.189 Y120.311 E7.30589
M205 X10 Y10
G0 F6000 X104.806 Y120.195
M205 X8 Y8
G1 F1200 X105.077 Y119.299 E7.35259
G1 X105.513 Y118.981 E7.37952
G1 X106.005 Y118.981 E7.40406
G1 X106.764 Y119.658 E7.4548
G1 X107.062 Y119.842 E7.47228
G1 X108.341 Y120.348 E7.5409
G1 X108.402 Y120.37 E7.54413
G1 X109.721 Y120.796 E7.61329
G1 X109.831 Y120.824 E7.61895
G1 X111.192 Y121.098 E7.68821
G1 X111.303 Y121.114 E7.69381
G1 X112.628 Y121.228 E7.76016
G1 X112.791 Y121.229 E7.76829
G1 X114.593 Y121.09 E7.85846
G1 X114.784 Y121.057 E7.86813
G1 X116.286 Y120.64 E7.9459
G1 X116.501 Y120.551 E7.95751
G1 X117.908 Y119.774 E8.03769
G1 X119.226 Y119 E8.11395
G1 X119.37 Y118.898 E8.12275
G1 X120.664 Y117.791 E8.20771
G1 X120.79 Y117.662 E8.21671
G1 X121.724 Y116.514 E8.29054
G1 X121.814 Y116.384 E8.29843
G1 X122.495 Y115.207 E8.36627
G1 X122.563 Y115.065 E8.37413
G1 X123.103 Y113.659 E8.44927
G1 X123.13 Y113.577 E8.45358
G1 X123.539 Y112.157 E8.5273
G1 X123.577 Y111.916 E8.53947
G1 X123.633 Y110.392 E8.61556
G1 X123.67 Y108.9 E8.69001
G1 X123.656 Y108.706 E8.69972
G1 X123.425 Y107.357 E8.768
G1 X123.392 Y107.224 E8.77484
G1 X122.99 Y105.953 E8.84134
G1 X122.964 Y105.879 E8.84526
G1 X122.372 Y104.421 E8.92376
G1 X122.53 Y103.937 E8.94916
G1 X122.975 Y103.613 E8.97663
G1 X123.458 Y103.613 E9.00072
G1 X124.07 Y104.178 E9.04228
G1 X124.597 Y105.428 E9.10996
G1 X125.189 Y107.279 E9.20691
G1 X125.453 Y108.68 E9.27804
G1 X125.525 Y109.847 E9.33637
G1 X125.472 Y111.046 E9.39625
G1 X125.285 Y112.271 E9.45807
G1 X124.929 Y113.528 E9.52325
G1 X124.379 Y115.204 E9.61125
G1 X123.679 Y116.644 E9.69113
G1 X122.896 Y117.821 E9.76166
G1 X121.921 Y118.756 E9.82906
G1 X120.678 Y119.995 E9.91662
G1 X119.694 Y120.7 E9.97701
G1 X118.17 Y121.691 E10.0677
G1 X116.856 Y122.109 E10.13649
G1 X116.752 Y122.149 E10.14205
G1 X115.72 Y122.609 E10.19842
G1 X114.283 Y122.788 E10.27067
G1 X112.04 Y122.939 E10.38283
G1 X110.722 Y122.878 E10.44865
G1 X109.518 Y122.688 E10.50946
G1 X108.391 Y122.383 E10.56771
G1 X107.126 Y121.873 E10.63576
G1 X106.57 Y121.818 E10.66363
G1 X106.071 Y122.069 E10.6915
G1 X105.969 Y122.18 E10.69902
G1 X104.976 Y123.434 E10.77882
G1 X104.1 Y124.712 E10.85612
G1 X103.319 Y125.576 E10.91423
G1 X102.265 Y126.488 E10.98377
G1 X101.225 Y127.214 E11.04704
G1 X100.052 Y127.992 E11.11727
G1 X98.94 Y128.327 E11.17521
G1 X98.765 Y128.398 E11.18463
G1 X97.82 Y128.893 E11.23785
G1 X96.532 Y129.1 E11.30293
G1 X95.34 Y129.304 E11.36327
G1 X94.554 Y129.304 E11.40248
G1 X94.109 Y128.98 E11.42994
G1 X93.939 Y128.458 E11.45733
G1 X94.096 Y127.976 E11.48262
G1 X94.718 Y127.591 E11.51912
G1 X95.84 Y127.509 E11.57525
G1 X95.997 Y127.485 E11.58317
G1 X97.478 Y127.135 E11.65909
G1 X97.665 Y127.071 E11.66895
G1 X98.959 Y126.477 E11.73999
G1 X100.381 Y125.727 E11.82019
G1 X100.516 Y125.641 E11.82818
G1 X101.72 Y124.734 E11.90338
G1 X101.884 Y124.578 E11.91468
G1 X102.801 Y123.485 E11.98586
G1 X102.855 Y123.414 E11.99031
G1 X103.797 Y122.064 E12.07243
G1 X103.853 Y121.974 E12.07772
G1 X104.725 Y120.388 E12.16802
G1 X104.806 Y120.195 E12.17846
M205 X10 Y10
G0 F6000 X104.423 Y120.08
M205 X8 Y8
G1 F1200 X104.733 Y119.054 E12.23193
G1 X105.383 Y118.581 E12.27204
G1 X106.157 Y118.581 E12.31066
G1 X107.031 Y119.36 E12.36907
G1 X107.209 Y119.47 E12.37951
G1 X108.488 Y119.976 E12.44813
G1 X109.844 Y120.415 E12.51924
G1 X109.91 Y120.432 E12.52264
G1 X111.271 Y120.706 E12.5919
G1 X111.338 Y120.716 E12.59528
G1 X112.663 Y120.83 E12.66163
G1 X112.76 Y120.83 E12.66647
G1 X114.562 Y120.691 E12.75664
G1 X114.677 Y120.671 E12.76246
G1 X116.179 Y120.254 E12.84023
G1 X116.308 Y120.201 E12.84719
G1 X117.706 Y119.429 E12.92686
G1 X119.024 Y118.655 E13.00312
G1 X119.11 Y118.594 E13.00838
G1 X120.404 Y117.487 E13.09333
G1 X120.479 Y117.41 E13.0987
G1 X121.413 Y116.262 E13.17253
G1 X121.467 Y116.183 E13.17731
G1 X122.148 Y115.006 E13.24515
G1 X122.189 Y114.921 E13.24986
G1 X122.729 Y113.515 E13.325
G1 X122.746 Y113.466 E13.32758
G1 X123.155 Y112.046 E13.40131
G1 X123.178 Y111.902 E13.40858
G1 X123.233 Y110.382 E13.48447
G1 X123.27 Y108.89 E13.55893
G1 X123.261 Y108.774 E13.56473
G1 X123.03 Y107.425 E13.63301
G1 X123.011 Y107.345 E13.63711
G1 X122.609 Y106.074 E13.70362
G1 X122.593 Y106.029 E13.706
G1 X121.946 Y104.436 E13.79178
G1 X122.189 Y103.691 E13.83088
G1 X122.845 Y103.213 E13.87137
G1 X123.614 Y103.213 E13.90974
G1 X124.406 Y103.943 E13.96348
G1 X124.972 Y105.289 E14.03632
G1 X125.578 Y107.184 E14.13558
G1 X125.85 Y108.629 E14.20894
G1 X125.925 Y109.85 E14.26997
G1 X125.872 Y111.077 E14.33124
G1 X125.675 Y112.36 E14.396
G1 X125.314 Y113.638 E14.46226
G1 X124.752 Y115.35 E14.55215
G1 X124.024 Y116.848 E14.63525
G1 X123.205 Y118.08 E14.70905
G1 X122.204 Y119.039 E14.77821
G1 X120.939 Y120.3 E14.86733
G1 X119.924 Y121.028 E14.92964
G1 X118.342 Y122.056 E15.02377
G1 X116.977 Y122.49 E15.09523
G1 X116.915 Y122.514 E15.09855
G1 X115.827 Y122.999 E15.15797
G1 X114.325 Y123.186 E15.23349
G1 X112.039 Y123.34 E15.3478
G1 X110.687 Y123.277 E15.41532
G1 X109.432 Y123.08 E15.4787
G1 X108.262 Y122.762 E15.53919
G1 X106.976 Y122.244 E15.60836
G1 X106.547 Y122.237 E15.62976
G1 X106.282 Y122.428 E15.64606
G1 X105.331 Y123.627 E15.72241
G1 X104.417 Y124.957 E15.80292
G1 X103.604 Y125.857 E15.86343
G1 X102.505 Y126.808 E15.93594
G1 X101.452 Y127.544 E16.00003
G1 X100.225 Y128.358 E16.07349
G1 X99.056 Y128.71 E16.1344
G1 X98.951 Y128.753 E16.14006
G1 X97.95 Y129.277 E16.19643
G1 X96.6 Y129.495 E16.26466
G1 X95.379 Y129.704 E16.32646
G1 X94.424 Y129.704 E16.3741
G1 X93.768 Y129.226 E16.4146
G1 X93.518 Y128.458 E16.45489
G1 X93.76 Y127.714 E16.49392
G1 X94.592 Y127.199 E16.54274
G1 X95.811 Y127.11 E16.60372
G1 X95.905 Y127.096 E16.60846
G1 X97.386 Y126.746 E16.68438
G1 X97.498 Y126.707 E16.6903
G1 X98.772 Y126.123 E16.76022
G1 X100.194 Y125.373 E16.84043
G1 X100.275 Y125.321 E16.84523
G1 X101.479 Y124.414 E16.92043
G1 X101.578 Y124.321 E16.92721
G1 X102.495 Y123.228 E16.99839
G1 X102.527 Y123.185 E17.00106
G1 X103.469 Y121.835 E17.08319
G1 X103.503 Y121.781 E17.08638
G1 X104.375 Y120.195 E17.17667
G1 X104.423 Y120.08 E17.18289
M205 X10 Y10
G0 F6000 X104.04 Y119.964
M205 X8 Y8
G1 F1200 X104.388 Y118.811 E17.24298
G1 X105.254 Y118.181 E17.2964
G1 X106.31 Y118.181 E17.34909
G1 X107.297 Y119.061 E17.41506
G1 X107.356 Y119.098 E17.41853
G1 X108.648 Y119.608 E17.48783
G1 X109.989 Y120.04 E17.55812
G1 X111.372 Y120.317 E17.62849
G1 X112.697 Y120.431 E17.69484
G1 X112.729 Y120.431 E17.69643
G1 X114.531 Y120.292 E17.7866
G1 X114.57 Y120.286 E17.78857
G1 X116.072 Y119.869 E17.86634
G1 X116.115 Y119.851 E17.86867
G1 X117.503 Y119.084 E17.94778
G1 X118.821 Y118.31 E18.02404
G1 X118.85 Y118.29 E18.0258
G1 X120.144 Y117.183 E18.11076
G1 X120.169 Y117.157 E18.11255
G1 X121.103 Y116.009 E18.18639
G1 X121.121 Y115.983 E18.18797
G1 X121.802 Y114.806 E18.25581
G1 X121.816 Y114.778 E18.25737
G1 X122.361 Y113.355 E18.33339
G1 X122.77 Y111.935 E18.40712
G1 X122.778 Y111.887 E18.40955
G1 X122.833 Y110.372 E18.48518
G1 X122.87 Y108.88 E18.55964
G1 X122.867 Y108.841 E18.56159
G1 X122.636 Y107.492 E18.62987
G1 X122.63 Y107.466 E18.6312
G1 X122.222 Y106.18 E18.69851
G1 X121.521 Y104.452 E18.79155
G1 X121.849 Y103.444 E18.84443
G1 X122.716 Y102.813 E18.89793
G1 X123.77 Y102.813 E18.95051
G1 X124.741 Y103.708 E19.0164
G1 X125.347 Y105.147 E19.09429
G1 X125.966 Y107.085 E19.19579
G1 X126.248 Y108.578 E19.2716
G1 X126.325 Y109.842 E19.33477
G1 X126.269 Y111.119 E19.39855
G1 X126.066 Y112.449 E19.46567
G1 X125.694 Y113.763 E19.5338
G1 X125.123 Y115.502 E19.62512
G1 X124.374 Y117.043 E19.7106
G1 X123.512 Y118.341 E19.78833
G1 X122.486 Y119.322 E19.85915
G1 X121.196 Y120.607 E19.94999
G1 X120.149 Y121.358 E20.01428
G1 X118.514 Y122.421 E20.11157
G1 X117.098 Y122.871 E20.1857
G1 X115.935 Y123.389 E20.24922
G1 X114.356 Y123.585 E20.3286
G1 X112.047 Y123.74 E20.44405
G1 X110.643 Y123.675 E20.51417
G1 X109.347 Y123.471 E20.57963
G1 X108.136 Y123.143 E20.64222
G1 X106.827 Y122.615 E20.71264
G1 X106.595 Y122.677 E20.72462
G1 X105.636 Y123.887 E20.80165
G1 X104.731 Y125.206 E20.88145
G1 X103.881 Y126.147 E20.94472
G1 X102.755 Y127.122 E21.01903
G1 X101.681 Y127.872 E21.08438
G1 X100.396 Y128.724 E21.1613
G1 X99.171 Y129.093 E21.22513
G1 X99.136 Y129.107 E21.22701
G1 X98.076 Y129.662 E21.2867
G1 X96.667 Y129.889 E21.35791
G1 X95.411 Y130.104 E21.42148
G1 X94.295 Y130.104 E21.47716
G1 X93.428 Y129.473 E21.53066
G1 X93.097 Y128.458 E21.58392
G1 X93.425 Y127.45 E21.6368
G1 X94.465 Y126.807 E21.69781
G1 X95.782 Y126.711 E21.76368
G1 X95.813 Y126.707 E21.76524
G1 X97.294 Y126.357 E21.84117
G1 X97.331 Y126.344 E21.84312
G1 X98.585 Y125.769 E21.91195
G1 X100.007 Y125.019 E21.99216
G1 X100.034 Y125.002 E21.99375
G1 X101.238 Y124.095 E22.06895
G1 X101.271 Y124.064 E22.07121
G1 X102.199 Y122.956 E22.14332
G1 X103.152 Y121.588 E22.22649
G1 X104.024 Y120.002 E22.31679
G1 X104.04 Y119.964 E22.31885
M205 X10 Y10
G1 F1500 E16.31885
G1 F600 Z0.375
G0 F6000 X101.642 Y108.096 Z0.375
M205 X8 Y8
G1 F600 Z0.3
G1 F1500 E22.31885
G1 F1200 X100.571 Y108.096 E22.37228
G1 X99.522 Y107.391 E22.43534
G1 X99.49 Y107.373 E22.43717
G1 X98.193 Y106.811 E22.50769
G1 X96.478 Y106.281 E22.59724
G1 X96.452 Y106.275 E22.59858
G1 X94.877 Y106.009 E22.67827
G1 X94.849 Y106.006 E22.67967
G1 X93.179 Y105.968 E22.76301
G1 X93.136 Y105.972 E22.76516
G1 X91.665 Y106.256 E22.83991
G1 X91.629 Y106.266 E22.84177
G1 X90.408 Y106.755 E22.90739
G1 X88.863 Y107.476 E22.99245
G1 X87.662 Y108.237 E23.06338
G1 X86.419 Y108.347 E23.12564
G1 X85.56 Y107.722 E23.17864
G1 X85.229 Y106.707 E23.2319
G1 X85.56 Y105.692 E23.28517
G1 X86.648 Y104.902 E23.35225
G1 X87.871 Y104.127 E23.42448
G1 X89.36 Y103.433 E23.50644
G1 X90.683 Y103.111 E23.57437
G1 X92.494 Y102.783 E23.66619
