;FLAVOR:Marlin
;TIME:888
;Filament used: 0.592781m
;Layer height: 0.2
;MINX:98.665
;MINY:100.723
;MINZ:0.3
;MAXX:126.307
;MAXY:123.741
;MAXZ:13.175
;Generated with Cura_SteamEngine 4.13.1
M140 S60
M105
M190 S60
M104 S200
M105
M109 S200
M82 ;absolute extrusion mode
G21                                        ; metric values
G90                                        ; absolute positioning
M82                                        ; set extruder to absolute mode
M107                                       ; start with the fan off
M190 S60                                   ; preheat and wait for bed
M109 S210                                  ; preheat and wait for hotend
M300 S1000 P500                            ; BEEP heating done
G28 X0 Y10 Z0                              ; move X/Y to min endstops
M420 S1                                    ; enable mesh leveling
G0 Z0.15                                   ; lift nozzle a bit
G0 X2                                      ; move away from clips
G92 E0                                     ; zero the extruded length
G1 Y50 E25 F500                            ; Extrude 25mm of filament in a 5cm line.
G92 E0                                     ; zero the extruded length again
G1 E-2 F500                                ; Retract a little
G1 Y120 F4000                              ; Quickly wipe away from the filament line
G92 E0
G92 E0
G1 F1500 E-6
;LAYER_COUNT:65
;LAYER:0
M106 S76.5
M205 X10 Y10
G1 F600 Z0.375
G0 F6000 X100.637 Y107.609 Z0.375
M205 X8 Y8
;TYPE:SKIRT
G1 F600 Z0.3
G1 F1500 E0
G1 F1200 X100.688 Y107.803 E0.01001
G1 X100.476 Y108.872 E0.06438
G1 X100.447 Y109.361 E0.08882
G1 X100.58 Y111.081 E0.17489
G1 X100.592 Y111.186 E0.18016
G1 X100.784 Y112.59 E0.25086
G1 X100.835 Y112.836 E0.26339
G1 X101.238 Y114.261 E0.33727
G1 X101.385 Y114.625 E0.35686
G1 X102.061 Y115.877 E0.42784
G1 X102.838 Y117.238 E0.50603
G1 X103.06 Y117.547 E0.52501
G1 X103.982 Y118.577 E0.59398
G1 X104.21 Y118.791 E0.60958
G1 X105.466 Y119.779 E0.68931
G1 X105.613 Y119.883 E0.69829
G1 X106.349 Y120.352 E0.74183
G1 X105.509 Y119.907 E0.78925
G1 X104.632 Y119.212 E0.84508
G1 X103.401 Y118.16 E0.92587
G1 X102.621 Y117.212 E0.98712
G1 X101.953 Y116.049 E1.05403
G1 X101.365 Y114.857 E1.12034
G1 X100.735 Y113.114 E1.2128
G1 X100.454 Y112.001 E1.27007
G1 X100.291 Y110.808 E1.33015
G1 X100.268 Y109.657 E1.38758
G1 X100.475 Y108.257 E1.45819
G1 X100.637 Y107.609 E1.49151
M205 X10 Y10
G0 F6000 X100.976 Y107.323
M205 X8 Y8
G1 F1200 X101.098 Y107.791 E1.51564
G1 X100.869 Y108.95 E1.57458
G1 X100.846 Y109.33 E1.59357
G1 X100.979 Y111.05 E1.67964
G1 X100.988 Y111.132 E1.68376
G1 X101.18 Y112.536 E1.75445
G1 X101.22 Y112.727 E1.76419
G1 X101.623 Y114.152 E1.83807
G1 X101.737 Y114.435 E1.85329
G1 X102.408 Y115.679 E1.92381
G1 X103.185 Y117.04 E2.002
G1 X103.358 Y117.28 E2.01676
G1 X104.28 Y118.31 E2.08572
G1 X104.457 Y118.476 E2.09783
G1 X105.713 Y119.464 E2.17755
G1 X105.827 Y119.545 E2.18453
G1 X107.304 Y120.485 E2.27188
G1 X107.561 Y120.614 E2.28622
G1 X108.958 Y121.142 E2.36073
G1 X109.248 Y121.217 E2.37568
G1 X111.082 Y121.488 E2.46817
G1 X111.172 Y121.498 E2.47269
G1 X112.833 Y121.635 E2.55584
G1 X113.08 Y121.634 E2.56816
G1 X114.479 Y121.502 E2.63826
G1 X114.685 Y121.467 E2.64869
G1 X115.933 Y121.157 E2.71284
G1 X116.214 Y121.054 E2.72778
G1 X117.751 Y120.296 E2.81327
G1 X118.931 Y119.706 E2.87909
G1 X119.202 Y119.529 E2.89524
G1 X120.494 Y118.45 E2.97922
G1 X120.697 Y118.241 E2.99376
G1 X121.533 Y117.179 E3.06119
G1 X121.585 Y117.109 E3.06554
G1 X122.411 Y115.913 E3.13806
G1 X122.501 Y115.764 E3.14674
G1 X123.219 Y114.386 E3.22426
G1 X123.311 Y114.163 E3.2363
G1 X123.721 Y112.872 E3.30387
G1 X123.773 Y112.646 E3.31544
G1 X123.982 Y111.185 E3.38908
G1 X123.996 Y111.019 E3.39739
G1 X124.028 Y109.604 E3.468
G1 X124.022 Y109.44 E3.47619
G1 X123.887 Y108.016 E3.54755
G1 X123.861 Y107.85 E3.55593
G1 X123.545 Y106.402 E3.62987
G1 X123.488 Y106.208 E3.63996
G1 X122.948 Y104.769 E3.71664
G1 X123.027 Y104.528 E3.72929
G1 X123.263 Y104.356 E3.74386
G1 X123.432 Y104.356 E3.7523
G1 X123.891 Y104.807 E3.7844
G1 X124.576 Y106.642 E3.88212
G1 X124.911 Y107.925 E3.94827
G1 X125.082 Y109.189 E4.01191
G1 X125.105 Y110.448 E4.07473
G1 X124.979 Y111.685 E4.13676
G1 X124.643 Y112.925 E4.20086
G1 X124.172 Y114.611 E4.2882
G1 X123.588 Y116.01 E4.36383
G1 X122.944 Y117.1 E4.42699
G1 X121.859 Y118.292 E4.50741
G1 X120.582 Y119.559 E4.59715
G1 X119.311 Y120.552 E4.67762
G1 X118.291 Y121.196 E4.73781
G1 X117.138 Y121.749 E4.8016
G1 X116.008 Y122.14 E4.86126
G1 X114.768 Y122.408 E4.92455
G1 X113.477 Y122.471 E4.98904
G1 X112.266 Y122.539 E5.04955
G1 X111.087 Y122.459 E5.1085
G1 X109.537 Y122.277 E5.18636
G1 X108.455 Y121.972 E5.24245
G1 X107.17 Y121.239 E5.31625
G1 X105.287 Y120.242 E5.42255
G1 X104.407 Y119.545 E5.47856
G1 X103.112 Y118.438 E5.56356
G1 X102.29 Y117.44 E5.62806
G1 X101.605 Y116.247 E5.69669
G1 X100.995 Y115.01 E5.7655
G1 X100.351 Y113.228 E5.86004
G1 X100.062 Y112.081 E5.91905
G1 X99.891 Y110.836 E5.98174
G1 X99.867 Y109.631 E6.04187
G1 X100.081 Y108.182 E6.11495
G1 X100.298 Y107.318 E6.15939
G1 X100.49 Y107.178 E6.17125
G1 X100.776 Y107.178 E6.18552
G1 X100.976 Y107.323 E6.19784
M205 X10 Y10
G0 F6000 X101.326 Y107.084
M205 X8 Y8
G1 F1200 X101.508 Y107.778 E6.23364
G1 X101.261 Y109.028 E6.2972
G1 X101.245 Y109.299 E6.31075
G1 X101.378 Y111.019 E6.39682
G1 X101.384 Y111.077 E6.39972
G1 X101.576 Y112.481 E6.47042
G1 X101.605 Y112.618 E6.47741
G1 X102.008 Y114.043 E6.55129
G1 X102.09 Y114.245 E6.56217
G1 X102.756 Y115.481 E6.63221
G1 X103.533 Y116.842 E6.7104
G1 X103.656 Y117.013 E6.72091
G1 X104.578 Y118.043 E6.78988
G1 X104.705 Y118.162 E6.79856
G1 X105.961 Y119.15 E6.87829
G1 X106.042 Y119.208 E6.88326
G1 X107.519 Y120.148 E6.9706
G1 X107.702 Y120.239 E6.9808
G1 X109.099 Y120.767 E7.05531
G1 X109.307 Y120.821 E7.06603
G1 X111.205 Y121.1 E7.16174
G1 X112.866 Y121.237 E7.24489
G1 X113.042 Y121.236 E7.25367
G1 X114.441 Y121.104 E7.32377
G1 X114.588 Y121.079 E7.33121
G1 X115.836 Y120.769 E7.39537
G1 X116.037 Y120.695 E7.40605
G1 X117.572 Y119.938 E7.49144
G1 X118.752 Y119.348 E7.55726
G1 X118.946 Y119.222 E7.5688
G1 X120.238 Y118.143 E7.65278
G1 X120.383 Y117.994 E7.66315
G1 X121.219 Y116.932 E7.73058
G1 X122.082 Y115.685 E7.80624
G1 X122.146 Y115.579 E7.81242
G1 X122.864 Y114.201 E7.88994
G1 X122.93 Y114.042 E7.89853
G1 X123.34 Y112.751 E7.96611
G1 X123.377 Y112.59 E7.97435
G1 X123.586 Y111.129 E8.04798
G1 X123.596 Y111.01 E8.05394
G1 X123.628 Y109.595 E8.12455
G1 X123.624 Y109.478 E8.13039
G1 X123.489 Y108.054 E8.20175
G1 X123.47 Y107.935 E8.20777
G1 X123.154 Y106.487 E8.28171
G1 X123.113 Y106.349 E8.28889
G1 X122.524 Y104.78 E8.3725
G1 X122.687 Y104.28 E8.39874
G1 X123.132 Y103.956 E8.4262
G1 X123.596 Y103.956 E8.44935
G1 X124.234 Y104.583 E8.49398
G1 X124.958 Y106.522 E8.59724
G1 X125.304 Y107.845 E8.66546
G1 X125.482 Y109.162 E8.73177
G1 X125.506 Y110.465 E8.79678
G1 X125.374 Y111.758 E8.86163
G1 X125.028 Y113.033 E8.92754
G1 X124.55 Y114.742 E9.01607
G1 X123.947 Y116.187 E9.09419
G1 X123.267 Y117.337 E9.16084
G1 X122.134 Y118.583 E9.24486
G1 X120.851 Y119.856 E9.33503
G1 X119.539 Y120.882 E9.41813
G1 X118.489 Y121.544 E9.48005
G1 X117.287 Y122.12 E9.54655
G1 X116.112 Y122.527 E9.60859
G1 X114.824 Y122.805 E9.67433
G1 X113.5 Y122.871 E9.74047
G1 X112.27 Y122.94 E9.80193
G1 X111.033 Y122.856 E9.86378
G1 X109.463 Y122.672 E9.94265
G1 X108.299 Y122.343 E10.00299
G1 X106.983 Y121.592 E10.07859
G1 X105.069 Y120.579 E10.18663
G1 X104.139 Y119.842 E10.24583
G1 X102.822 Y118.717 E10.33224
G1 X101.962 Y117.672 E10.39976
G1 X101.25 Y116.431 E10.47114
G1 X100.628 Y115.17 E10.54129
G1 X99.971 Y113.351 E10.63778
G1 X99.668 Y112.152 E10.69948
G1 X99.492 Y110.864 E10.76433
G1 X99.467 Y109.604 E10.82721
G1 X99.687 Y108.108 E10.90265
G1 X99.945 Y107.08 E10.95552
G1 X100.359 Y106.778 E10.98109
G1 X100.907 Y106.778 E11.00843
G1 X101.326 Y107.084 E11.03432
M205 X10 Y10
G0 F6000 X101.677 Y106.844
M205 X8 Y8
G1 F1200 X101.919 Y107.764 E11.08178
G1 X101.653 Y109.105 E11.14998
G1 X101.644 Y109.268 E11.15813
G1 X101.781 Y111.023 E11.24595
G1 X101.973 Y112.427 E11.31665
G1 X101.99 Y112.509 E11.32083
G1 X102.393 Y113.934 E11.39471
G1 X102.442 Y114.056 E11.40127
G1 X103.103 Y115.282 E11.47076
G1 X103.88 Y116.643 E11.54894
G1 X103.954 Y116.746 E11.55527
G1 X104.876 Y117.776 E11.62424
G1 X104.952 Y117.848 E11.62946
G1 X106.208 Y118.836 E11.70919
G1 X106.257 Y118.87 E11.71216
G1 X107.734 Y119.81 E11.79951
G1 X107.844 Y119.865 E11.80564
G1 X109.241 Y120.393 E11.88015
G1 X109.365 Y120.426 E11.88655
G1 X111.199 Y120.697 E11.97905
G1 X112.899 Y120.838 E12.06415
G1 X113.004 Y120.837 E12.06939
G1 X114.403 Y120.705 E12.13949
G1 X114.492 Y120.69 E12.144
G1 X115.74 Y120.38 E12.20815
G1 X115.86 Y120.336 E12.21453
G1 X117.393 Y119.581 E12.29978
G1 X118.573 Y118.991 E12.3656
G1 X118.69 Y118.915 E12.37256
G1 X119.982 Y117.836 E12.45654
G1 X120.068 Y117.746 E12.46275
G1 X120.927 Y116.654 E12.53207
G1 X121.753 Y115.458 E12.60459
G1 X121.791 Y115.394 E12.6083
G1 X122.509 Y114.016 E12.68582
G1 X122.549 Y113.921 E12.69096
G1 X122.959 Y112.63 E12.75854
G1 X122.981 Y112.533 E12.7635
G1 X123.19 Y111.072 E12.83713
G1 X123.196 Y111.001 E12.84069
G1 X123.228 Y109.586 E12.9113
G1 X123.225 Y109.515 E12.91485
G1 X123.09 Y108.091 E12.98621
G1 X123.079 Y108.02 E12.98979
G1 X122.763 Y106.572 E13.06374
G1 X122.739 Y106.489 E13.06805
G1 X122.1 Y104.787 E13.15875
G1 X122.346 Y104.034 E13.19827
G1 X123.002 Y103.556 E13.23876
G1 X123.759 Y103.556 E13.27653
G1 X124.579 Y104.361 E13.33386
G1 X125.339 Y106.398 E13.44233
G1 X125.696 Y107.764 E13.51277
G1 X125.882 Y109.135 E13.58179
G1 X125.906 Y110.481 E13.64896
G1 X125.769 Y111.831 E13.71665
G1 X125.413 Y113.14 E13.78433
G1 X124.928 Y114.875 E13.87421
G1 X124.305 Y116.367 E13.95487
G1 X123.591 Y117.576 E14.02492
G1 X122.429 Y118.853 E14.11106
G1 X121.111 Y120.161 E14.2037
G1 X119.775 Y121.205 E14.28829
G1 X118.677 Y121.897 E14.35304
G1 X117.442 Y122.49 E14.42139
G1 X116.222 Y122.912 E14.4858
G1 X114.873 Y123.203 E14.55465
G1 X113.522 Y123.27 E14.62213
G1 X112.265 Y123.341 E14.68494
G1 X111.001 Y123.255 E14.74815
G1 X109.382 Y123.065 E14.82948
G1 X108.145 Y122.716 E14.8936
G1 X106.796 Y121.946 E14.97109
G1 X104.85 Y120.916 E15.08094
G1 X103.886 Y120.153 E15.14228
G1 X102.536 Y118.998 E15.23092
G1 X101.632 Y117.9 E15.30187
G1 X100.895 Y116.616 E15.37573
G1 X100.257 Y115.323 E15.44767
G1 X99.589 Y113.474 E15.54575
G1 X99.273 Y112.225 E15.61003
G1 X99.092 Y110.901 E15.6767
G1 X99.066 Y109.583 E15.74246
G1 X99.297 Y108.02 E15.82129
G1 X99.592 Y106.842 E15.88187
G1 X100.229 Y106.378 E15.92119
G1 X101.037 Y106.378 E15.9615
G1 X101.677 Y106.844 E16.001
M205 X10 Y10
G0 F6000 X102.329 Y107.753
M205 X8 Y8
G1 F1200 X102.046 Y109.183 E16.07373
G1 X102.043 Y109.237 E16.07642
G1 X102.177 Y110.969 E16.16309
G1 X102.369 Y112.373 E16.23379
G1 X102.375 Y112.4 E16.23517
G1 X102.778 Y113.825 E16.30905
G1 X102.794 Y113.866 E16.31125
G1 X103.45 Y115.084 E16.38027
G1 X104.227 Y116.445 E16.45845
G1 X104.252 Y116.479 E16.46056
G1 X105.174 Y117.509 E16.52953
G1 X105.199 Y117.533 E16.53126
G1 X106.472 Y118.533 E16.61202
G1 X107.949 Y119.473 E16.69936
G1 X107.985 Y119.491 E16.70137
G1 X109.382 Y120.019 E16.77588
G1 X109.424 Y120.03 E16.77805
G1 X111.271 Y120.302 E16.87119
G1 X112.932 Y120.439 E16.95434
G1 X112.967 Y120.439 E16.95608
G1 X114.366 Y120.307 E17.02619
G1 X114.395 Y120.302 E17.02766
G1 X115.643 Y119.992 E17.09181
G1 X115.683 Y119.977 E17.09394
G1 X117.214 Y119.223 E17.17909
G1 X118.394 Y118.633 E17.24491
G1 X118.433 Y118.608 E17.24722
G1 X119.725 Y117.529 E17.3312
G1 X119.754 Y117.499 E17.33328
G1 X120.598 Y116.427 E17.40135
G1 X121.424 Y115.231 E17.47386
G1 X122.154 Y113.831 E17.55263
G1 X122.168 Y113.8 E17.55433
G1 X122.578 Y112.509 E17.62191
G1 X122.585 Y112.476 E17.62359
G1 X122.796 Y110.992 E17.69837
G1 X122.828 Y109.577 E17.76899
G1 X122.692 Y108.129 E17.84155
G1 X122.372 Y106.657 E17.9167
G1 X122.364 Y106.63 E17.9181
G1 X121.677 Y104.798 E18.01572
G1 X122.006 Y103.787 E18.06876
G1 X122.873 Y103.156 E18.12226
G1 X123.923 Y103.156 E18.17464
G1 X124.923 Y104.138 E18.24457
G1 X125.72 Y106.274 E18.35831
G1 X126.09 Y107.691 E18.43137
G1 X126.281 Y109.101 E18.50236
G1 X126.307 Y110.498 E18.57207
G1 X126.164 Y111.904 E18.64258
G1 X125.798 Y113.248 E18.71207
G1 X125.306 Y115.006 E18.80315
G1 X124.662 Y116.55 E18.88661
G1 X123.915 Y117.814 E18.95986
G1 X122.714 Y119.133 E19.04886
G1 X121.379 Y120.459 E19.14273
G1 X120 Y121.536 E19.23003
G1 X118.871 Y122.248 E19.29662
G1 X117.596 Y122.86 E19.36718
G1 X116.329 Y123.298 E19.43406
G1 X114.93 Y123.601 E19.50547
G1 X113.545 Y123.669 E19.57465
G1 X112.261 Y123.741 E19.63881
G1 X110.966 Y123.653 E19.70357
G1 X109.302 Y123.458 E19.78716
G1 X107.99 Y123.088 E19.85517
G1 X106.609 Y122.299 E19.93452
G1 X104.628 Y121.251 E20.04633
G1 X103.629 Y120.459 E20.10993
G1 X102.25 Y119.28 E20.20045
G1 X101.302 Y118.128 E20.27488
G1 X100.539 Y116.8 E20.35129
G1 X99.89 Y115.483 E20.42454
G1 X99.205 Y113.588 E20.52507
G1 X98.881 Y112.306 E20.59104
G1 X98.693 Y110.928 E20.66042
G1 X98.665 Y109.556 E20.72889
G1 X98.903 Y107.95 E20.80989
G1 X99.239 Y106.605 E20.87905
G1 X100.1 Y105.978 E20.93219
G1 X101.166 Y105.978 E20.98537
G1 X102.028 Y106.606 E21.03858
G1 X102.329 Y107.753 E21.09774
M205 X10 Y10
G1 F1500 E15.09774
G1 F600 Z0.375
G0 F6000 X107.773 Y121.121 Z0.375
M205 X8 Y8
G1 F600 Z0.3
G1 F1500 E21.09774
G1 F1200 X108.817 Y121.516 E21.15343
G1 X109.19 Y121.613 E21.17266
G1 X111.024 Y121.884 E21.26515
G1 X111.139 Y121.897 E21.27092
G1 X112.8 Y122.034 E21.35407
G1 X113.117 Y122.032 E21.36989
G1 X114.516 Y121.9 E21.43999
G1 X114.781 Y121.855 E21.4534
G1 X116.029 Y121.545 E21.51756
G1 X116.391 Y121.413 E21.53678
G1 X117.93 Y120.654 E21.62239
G1 X119.11 Y120.064 E21.68821
G1 X119.459 Y119.836 E21.70901
G1 X120.751 Y118.757 E21.79299
G1 X121.011 Y118.488 E21.81166
G1 X121.847 Y117.426 E21.87909
G1 X121.914 Y117.336 E21.88468
G1 X122.74 Y116.14 E21.9572
G1 X122.855 Y115.949 E21.96832
G1 X123.573 Y114.571 E22.04584
G1 X123.693 Y114.284 E22.06136
G1 X124.103 Y112.993 E22.12894
G1 X124.169 Y112.703 E22.14378
G1 X124.378 Y111.242 E22.21741
G1 X124.396 Y111.028 E22.22813
G1 X124.428 Y109.613 E22.29874
G1 X124.42 Y109.402 E22.30927
G1 X124.285 Y107.978 E22.38064
G1 X124.252 Y107.764 E22.39144
G1 X123.936 Y106.316 E22.46538
G1 X123.862 Y106.068 E22.47829
G1 X123.429 Y104.914 E22.53978
G1 X123.548 Y105.031 E22.54811
G1 X124.191 Y106.755 E22.63991
G1 X124.517 Y108 E22.70412
G1 X124.683 Y109.224 E22.76574
G1 X124.705 Y110.432 E22.82602
G1 X124.585 Y111.612 E22.88519
G1 X124.258 Y112.817 E22.94748
G1 X123.793 Y114.48 E23.03363
G1 X123.232 Y115.824 E23.10629
G1 X122.619 Y116.861 E23.16639
G1 X121.564 Y118.021 E23.24462
G1 X120.314 Y119.262 E23.3325
G1 X119.086 Y120.22 E23.4102
G1 X118.096 Y120.845 E23.46861
G1 X116.983 Y121.379 E23.5302
G1 X115.899 Y121.754 E23.58742
G1 X114.719 Y122.009 E23.64765
G1 X113.455 Y122.072 E23.71079
G1 X112.271 Y122.139 E23.76996
G1 X111.119 Y122.06 E23.82757
G1 X109.617 Y121.884 E23.90301
G1 X108.612 Y121.6 E23.95512
G1 X107.773 Y121.121 E24.00332
M205 X10 Y10
G1 F1500 E18.00332
G1 F600 Z0.375
;MESH:frm-spulhuelse-M8x13.stl
G0 F6000 X111.595 Y115.075 Z0.375
M205 X8 Y8
;TYPE:WALL-INNER
G1 F600 Z0.3
G1 F1500 E24.00332
G1 F1200 X112.491 Y115.155 E24.0482
G1 X113.386 Y115.075 E24.09303
G1 X114.253 Y114.843 E24.1378
G1 X115.068 Y114.464 E24.18264
G1 X115.803 Y113.949 E24.22742
G1 X116.44 Y113.313 E24.27233
G1 X116.955 Y112.576 E24.31718
G1 X117.333 Y111.762 E24.36196
G1 X117.566 Y110.896 E24.4067
G1 X117.646 Y110 E24.45158
G1 X117.566 Y109.104 E24.49646
G1 X117.333 Y108.238 E24.5412
G1 X116.955 Y107.424 E24.58598
G1 X116.44 Y106.687 E24.63083
G1 X115.803 Y106.051 E24.67574
G1 X115.068 Y105.536 E24.72052
G1 X114.253 Y105.157 E24.76536
G1 X113.386 Y104.925 E24.81014
G1 X112.491 Y104.845 E24.85497
G1 X111.595 Y104.925 E24.89985
G1 X110.728 Y105.157 E24.94462
G1 X109.914 Y105.536 E24.98942
G1 X109.178 Y106.051 E25.03423
G1 X108.542 Y106.687 E25.07911
G1 X108.027 Y107.423 E25.12392
