;FLAVOR:Marlin
;TIME:666
;Filament used: 0.316416m
;Layer height: 0.2
;MINX:106.703
;MINY:104.203
;MINZ:0.3
;MAXX:118.29
;MAXY:115.797
;MAXZ:13.1
;Generated with Cura_SteamEngine 4.13.1
M140 S60
M105
M190 S60
M104 S200
M105
M109 S200
M82 ;absolute extrusion mode
G21                                        ; metric values
G90                                        ; absolute positioning
M82                                        ; set extruder to absolute mode
M107                                       ; start with the fan off
M190 S60                                   ; preheat and wait for bed
M109 S210                                  ; preheat and wait for hotend
M300 S1000 P500                            ; BEEP heating done
G28 X0 Y10 Z0                              ; move X/Y to min endstops
M420 S1                                    ; enable mesh leveling
G0 Z0.15                                   ; lift nozzle a bit
G0 X2                                      ; move away from clips
G92 E0                                     ; zero the extruded length
G1 Y50 E25 F500                            ; Extrude 25mm of filament in a 5cm line.
G92 E0                                     ; zero the extruded length again
G1 E-2 F500                                ; Retract a little
G1 Y120 F4000                              ; Quickly wipe away from the filament line
G92 E0
G92 E0
G1 F1500 E-6
;LAYER_COUNT:65
;LAYER:0
M106 S76.5
M205 X10 Y10
G1 F600 Z0.375
;MESH:frm-huelse-M8-10x13mm.stl
G0 F6000 X113.405 Y114.714 Z0.375
M205 X8 Y8
;TYPE:WALL-INNER
G1 F600 Z0.3
G1 F1500 E0
G1 F1172.4 X114.115 Y114.519 E0.03673
G1 X114.791 Y114.214 E0.07373
G1 X115.402 Y113.818 E0.11006
G1 X115.951 Y113.329 E0.14674
G1 X116.422 Y112.756 E0.18374
G1 X116.795 Y112.131 E0.22006
G1 X117.068 Y111.449 E0.25671
G1 X117.236 Y110.733 E0.2934
G1 X117.293 Y109.993 E0.33042
G1 X117.236 Y109.266 E0.36681
G1 X117.068 Y108.551 E0.40345
G1 X116.795 Y107.869 E0.4401
G1 X116.418 Y107.238 E0.47677
G1 X115.951 Y106.671 E0.51342
G1 X115.402 Y106.181 E0.55013
G1 X114.777 Y105.778 E0.58723
G1 X114.115 Y105.48 E0.62345
G1 X113.405 Y105.286 E0.66017
G1 X112.675 Y105.202 E0.69683
G1 X111.94 Y105.23 E0.73353
G1 X111.219 Y105.37 E0.77017
G1 X110.527 Y105.618 E0.80684
G1 X109.881 Y105.97 E0.84355
G1 X109.296 Y106.415 E0.88022
G1 X108.782 Y106.952 E0.9173
G1 X108.364 Y107.547 E0.95358
G1 X108.035 Y108.212 E0.9906
G1 X107.815 Y108.906 E1.02692
G1 X107.703 Y109.632 E1.06357
G1 X107.703 Y110.368 E1.10029
G1 X107.815 Y111.094 E1.13694
G1 X108.037 Y111.795 E1.17362
G1 X108.368 Y112.46 E1.21068
G1 X108.786 Y113.055 E1.24696
G1 X109.297 Y113.586 E1.28372
G1 X109.881 Y114.03 E1.32032
G1 X110.527 Y114.382 E1.35703
G1 X111.226 Y114.631 E1.39405
G1 X111.94 Y114.77 E1.43034
G1 X112.675 Y114.798 E1.46703
G1 X113.405 Y114.714 E1.50369
M205 X10 Y10
G0 F6000 X113.329 Y114.32
M205 X8 Y8
;TYPE:WALL-OUTER
G1 F1172.4 X113.979 Y114.142 E1.53732
G1 X114.599 Y113.862 E1.57126
G1 X115.159 Y113.499 E1.60455
G1 X115.662 Y113.051 E1.63816
G1 X116.094 Y112.525 E1.67211
G1 X116.435 Y111.953 E1.70534
G1 X116.686 Y111.328 E1.73894
G1 X116.84 Y110.672 E1.77256
G1 X116.892 Y109.993 E1.80653
G1 X116.84 Y109.328 E1.83981
G1 X116.686 Y108.672 E1.87343
G1 X116.435 Y108.047 E1.90703
G1 X116.09 Y107.469 E1.94061
G1 X115.662 Y106.949 E1.97421
G1 X115.159 Y106.5 E2.00785
G1 X114.586 Y106.131 E2.04185
G1 X113.979 Y105.858 E2.07506
G1 X113.329 Y105.68 E2.10868
G1 X112.66 Y105.603 E2.14228
G1 X111.986 Y105.629 E2.17593
G1 X111.325 Y105.757 E2.20952
G1 X110.691 Y105.984 E2.24312
G1 X110.099 Y106.307 E2.27676
G1 X109.563 Y106.714 E2.31034
G1 X109.092 Y107.207 E2.34435
G1 X108.709 Y107.752 E2.37759
G1 X108.407 Y108.362 E2.41155
G1 X108.206 Y108.997 E2.44477
G1 X108.103 Y109.663 E2.4784
G1 X108.103 Y110.337 E2.51202
G1 X108.206 Y111.003 E2.54564
G1 X108.409 Y111.645 E2.57924
G1 X108.713 Y112.255 E2.61324
G1 X109.096 Y112.8 E2.64647
G1 X109.564 Y113.286 E2.68013
G1 X110.099 Y113.693 E2.71367
G1 X110.691 Y114.016 E2.74732
G1 X111.332 Y114.244 E2.78126
G1 X111.986 Y114.371 E2.8145
G1 X112.66 Y114.397 E2.84815
G1 X113.329 Y114.32 E2.88174
M205 X10 Y10
G0 F6000 X113.522 Y114.268
G0 X113.637 Y114.692
G0 X113.345 Y115.33
M205 X8 Y8
;TYPE:WALL-INNER
G1 F1172.4 X112.66 Y115.396 E2.91608
G1 X111.967 Y115.373 E2.95067
G1 X111.292 Y115.265 E2.98477
G1 X110.623 Y115.065 E3.01961
G1 X109.991 Y114.785 E3.0541
G1 X109.401 Y114.428 E3.0885
G1 X108.86 Y113.995 E3.12307
G1 X108.376 Y113.495 E3.15779
G1 X107.964 Y112.941 E3.19223
G1 X107.63 Y112.348 E3.22619
G1 X107.364 Y111.687 E3.26174
G1 X107.192 Y111.032 E3.29552
G1 X107.103 Y110.338 E3.33043
G1 X107.103 Y109.655 E3.36451
G1 X107.192 Y108.967 E3.39912
G1 X107.367 Y108.301 E3.43347
G1 X107.631 Y107.65 E3.46852
G1 X107.97 Y107.048 E3.50299
G1 X108.384 Y106.498 E3.53733
G1 X108.863 Y106.001 E3.57177
G1 X109.409 Y105.568 E3.60653
G1 X109.993 Y105.214 E3.6406
G1 X110.635 Y104.931 E3.67561
G1 X111.286 Y104.737 E3.7095
G1 X111.981 Y104.627 E3.7446
G1 X112.676 Y104.605 E3.77929
G1 X113.35 Y104.67 E3.81308
G1 X114.026 Y104.824 E3.84767
G1 X114.687 Y105.069 E3.88284
G1 X115.29 Y105.383 E3.91675
G1 X115.853 Y105.776 E3.95101
G1 X116.38 Y106.256 E3.98657
G1 X116.81 Y106.761 E4.01966
G1 X117.2 Y107.362 E4.05541
G1 X117.496 Y107.979 E4.08955
G1 X117.714 Y108.635 E4.12404
G1 X117.845 Y109.315 E4.15858
G1 X117.889 Y110 E4.19283
G1 X117.845 Y110.702 E4.22792
G1 X117.712 Y111.373 E4.26205
G1 X117.49 Y112.038 E4.29703
G1 X117.2 Y112.641 E4.33041
G1 X116.81 Y113.238 E4.36598
G1 X116.366 Y113.759 E4.40014
G1 X115.852 Y114.225 E4.43475
G1 X115.287 Y114.619 E4.46911
G1 X114.673 Y114.937 E4.50361
G1 X114.018 Y115.178 E4.53843
G1 X113.345 Y115.33 E4.57285
M205 X10 Y10
G0 F6000 X113.408 Y115.726
M205 X8 Y8
;TYPE:WALL-OUTER
G1 F1172.4 X112.669 Y115.797 E4.60989
G1 X111.93 Y115.772 E4.64678
G1 X111.206 Y115.656 E4.68336
G1 X110.479 Y115.439 E4.72121
G1 X109.809 Y115.142 E4.75778
G1 X109.171 Y114.756 E4.79498
G1 X108.587 Y114.289 E4.83229
G1 X108.071 Y113.755 E4.86933
G1 X107.627 Y113.159 E4.90641
G1 X107.269 Y112.522 E4.94287
G1 X106.983 Y111.813 E4.98101
G1 X106.798 Y111.108 E5.01737
G1 X106.703 Y110.366 E5.05469
G1 X106.703 Y109.627 E5.09156
G1 X106.798 Y108.891 E5.12859
G1 X106.987 Y108.172 E5.16567
G1 X107.269 Y107.478 E5.20305
G1 X107.633 Y106.831 E5.24008
G1 X108.08 Y106.236 E5.27721
G1 X108.592 Y105.706 E5.31398
G1 X109.179 Y105.24 E5.35137
G1 X109.809 Y104.858 E5.38813
G1 X110.495 Y104.556 E5.42552
G1 X111.2 Y104.346 E5.46222
G1 X111.945 Y104.228 E5.49985
G1 X112.687 Y104.204 E5.53689
G1 X113.415 Y104.275 E5.57338
G1 X114.14 Y104.44 E5.61048
G1 X114.852 Y104.704 E5.64836
G1 X115.496 Y105.039 E5.68458
G1 X116.103 Y105.463 E5.72152
G1 X116.664 Y105.974 E5.75938
G1 X117.137 Y106.529 E5.79576
G1 X117.549 Y107.164 E5.83352
G1 X117.868 Y107.829 E5.87032
G1 X118.102 Y108.533 E5.90733
G1 X118.242 Y109.261 E5.94432
G1 X118.29 Y110 E5.98126
G1 X118.242 Y110.753 E6.01891
G1 X118.099 Y111.476 E6.05568
G1 X117.862 Y112.186 E6.09302
G1 X117.546 Y112.843 E6.12939
G1 X117.132 Y113.477 E6.16717
G1 X116.655 Y114.037 E6.20387
G1 X116.101 Y114.539 E6.24117
G1 X115.496 Y114.961 E6.27797
G1 X114.837 Y115.303 E6.31501
G1 X114.13 Y115.563 E6.35259
G1 X113.408 Y115.726 E6.38952
M205 X10 Y10
G0 F6000 X113.209 Y115.745
G0 X113.168 Y115.307
G0 X113.073 Y115.053
M205 X8 Y8
;TYPE:SKIN
G1 F1172.4 X112.818 Y115.08 E6.39764
G1 X111.952 Y115.063 E6.42509
G1 X110.851 Y114.811 E6.46088
G1 X110.377 Y114.619 E6.47709
G1 X109.706 Y114.232 E6.50163
M205 X10 Y10
G0 F6000 X109.238 Y114.046
M205 X8 Y8
G1 F1172.4 X108.424 Y113.232 E6.53035
M205 X10 Y10
G0 F6000 X108.242 Y112.767
M205 X8 Y8
G1 F1172.4 X107.873 Y112.115 E6.55173
G1 X107.553 Y111.23 E6.5786
G1 X107.402 Y110.231 E6.60744
G1 X107.468 Y109.165 E6.63792
G1 X107.778 Y108.061 E6.67066
G1 X108.395 Y106.98 E6.70619
G1 X109.057 Y106.229 E6.73476
G1 X110.055 Y105.53 E6.76955
G1 X111.053 Y105.113 E6.80042
G1 X112.003 Y104.932 E6.82803
G1 X113.157 Y104.955 E6.86097
G1 X113.87 Y105.102 E6.88176
G1 X114.817 Y105.484 E6.9109
M205 X10 Y10
G0 F6000 X115.145 Y105.529
M205 X8 Y8
G1 F1172.4 X116.946 Y107.329 E6.97442
M205 X10 Y10
G0 F6000 X116.999 Y107.666
M205 X8 Y8
G1 F1172.4 X117.239 Y108.188 E6.99059
G1 X117.541 Y109.339 E7.02409
G1 X117.556 Y110.485 E7.05635
G1 X117.307 Y111.65 E7.08989
G1 X116.856 Y112.613 E7.11982
G1 X116.121 Y113.575 E7.1539
G1 X115.174 Y114.325 E7.1879
G1 X114.223 Y114.789 E7.21769
G1 X113.563 Y114.977 E7.23701
M205 X10 Y10
G0 F6000 X113.415 Y115.112
M205 X8 Y8
G1 F1172.4 X113.232 Y114.929 E7.24346
M205 X10 Y10
;MESH:NONMESH
G0 F600 X113.232 Y114.929 Z0.5
G0 F6000 X113.405 Y114.714
;TIME_ELAPSED:10.874272
;LAYER:1
M106 S127.5
M205 X8 Y8
;TYPE:WALL-INNER
;MESH:frm-huelse-M8-10x13mm.stl
G1 F954.9 X114.115 Y114.52 E7.26794
G1 X114.785 Y114.218 E7.29239
G1 X115.402 Y113.818 E7.31684
G1 X115.951 Y113.329 E7.3413
G1 X116.418 Y112.762 E7.36573
G1 X116.795 Y112.131 E7.39017
G1 X117.068 Y111.449 E7.41461
G1 X117.236 Y110.733 E7.43907
G1 X117.293 Y110 E7.46352
G1 X117.236 Y109.267 E7.48798
G1 X117.068 Y108.551 E7.51244
G1 X116.795 Y107.869 E7.53687
G1 X116.418 Y107.238 E7.56132
G1 X115.951 Y106.671 E7.58575
G1 X115.402 Y106.182 E7.6102
G1 X114.785 Y105.782 E7.63466
G1 X114.115 Y105.48 E7.6591
G1 X113.405 Y105.286 E7.68358
G1 X112.675 Y105.202 E7.70802
G1 X111.94 Y105.23 E7.73249
G1 X111.219 Y105.37 E7.75691
G1 X110.527 Y105.618 E7.78136
G1 X109.881 Y105.97 E7.80583
G1 X109.297 Y106.414 E7.83023
G1 X108.786 Y106.945 E7.85474
G1 X108.364 Y107.546 E7.87917
G1 X108.037 Y108.205 E7.90364
G1 X107.815 Y108.906 E7.92809
G1 X107.703 Y109.632 E7.95253
G1 X107.703 Y110.368 E7.97701
G1 X107.815 Y111.094 E8.00144
G1 X108.037 Y111.795 E8.02589
G1 X108.364 Y112.454 E8.05036
G1 X108.786 Y113.055 E8.07479
G1 X109.297 Y113.586 E8.0993
G1 X109.881 Y114.03 E8.1237
G1 X110.527 Y114.382 E8.14817
G1 X111.219 Y114.63 E8.17262
G1 X111.94 Y114.77 E8.19705
G1 X112.675 Y114.798 E8.22151
G1 X113.405 Y114.714 E8.24595
M205 X10 Y10
G0 F6000 X113.329 Y114.32
M205 X8 Y8
;TYPE:WALL-OUTER
G1 F954.9 X113.979 Y114.142 E8.26836
G1 X114.593 Y113.866 E8.29075
G1 X115.159 Y113.499 E8.31319
G1 X115.662 Y113.051 E8.33559
G1 X116.09 Y112.531 E8.35799
G1 X116.435 Y111.953 E8.38038
G1 X116.686 Y111.328 E8.40278
G1 X116.84 Y110.672 E8.4252
G1 X116.892 Y110 E8.44761
G1 X116.84 Y109.328 E8.47003
G1 X116.686 Y108.672 E8.49244
G1 X116.435 Y108.047 E8.51484
G1 X116.09 Y107.469 E8.53723
G1 X115.662 Y106.949 E8.55963
G1 X115.159 Y106.501 E8.58204
G1 X114.593 Y106.134 E8.60447
G1 X113.979 Y105.858 E8.62686
G1 X113.329 Y105.68 E8.64928
G1 X112.66 Y105.603 E8.67168
G1 X111.986 Y105.629 E8.69411
G1 X111.325 Y105.757 E8.7165
G1 X110.691 Y105.984 E8.7389
G1 X110.099 Y106.307 E8.76133
G1 X109.564 Y106.714 E8.78369
G1 X109.096 Y107.2 E8.80613
G1 X108.709 Y107.751 E8.82853
G1 X108.409 Y108.355 E8.85096
G1 X108.206 Y108.997 E8.87335
G1 X108.103 Y109.663 E8.89577
G1 X108.103 Y110.337 E8.91818
G1 X108.206 Y111.003 E8.9406
G1 X108.409 Y111.645 E8.96299
G1 X108.709 Y112.249 E8.98542
G1 X109.096 Y112.8 E9.00782
G1 X109.564 Y113.286 E9.03026
G1 X110.099 Y113.693 E9.05262
G1 X110.691 Y114.016 E9.07505
G1 X111.325 Y114.243 E9.09744
G1 X111.986 Y114.371 E9.11984
G1 X112.66 Y114.397 E9.14227
G1 X113.329 Y114.32 E9.16467
M205 X10 Y10
G0 F6000 X113.522 Y114.268
G0 X113.637 Y114.692
G0 X113.35 Y115.33
M205 X8 Y8
;TYPE:WALL-INNER
G1 F954.9 X112.668 Y115.396 E9.18746
G1 X111.967 Y115.373 E9.21079
G1 X111.292 Y115.265 E9.23352
G1 X110.63 Y115.068 E9.2565
G1 X109.991 Y114.785 E9.27974
G1 X109.401 Y114.428 E9.30268
G1 X108.865 Y114 E9.32549
G1 X108.379 Y113.498 E9.34873
G1 X107.961 Y112.938 E9.37197
G1 X107.629 Y112.348 E9.39449
G1 X107.368 Y111.702 E9.41766
G1 X107.192 Y111.033 E9.44067
G1 X107.103 Y110.345 E9.46374
G1 X107.103 Y109.655 E9.48669
G1 X107.192 Y108.967 E9.50977
G1 X107.368 Y108.298 E9.53277
G1 X107.629 Y107.652 E9.55595
G1 X107.961 Y107.062 E9.57847
G1 X108.379 Y106.502 E9.60171
G1 X108.865 Y106 E9.62495
G1 X109.401 Y105.572 E9.64776
G1 X109.991 Y105.215 E9.6707
G1 X110.63 Y104.932 E9.69394
G1 X111.292 Y104.735 E9.71691
G1 X111.967 Y104.627 E9.73965
G1 X112.668 Y104.604 E9.76298
G1 X113.35 Y104.67 E9.78577
G1 X114.029 Y104.825 E9.80893
G1 X114.678 Y105.064 E9.83193
G1 X115.29 Y105.383 E9.85489
G1 X115.858 Y105.78 E9.87794
G1 X116.366 Y106.241 E9.90075
G1 X116.818 Y106.772 E9.92395
G1 X117.194 Y107.349 E9.94685
G1 X117.493 Y107.971 E9.96981
G1 X117.714 Y108.635 E9.99308
G1 X117.845 Y109.308 E10.01589
G1 X117.889 Y110 E10.03895
G1 X117.845 Y110.692 E10.06201
G1 X117.714 Y111.365 E10.08482
G1 X117.493 Y112.029 E10.10809
G1 X117.194 Y112.651 E10.13105
G1 X116.818 Y113.228 E10.15395
G1 X116.367 Y113.758 E10.1771
G1 X115.858 Y114.22 E10.19996
G1 X115.29 Y114.617 E10.22301
G1 X114.678 Y114.936 E10.24597
G1 X114.029 Y115.175 E10.26897
G1 X113.35 Y115.33 E10.29213
M205 X10 Y10
G0 F6000 X113.415 Y115.725
M205 X8 Y8
;TYPE:WALL-OUTER
G1 F954.9 X112.678 Y115.797 E10.31676
G1 X111.93 Y115.772 E10.34165
G1 X111.206 Y115.656 E10.36604
G1 X110.487 Y115.442 E10.39099
G1 X109.809 Y115.142 E10.41565
G1 X109.171 Y114.756 E10.44045
G1 X108.593 Y114.295 E10.46504
G1 X108.074 Y113.758 E10.48988
G1 X107.629 Y113.162 E10.51462
G1 X107.265 Y112.516 E10.53928
G1 X106.987 Y111.828 E10.56396
G1 X106.798 Y111.109 E10.58869
G1 X106.703 Y110.373 E10.61337
G1 X106.703 Y109.627 E10.63819
G1 X106.798 Y108.891 E10.66287
G1 X106.987 Y108.172 E10.68759
G1 X107.265 Y107.484 E10.71228
G1 X107.629 Y106.838 E10.73694
G1 X108.074 Y106.242 E10.76168
G1 X108.593 Y105.705 E10.78652
G1 X109.171 Y105.244 E10.81111
G1 X109.809 Y104.858 E10.83591
G1 X110.487 Y104.558 E10.86057
G1 X111.206 Y104.344 E10.88552
G1 X111.93 Y104.228 E10.9099
G1 X112.678 Y104.203 E10.9348
G1 X113.415 Y104.275 E10.95943
G1 X114.14 Y104.44 E10.98416
G1 X114.845 Y104.7 E11.00915
G1 X115.496 Y105.039 E11.03356
G1 X116.108 Y105.466 E11.05838
G1 X116.655 Y105.963 E11.08296
G1 X117.137 Y106.529 E11.10769
G1 X117.546 Y107.157 E11.13262
G1 X117.865 Y107.821 E11.15712
G1 X118.102 Y108.533 E11.18208
G1 X118.242 Y109.253 E11.20647
G1 X118.29 Y110 E11.23137
G1 X118.242 Y110.747 E11.25626
G1 X118.102 Y111.467 E11.28066
G1 X117.865 Y112.179 E11.30562
G1 X117.546 Y112.843 E11.33012
G1 X117.137 Y113.471 E11.35505
G1 X116.655 Y114.037 E11.37977
G1 X116.108 Y114.534 E11.40435
G1 X115.496 Y114.961 E11.42917
G1 X114.845 Y115.3 E11.45359
G1 X114.14 Y115.56 E11.47858
G1 X113.415 Y115.725 E11.50331
M205 X10 Y10
G0 F6000 X113.216 Y115.744
G0 X113.175 Y115.306
G0 X113.215 Y115.037
M205 X8 Y8
;TYPE:SKIN
G1 F954.9 X113.563 Y114.973 E11.51163
G1 X114.387 Y114.714 E11.53194
G1 X114.937 Y114.447 E11.54632
M205 X10 Y10
G0 F6000 X115.288 Y114.38
M205 X8 Y8
G1 F954.9 X116.855 Y112.813 E11.58317
M205 X10 Y10
G0 F6000 X116.938 Y112.445
M205 X8 Y8
G1 F954.9 X117.209 Y111.892 E11.59476
G1 X117.46 Y111.075 E11.61085
G1 X117.58 Y110.106 E11.62922
G1 X117.494 Y109.062 E11.64894
G1 X117.161 Y107.98 E11.67024
G1 X116.659 Y107.069 E11.68982
G1 X115.851 Y106.179 E11.71244
G1 X115.031 Y105.585 E11.73149
G1 X114.049 Y105.153 E11.75168
G1 X112.866 Y104.922 E11.77437
G1 X112.012 Y104.928 E11.79044
G1 X110.93 Y105.16 E11.81127
G1 X110.483 Y105.325 E11.82023
G1 X109.865 Y105.659 E11.83345
M205 X10 Y10
G0 F6000 X109.505 Y105.737
M205 X8 Y8
G1 F954.9 X108.267 Y106.975 E11.86257
M205 X10 Y10
G0 F6000 X108.143 Y107.381
M205 X8 Y8
G1 F954.9 X107.826 Y107.982 E11.87553
G1 X107.532 Y108.842 E11.89287
G1 X107.402 Y109.82 E11.91169
G1 X107.475 Y110.878 E11.93192
G1 X107.794 Y111.973 E11.95368
G1 X108.298 Y112.884 E11.97354
G1 X109.085 Y113.794 E11.99649
G1 X110.089 Y114.487 E12.01976
G1 X111.092 Y114.897 E12.04043
G1 X112.05 Y115.072 E12.05901
G1 X112.595 Y115.092 E12.06941
M205 X10 Y10
G0 F6000 X112.782 Y115.189
M205 X8 Y8
G1 F954.9 X113.017 Y114.953 E12.07495
M205 X10 Y10
;MESH:NONMESH
G0 F600 X113.017 Y114.953 Z0.7
G0 F6000 X113.405 Y114.714
;TIME_ELAPSED:21.118298
;LAYER:2
M106 S178.5
M205 X8 Y8
;TYPE:WALL-INNER
;MESH:frm-huelse-M8-10x13mm.stl
G1 F954.6 X114.115 Y114.52 E12.09943
G1 X114.785 Y114.218 E12.12387
G1 X115.402 Y113.818 E12.14833
