;FLAVOR:Marlin
;TIME:944
;Filament used: 0.632704m
;Layer height: 0.2
;MINX:102.427
;MINY:93.922
;MINZ:0.3
;MAXX:114.015
;MAXY:126.078
;MAXZ:13.175
;Generated with Cura_SteamEngine 4.13.1
M140 S60
M105
M190 S60
M104 S200
M105
M109 S200
M82 ;absolute extrusion mode
G21                                        ; metric values
G90                                        ; absolute positioning
M82                                        ; set extruder to absolute mode
M107                                       ; start with the fan off
M190 S60                                   ; preheat and wait for bed
M109 S210                                  ; preheat and wait for hotend
M300 S1000 P500                            ; BEEP heating done
G28 X0 Y10 Z0                              ; move X/Y to min endstops
M420 S1                                    ; enable mesh leveling
G0 Z0.15                                   ; lift nozzle a bit
G0 X2                                      ; move away from clips
G92 E0                                     ; zero the extruded length
G1 Y50 E25 F500                            ; Extrude 25mm of filament in a 5cm line.
G92 E0                                     ; zero the extruded length again
G1 E-2 F500                                ; Retract a little
G1 Y120 F4000                              ; Quickly wipe away from the filament line
G92 E0
G92 E0
G1 F1500 E-6
;LAYER_COUNT:65
;LAYER:0
M106 S76.5
M205 X10 Y10
G1 F600 Z0.375
;MESH:frm-huelse-M8-10x13mm.stl(2)
G0 F6000 X108.777 Y104.489 Z0.375
M205 X8 Y8
;TYPE:WALL-INNER
G1 F600 Z0.3
G1 F1500 E0
G1 F1200 X109.498 Y104.349 E0.03664
G1 X110.19 Y104.101 E0.07332
G1 X110.836 Y103.749 E0.11002
G1 X111.421 Y103.304 E0.14669
G1 X111.935 Y102.767 E0.18378
G1 X112.354 Y102.172 E0.22008
G1 X112.681 Y101.506 E0.2571
G1 X112.901 Y100.814 E0.29332
G1 X113.014 Y100.087 E0.33003
G1 X113.014 Y99.352 E0.3667
G1 X112.901 Y98.624 E0.40345
G1 X112.679 Y97.924 E0.44009
G1 X112.349 Y97.259 E0.47713
G1 X111.93 Y96.664 E0.51344
G1 X111.42 Y96.134 E0.55013
G1 X110.836 Y95.689 E0.58676
G1 X110.19 Y95.338 E0.62344
G1 X109.491 Y95.088 E0.66048
G1 X108.777 Y94.949 E0.69677
G1 X108.042 Y94.921 E0.73346
G1 X107.312 Y95.005 E0.77012
G1 X106.602 Y95.199 E0.80684
G1 X105.925 Y95.505 E0.84391
G1 X105.315 Y95.901 E0.88019
G1 X104.766 Y96.39 E0.91687
G1 X104.295 Y96.963 E0.95388
G1 X103.922 Y97.588 E0.99019
G1 X103.649 Y98.27 E1.02684
G1 X103.481 Y98.986 E1.06353
G1 X103.424 Y99.726 E1.10056
G1 X103.481 Y100.453 E1.13694
G1 X103.649 Y101.168 E1.17358
G1 X103.922 Y101.85 E1.21023
G1 X104.299 Y102.481 E1.24691
G1 X104.766 Y103.049 E1.28359
G1 X105.316 Y103.538 E1.32031
G1 X105.938 Y103.94 E1.35726
G1 X106.602 Y104.239 E1.39359
G1 X107.312 Y104.433 E1.43031
G1 X108.042 Y104.517 E1.46697
G1 X108.777 Y104.489 E1.50366
M205 X10 Y10
G0 F6000 X108.731 Y104.09
M205 X8 Y8
;TYPE:WALL-OUTER
G1 F1200 X109.392 Y103.962 E1.53725
G1 X110.026 Y103.735 E1.57085
G1 X110.618 Y103.412 E1.6045
G1 X111.154 Y103.005 E1.63807
G1 X111.625 Y102.512 E1.67209
G1 X112.009 Y101.967 E1.70535
G1 X112.309 Y101.357 E1.73927
G1 X112.51 Y100.722 E1.7725
G1 X112.614 Y100.056 E1.80612
G1 X112.614 Y99.383 E1.8397
G1 X112.51 Y98.716 E1.87338
G1 X112.307 Y98.074 E1.90697
G1 X112.004 Y97.464 E1.94095
G1 X111.621 Y96.919 E1.97419
G1 X111.153 Y96.434 E2.00781
G1 X110.618 Y96.026 E2.04138
G1 X110.026 Y95.704 E2.075
G1 X109.385 Y95.475 E2.10896
G1 X108.731 Y95.348 E2.1422
G1 X108.057 Y95.322 E2.17585
G1 X107.388 Y95.399 E2.20944
G1 X106.738 Y95.577 E2.24307
G1 X106.117 Y95.857 E2.27705
G1 X105.558 Y96.22 E2.3103
G1 X105.055 Y96.668 E2.34391
G1 X104.623 Y97.194 E2.37787
G1 X104.282 Y97.766 E2.41109
G1 X104.031 Y98.391 E2.44469
G1 X103.877 Y99.047 E2.47831
G1 X103.825 Y99.726 E2.51229
G1 X103.877 Y100.391 E2.54556
G1 X104.031 Y101.047 E2.57918
G1 X104.282 Y101.672 E2.61278
G1 X104.627 Y102.25 E2.64637
G1 X105.055 Y102.771 E2.68001
G1 X105.559 Y103.219 E2.71365
G1 X106.13 Y103.588 E2.74757
G1 X106.738 Y103.861 E2.78082
G1 X107.388 Y104.039 E2.81444
G1 X108.057 Y104.116 E2.84804
G1 X108.731 Y104.09 E2.88169
M205 X10 Y10
G0 F6000 X108.927 Y104.052
G0 X109.01 Y104.485
G0 X108.736 Y105.092
M205 X8 Y8
;TYPE:WALL-INNER
G1 F1200 X108.041 Y105.114 E2.91638
G1 X107.367 Y105.049 E2.95016
G1 X106.688 Y104.894 E2.98491
G1 X106.029 Y104.652 E3.01993
G1 X105.43 Y104.338 E3.05367
G1 X104.864 Y103.942 E3.08814
G1 X104.336 Y103.463 E3.1237
G1 X103.903 Y102.954 E3.15704
G1 X103.518 Y102.36 E3.19236
G1 X103.22 Y101.74 E3.22668
G1 X103.003 Y101.084 E3.26115
G1 X102.872 Y100.405 E3.29565
G1 X102.828 Y99.718 E3.32999
G1 X102.872 Y99.017 E3.36504
G1 X103.004 Y98.35 E3.39896
G1 X103.227 Y97.68 E3.43419
G1 X103.521 Y97.071 E3.46793
G1 X103.899 Y96.49 E3.50251
G1 X104.35 Y95.961 E3.53719
G1 X104.865 Y95.494 E3.57187
G1 X105.43 Y95.1 E3.60624
G1 X106.044 Y94.782 E3.64073
G1 X106.699 Y94.541 E3.67555
G1 X107.372 Y94.389 E3.70998
G1 X108.057 Y94.323 E3.74431
G1 X108.749 Y94.346 E3.77885
G1 X109.426 Y94.456 E3.81307
G1 X110.098 Y94.655 E3.84804
G1 X110.723 Y94.933 E3.88216
G1 X111.317 Y95.292 E3.91679
G1 X111.862 Y95.728 E3.95161
G1 X112.336 Y96.218 E3.98562
G1 X112.755 Y96.782 E4.02068
G1 X113.085 Y97.366 E4.05414
G1 X113.353 Y98.032 E4.08996
G1 X113.525 Y98.687 E4.12374
G1 X113.614 Y99.381 E4.15865
G1 X113.614 Y100.065 E4.19278
G1 X113.525 Y100.752 E4.22734
G1 X113.35 Y101.418 E4.26169
G1 X113.085 Y102.071 E4.29685
G1 X112.748 Y102.668 E4.33105
G1 X112.333 Y103.221 E4.36555
G1 X111.854 Y103.718 E4.39998
G1 X111.308 Y104.151 E4.43475
G1 X110.724 Y104.505 E4.46882
G1 X110.082 Y104.788 E4.50382
G1 X109.431 Y104.982 E4.53771
G1 X108.736 Y105.092 E4.57282
M205 X10 Y10
G0 F6000 X108.772 Y105.491
M205 X8 Y8
;TYPE:WALL-OUTER
G1 F1200 X108.03 Y105.515 E4.60986
G1 X107.302 Y105.444 E4.64635
G1 X106.577 Y105.279 E4.68344
G1 X105.868 Y105.018 E4.72114
G1 X105.218 Y104.678 E4.75773
G1 X104.614 Y104.256 E4.79449
G1 X104.052 Y103.745 E4.83239
G1 X103.579 Y103.19 E4.86877
G1 X103.167 Y102.554 E4.90658
G1 X102.848 Y101.89 E4.94333
G1 X102.615 Y101.187 E4.98028
G1 X102.475 Y100.458 E5.01731
G1 X102.427 Y99.719 E5.05426
G1 X102.475 Y98.966 E5.0919
G1 X102.618 Y98.243 E5.12867
G1 X102.854 Y97.533 E5.166
G1 X103.171 Y96.876 E5.20239
G1 X103.579 Y96.248 E5.23976
G1 X104.062 Y95.682 E5.27688
G1 X104.616 Y95.18 E5.31418
G1 X105.221 Y94.758 E5.35098
G1 X105.88 Y94.416 E5.38802
G1 X106.587 Y94.156 E5.4256
G1 X107.309 Y93.993 E5.46253
G1 X108.048 Y93.922 E5.49957
G1 X108.787 Y93.947 E5.53646
G1 X109.511 Y94.064 E5.57304
G1 X110.238 Y94.28 E5.61088
G1 X110.908 Y94.578 E5.64747
G1 X111.546 Y94.963 E5.68464
G1 X112.13 Y95.43 E5.72195
G1 X112.642 Y95.959 E5.75868
G1 X113.092 Y96.566 E5.79637
G1 X113.447 Y97.194 E5.83237
G1 X113.734 Y97.906 E5.87066
G1 X113.919 Y98.611 E5.90703
G1 X114.014 Y99.353 E5.94435
G1 X114.014 Y100.093 E5.98127
G1 X113.919 Y100.828 E6.01824
G1 X113.73 Y101.547 E6.05533
G1 X113.448 Y102.241 E6.0927
G1 X113.083 Y102.888 E6.12977
G1 X112.637 Y103.483 E6.16686
G1 X112.125 Y104.013 E6.20363
G1 X111.538 Y104.479 E6.24102
G1 X110.908 Y104.861 E6.27778
G1 X110.222 Y105.163 E6.31517
G1 X109.517 Y105.373 E6.35187
G1 X108.772 Y105.491 E6.3895
M205 X10 Y10
G0 F6000 X108.572 Y105.497
G0 X108.559 Y105.057
G0 X108.477 Y104.8
M205 X8 Y8
;TYPE:SKIN
G1 F1200 X108.203 Y104.809 E6.3982
G1 X107.268 Y104.722 E6.42797
G1 X106.474 Y104.494 E6.45416
G1 X105.974 Y104.277 E6.47145
M205 X10 Y10
G0 F6000 X105.644 Y104.23
M205 X8 Y8
G1 F1200 X103.705 Y102.291 E6.53985
M205 X10 Y10
G0 F6000 X103.673 Y101.976
M205 X8 Y8
G1 F1200 X103.455 Y101.475 E6.5554
G1 X103.169 Y100.341 E6.5887
G1 X103.16 Y99.201 E6.62116
G1 X103.416 Y98.042 E6.65495
G1 X103.871 Y97.083 E6.68517
G1 X104.611 Y96.125 E6.71963
G1 X105.561 Y95.379 E6.75402
G1 X106.517 Y94.92 E6.78422
G1 X107.671 Y94.66 E6.81789
G1 X108.801 Y94.659 E6.85006
G1 X109.914 Y94.923 E6.88263
G1 X110.402 Y95.129 E6.89771
G1 X111.121 Y95.564 E6.92164
M205 X10 Y10
G0 F6000 X111.662 Y96.106
M205 X8 Y8
G1 F1200 X112.779 Y97.222 E6.96102
M205 X10 Y10
G0 F6000 X112.815 Y97.541
M205 X8 Y8
G1 F1200 X113.032 Y98.041 E6.97619
G1 X113.28 Y99.138 E7.00747
G1 X113.286 Y100.275 E7.0391
G1 X113.019 Y101.423 E7.07188
G1 X112.567 Y102.385 E7.10144
G1 X111.812 Y103.327 E7.13502
G1 X111.038 Y103.967 E7.16296
G1 X109.901 Y104.527 E7.19821
G1 X108.742 Y104.783 E7.23123
M205 X10 Y10
G1 F1500 E1.23123
G1 F600 Z0.375
G0 F6000 X112.193 Y96.354 Z0.375
M205 X8 Y8
G1 F600 Z0.3
G1 F1500 E7.23123
G1 F1200 X111.643 Y95.804 E7.25063
M205 X10 Y10
G1 F1500 E1.25063
G1 F600 Z0.375
;MESH:frm-huelse-M8-10x13mm.stl(1)
G0 F6000 X108.778 Y125.051 Z0.375
M205 X8 Y8
;TYPE:WALL-INNER
G1 F600 Z0.3
G1 F1500 E7.25063
G1 F1200 X109.499 Y124.911 E7.28727
G1 X110.191 Y124.662 E7.32397
G1 X110.837 Y124.311 E7.36064
G1 X111.422 Y123.865 E7.39735
G1 X111.936 Y123.33 E7.43436
G1 X112.354 Y122.734 E7.47068
G1 X112.683 Y122.069 E7.50769
G1 X112.903 Y121.375 E7.54401
G1 X113.015 Y120.648 E7.58071
G1 X113.015 Y119.913 E7.61738
G1 X112.903 Y119.187 E7.65403
G1 X112.681 Y118.486 E7.69072
G1 X112.35 Y117.821 E7.72778
G1 X111.932 Y117.226 E7.76405
G1 X111.421 Y116.695 E7.80082
G1 X110.837 Y116.251 E7.83742
G1 X110.191 Y115.899 E7.87412
G1 X109.492 Y115.65 E7.91114
G1 X108.778 Y115.511 E7.94743
G1 X108.043 Y115.483 E7.98413
G1 X107.313 Y115.567 E8.02079
G1 X106.603 Y115.762 E8.05752
G1 X105.927 Y116.067 E8.09452
G1 X105.316 Y116.462 E8.13082
G1 X104.767 Y116.951 E8.1675
G1 X104.296 Y117.526 E8.20458
G1 X103.923 Y118.15 E8.24085
G1 X103.65 Y118.832 E8.2775
G1 X103.482 Y119.548 E8.31419
G1 X103.425 Y120.288 E8.35122
G1 X103.482 Y121.015 E8.3876
G1 X103.65 Y121.73 E8.42425
G1 X103.923 Y122.412 E8.4609
G1 X104.3 Y123.043 E8.49757
G1 X104.767 Y123.61 E8.53421
G1 X105.316 Y124.1 E8.57093
G1 X105.941 Y124.503 E8.60803
G1 X106.603 Y124.801 E8.64425
G1 X107.313 Y124.995 E8.68097
G1 X108.043 Y125.079 E8.71763
G1 X108.778 Y125.051 E8.75432
M205 X10 Y10
G0 F6000 X108.732 Y124.652
M205 X8 Y8
;TYPE:WALL-OUTER
G1 F1200 X109.393 Y124.524 E8.78791
G1 X110.027 Y124.296 E8.82153
G1 X110.619 Y123.974 E8.85515
G1 X111.155 Y123.566 E8.88876
G1 X111.626 Y123.075 E8.9227
G1 X112.009 Y122.529 E8.95597
G1 X112.311 Y121.919 E8.98993
G1 X112.512 Y121.284 E9.02316
G1 X112.615 Y120.617 E9.05683
G1 X112.615 Y119.944 E9.09041
G1 X112.512 Y119.278 E9.12403
G1 X112.309 Y118.636 E9.15762
G1 X112.005 Y118.026 E9.19163
G1 X111.622 Y117.481 E9.22486
G1 X111.154 Y116.995 E9.25852
G1 X110.619 Y116.588 E9.29206
G1 X110.027 Y116.265 E9.3257
G1 X109.386 Y116.037 E9.35964
G1 X108.732 Y115.91 E9.39288
G1 X108.058 Y115.884 E9.42653
G1 X107.389 Y115.961 E9.46013
G1 X106.739 Y116.139 E9.49375
G1 X106.119 Y116.419 E9.52769
G1 X105.559 Y116.781 E9.56096
G1 X105.056 Y117.229 E9.59457
G1 X104.624 Y117.756 E9.62856
G1 X104.283 Y118.328 E9.66179
G1 X104.032 Y118.953 E9.69539
G1 X103.878 Y119.609 E9.72901
G1 X103.826 Y120.288 E9.76298
G1 X103.878 Y120.953 E9.79626
G1 X104.032 Y121.609 E9.82988
G1 X104.283 Y122.234 E9.86348
G1 X104.628 Y122.812 E9.89706
G1 X105.056 Y123.332 E9.93066
G1 X105.559 Y123.781 E9.9643
G1 X106.132 Y124.15 E9.9983
G1 X106.739 Y124.423 E10.03151
G1 X107.389 Y124.601 E10.06513
G1 X108.058 Y124.678 E10.09873
G1 X108.732 Y124.652 E10.13238
M205 X10 Y10
G0 F6000 X108.928 Y124.614
G0 X109.011 Y125.047
G0 X108.743 Y125.654
M205 X8 Y8
;TYPE:WALL-INNER
G1 F1200 X108.042 Y125.676 E10.16737
G1 X107.368 Y125.611 E10.20115
G1 X106.692 Y125.457 E10.23574
G1 X106.031 Y125.212 E10.27091
G1 X105.428 Y124.898 E10.30483
G1 X104.863 Y124.503 E10.33922
G1 X104.338 Y124.025 E10.37464
G1 X103.908 Y123.52 E10.40773
G1 X103.518 Y122.919 E10.44348
G1 X103.222 Y122.302 E10.47762
G1 X103.004 Y121.646 E10.51211
G1 X102.873 Y120.966 E10.54666
G1 X102.829 Y120.28 E10.58095
G1 X102.873 Y119.579 E10.61599
G1 X103.006 Y118.908 E10.65012
G1 X103.228 Y118.243 E10.6851
G1 X103.518 Y117.64 E10.71848
G1 X103.908 Y117.043 E10.75406
G1 X104.352 Y116.522 E10.78821
G1 X104.866 Y116.056 E10.82282
G1 X105.428 Y115.664 E10.85701
G1 X106.044 Y115.344 E10.89164
G1 X106.703 Y115.103 E10.92664
G1 X107.374 Y114.951 E10.96097
G1 X108.058 Y114.885 E10.99525
G1 X108.751 Y114.908 E11.02985
G1 X109.426 Y115.016 E11.06395
G1 X110.095 Y115.216 E11.09879
G1 X110.727 Y115.496 E11.13327
G1 X111.317 Y115.853 E11.16768
G1 X111.858 Y116.286 E11.20225
G1 X112.342 Y116.786 E11.23697
G1 X112.754 Y117.34 E11.27141
G1 X113.087 Y117.93 E11.30521
G1 X113.354 Y118.594 E11.34092
G1 X113.526 Y119.249 E11.3747
G1 X113.615 Y119.942 E11.40956
G1 X113.615 Y120.626 E11.44368
G1 X113.526 Y121.314 E11.47829
G1 X113.351 Y121.98 E11.51265
G1 X113.087 Y122.631 E11.5477
G1 X112.748 Y123.233 E11.58217
G1 X112.334 Y123.783 E11.61651
G1 X111.855 Y124.28 E11.65095
G1 X111.309 Y124.713 E11.68571
G1 X110.727 Y125.065 E11.71965
G1 X110.08 Y125.351 E11.75494
G1 X109.426 Y125.545 E11.78897
G1 X108.743 Y125.654 E11.82348
M205 X10 Y10
G0 F6000 X108.779 Y126.053
M205 X8 Y8
;TYPE:WALL-OUTER
G1 F1200 X108.031 Y126.077 E11.86082
G1 X107.303 Y126.006 E11.89731
G1 X106.578 Y125.841 E11.9344
G1 X105.866 Y125.577 E11.97229
G1 X105.222 Y125.242 E12.0085
G1 X104.615 Y124.818 E12.04544
G1 X104.054 Y124.307 E12.0833
G1 X103.581 Y123.752 E12.11968
G1 X103.169 Y123.117 E12.15745
G1 X102.85 Y122.452 E12.19424
G1 X102.616 Y121.748 E12.23126
G1 X102.476 Y121.02 E12.26824
G1 X102.428 Y120.281 E12.30519
G1 X102.476 Y119.528 E12.34283
G1 X102.619 Y118.805 E12.3796
G1 X102.856 Y118.095 E12.41694
G1 X103.172 Y117.438 E12.45332
G1 X103.586 Y116.804 E12.49109
G1 X104.063 Y116.244 E12.52779
G1 X104.617 Y115.742 E12.56509
G1 X105.222 Y115.32 E12.60189
G1 X105.881 Y114.977 E12.63896
G1 X106.587 Y114.719 E12.67646
G1 X107.31 Y114.555 E12.71345
G1 X108.049 Y114.484 E12.75048
G1 X108.788 Y114.509 E12.78737
G1 X109.512 Y114.625 E12.82395
G1 X110.239 Y114.842 E12.86181
G1 X110.909 Y115.139 E12.89837
G1 X111.547 Y115.525 E12.93557
G1 X112.131 Y115.992 E12.97288
G1 X112.647 Y116.526 E13.00992
G1 X113.091 Y117.122 E13.047
G1 X113.448 Y117.756 E13.0833
G1 X113.735 Y118.468 E13.1216
G1 X113.92 Y119.173 E13.15797
G1 X114.015 Y119.914 E13.19524
G1 X114.015 Y120.654 E13.23216
G1 X113.92 Y121.39 E13.26918
G1 X113.731 Y122.109 E13.30627
G1 X113.449 Y122.803 E13.34364
G1 X113.085 Y123.45 E13.38068
G1 X112.638 Y124.045 E13.41781
G1 X112.126 Y124.575 E13.45457
G1 X111.539 Y125.041 E13.49196
G1 X110.909 Y125.422 E13.5287
G1 X110.223 Y125.725 E13.56611
G1 X109.512 Y125.936 E13.60311
G1 X108.779 Y126.053 E13.64014
M205 X10 Y10
G0 F6000 X108.579 Y126.059
G0 X108.566 Y125.619
G0 X108.394 Y125.364
M205 X8 Y8
;TYPE:SKIN
G1 F1200 X108.12 Y125.373 E13.64881
G1 X107.151 Y125.253 E13.67967
G1 X106.324 Y124.992 E13.70708
G1 X105.774 Y124.724 E13.72641
M205 X10 Y10
G0 F6000 X105.419 Y124.653
M205 X8 Y8
G1 F1200 X103.87 Y123.103 E13.78108
M205 X10 Y10
G0 F6000 X103.782 Y122.732
M205 X8 Y8
G1 F1200 X103.508 Y122.176 E13.79855
G1 X103.185 Y121.004 E13.83282
G1 X103.156 Y119.843 E13.86556
G1 X103.394 Y118.668 E13.89936
G1 X103.84 Y117.699 E13.92943
G1 X104.566 Y116.728 E13.96361
G1 X105.51 Y115.975 E13.99766
G1 X106.453 Y115.504 E14.02737
G1 X107.593 Y115.23 E14.06043
G1 X108.702 Y115.207 E14.0917
G1 X109.783 Y115.44 E14.12287
G1 X110.23 Y115.604 E14.13629
G1 X110.846 Y115.937 E14.15604
M205 X10 Y10
G0 F6000 X111.205 Y116.013
M205 X8 Y8
G1 F1200 X112.453 Y117.261 E14.20006
M205 X10 Y10
G0 F6000 X112.575 Y117.666
M205 X8 Y8
G1 F1200 X112.891 Y118.265 E14.21953
G1 X113.186 Y119.125 E14.24567
G1 X113.314 Y120.103 E14.27402
G1 X113.241 Y121.161 E14.30451
G1 X112.921 Y122.255 E14.33727
G1 X112.299 Y123.33 E14.37297
G1 X111.631 Y124.076 E14.40176
G1 X110.626 Y124.768 E14.43684
G1 X109.622 Y125.179 E14.46802
G1 X108.92 Y125.325 E14.48863
M205 X10 Y10
G0 F6000 X108.764 Y125.452
M205 X8 Y8
G1 F1200 X108.566 Y125.254 E14.49562
M205 X10 Y10
G1 F1500 E8.49562
G1 F600 Z0.375
;MESH:NONMESH
G0 F6000 X108.777 Y104.489 Z0.375
;TIME_ELAPSED:20.178705
;LAYER:1
M106 S127.5
;MESH:frm-huelse-M8-10x13mm.stl(2)
G0 X108.777 Y104.489 Z0.575
M205 X8 Y8
;TYPE:WALL-INNER
G1 F600 Z0.5
G1 F1500 E14.49562
G1 F1350 X109.498 Y104.349 E14.52005
G1 X110.19 Y104.101 E14.5445
G1 X110.836 Y103.749 E14.56896
