;FLAVOR:Marlin
;TIME:1801
;Filament used: 0.792067m
;Layer height: 0.2
;MINX:101.701
;MINY:99.226
;MINZ:0.3
;MAXX:123.299
;MAXY:120.774
;MAXZ:35.1
;Generated with Cura_SteamEngine 4.13.1
M140 S60
M105
M190 S60
M104 S200
M105
M109 S200
M82 ;absolute extrusion mode
G21                                        ; metric values
G90                                        ; absolute positioning
M82                                        ; set extruder to absolute mode
M107                                       ; start with the fan off
M190 S60                                   ; preheat and wait for bed
M109 S210                                  ; preheat and wait for hotend
M300 S1000 P500                            ; BEEP heating done
G28 X0 Y10 Z0                              ; move X/Y to min endstops
M420 S1                                    ; enable mesh leveling
G0 Z0.15                                   ; lift nozzle a bit
G0 X2                                      ; move away from clips
G92 E0                                     ; zero the extruded length
G1 Y50 E25 F500                            ; Extrude 25mm of filament in a 5cm line.
G92 E0                                     ; zero the extruded length again
G1 E-2 F500                                ; Retract a little
G1 Y120 F4000                              ; Quickly wipe away from the filament line
G92 E0
G92 E0
G1 F1500 E-6
;LAYER_COUNT:175
;LAYER:0
M106 S76.5
M205 X10 Y10
G1 F600 Z0.375
;MESH:led-weinkorken.stl
G0 F6000 X111.696 Y113.514 Z0.375
M205 X8 Y8
;TYPE:WALL-INNER
G1 F600 Z0.3
G1 F1500 E0
G1 F1200 X112.5 Y113.606 E0.04037
G1 X113.304 Y113.514 E0.08075
G1 X114.064 Y113.249 E0.1209
G1 X114.748 Y112.82 E0.16118
G1 X115.32 Y112.248 E0.20154
G1 X115.749 Y111.564 E0.24182
G1 X116.014 Y110.804 E0.28198
G1 X116.106 Y110 E0.32235
G1 X116.014 Y109.196 E0.36273
G1 X115.749 Y108.436 E0.40288
G1 X115.32 Y107.752 E0.44316
G1 X114.748 Y107.18 E0.48352
G1 X114.064 Y106.751 E0.5238
G1 X113.304 Y106.486 E0.56396
G1 X112.5 Y106.394 E0.60433
G1 X111.696 Y106.486 E0.6447
G1 X110.936 Y106.751 E0.68486
G1 X110.252 Y107.18 E0.72514
G1 X109.68 Y107.752 E0.7655
G1 X109.251 Y108.436 E0.80578
G1 X108.986 Y109.196 E0.84593
G1 X108.894 Y110 E0.88631
G1 X108.986 Y110.804 E0.92668
G1 X109.251 Y111.564 E0.96684
G1 X109.68 Y112.248 E1.00712
G1 X110.252 Y112.82 E1.04748
G1 X110.936 Y113.249 E1.08776
G1 X111.696 Y113.514 E1.12791
M205 X10 Y10
G0 F6000 X111.786 Y113.122
M205 X8 Y8
G1 F1200 X112.5 Y113.203 E1.16376
G1 X113.214 Y113.122 E1.19961
G1 X113.89 Y112.886 E1.23534
G1 X114.497 Y112.505 E1.27109
G1 X115.005 Y111.997 E1.30693
G1 X115.386 Y111.39 E1.34269
G1 X115.622 Y110.714 E1.37841
G1 X115.703 Y110 E1.41426
G1 X115.622 Y109.286 E1.45011
G1 X115.386 Y108.61 E1.48583
G1 X115.005 Y108.003 E1.52159
G1 X114.497 Y107.495 E1.55743
G1 X113.89 Y107.114 E1.59318
G1 X113.214 Y106.878 E1.6289
G1 X112.5 Y106.797 E1.66475
G1 X111.786 Y106.878 E1.7006
G1 X111.11 Y107.114 E1.73633
G1 X110.503 Y107.495 E1.77208
G1 X109.995 Y108.003 E1.80792
G1 X109.614 Y108.61 E1.84368
G1 X109.378 Y109.286 E1.8794
G1 X109.297 Y110 E1.91525
G1 X109.378 Y110.714 E1.9511
G1 X109.614 Y111.39 E1.98682
G1 X109.995 Y111.997 E2.02258
G1 X110.503 Y112.505 E2.05842
G1 X111.11 Y112.886 E2.09417
G1 X111.786 Y113.122 E2.12989
M205 X10 Y10
G0 F6000 X111.876 Y112.73
M205 X8 Y8
;TYPE:WALL-OUTER
G1 F1200 X112.5 Y112.8 E2.16122
G1 X113.124 Y112.73 E2.19255
G1 X113.715 Y112.523 E2.22379
G1 X114.246 Y112.19 E2.25506
G1 X114.69 Y111.746 E2.28639
G1 X115.023 Y111.215 E2.31766
G1 X115.23 Y110.624 E2.3489
G1 X115.3 Y110 E2.38022
G1 X115.23 Y109.376 E2.41155
G1 X115.023 Y108.785 E2.44279
G1 X114.69 Y108.254 E2.47406
G1 X114.246 Y107.81 E2.50539
G1 X113.715 Y107.477 E2.53666
G1 X113.124 Y107.27 E2.5679
G1 X112.5 Y107.2 E2.59923
G1 X111.876 Y107.27 E2.63055
G1 X111.285 Y107.477 E2.6618
G1 X110.754 Y107.81 E2.69307
G1 X110.31 Y108.254 E2.72439
G1 X109.977 Y108.785 E2.75566
G1 X109.77 Y109.376 E2.7869
G1 X109.7 Y110 E2.81823
G1 X109.77 Y110.624 E2.84956
G1 X109.977 Y111.215 E2.8808
G1 X110.31 Y111.746 E2.91207
G1 X110.754 Y112.19 E2.9434
G1 X111.285 Y112.523 E2.97467
G1 X111.876 Y112.73 E3.00591
M205 X10 Y10
G0 F6000 X112.075 Y112.752
G0 X112.025 Y113.189
G0 X113.109 Y113.949
M205 X8 Y8
;TYPE:WALL-INNER
G1 F1200 X112.281 Y113.989 E3.04523
G1 X111.505 Y113.871 E3.08258
G1 X110.748 Y113.592 E3.12167
G1 X110.049 Y113.158 E3.16207
G1 X109.461 Y112.593 E3.20248
G1 X109.009 Y111.946 E3.24076
G1 X108.686 Y111.195 E3.27966
G1 X108.525 Y110.402 E3.32003
G1 X108.523 Y109.611 E3.3595
G1 X108.684 Y108.815 E3.39833
G1 X109.003 Y108.067 E3.43701
G1 X109.464 Y107.403 E3.47535
G1 X110.049 Y106.844 E3.51437
G1 X110.738 Y106.414 E3.55409
G1 X111.52 Y106.127 E3.59508
G1 X112.303 Y106.008 E3.63347
G1 X113.101 Y106.049 E3.67152
G1 X113.888 Y106.253 E3.71036
G1 X114.61 Y106.606 E3.75046
G1 X115.255 Y107.105 E3.79114
G1 X115.779 Y107.717 E3.82949
G1 X116.169 Y108.42 E3.86759
G1 X116.416 Y109.207 E3.90758
G1 X116.496 Y110.01 E3.94732
G1 X116.415 Y110.798 E3.98637
G1 X116.171 Y111.578 E4.02607
G1 X115.779 Y112.283 E4.06431
G1 X115.25 Y112.9 E4.10292
G1 X114.619 Y113.388 E4.14271
G1 X113.89 Y113.746 E4.18323
G1 X113.109 Y113.949 E4.22167
M205 X10 Y10
G0 F6000 X113.167 Y114.347
M205 X8 Y8
G1 F1200 X112.265 Y114.391 E4.26673
G1 X111.405 Y114.26 E4.31013
G1 X110.569 Y113.952 E4.35457
G1 X109.802 Y113.475 E4.39964
G1 X109.156 Y112.856 E4.44427
G1 X108.659 Y112.143 E4.48763
G1 X108.302 Y111.313 E4.53271
G1 X108.125 Y110.443 E4.577
G1 X108.123 Y109.572 E4.62046
G1 X108.3 Y108.695 E4.6651
G1 X108.651 Y107.872 E4.70973
G1 X109.156 Y107.144 E4.75394
G1 X109.803 Y106.526 E4.79857
G1 X110.564 Y106.051 E4.84333
G1 X111.415 Y105.739 E4.88855
G1 X112.283 Y105.607 E4.93235
G1 X113.163 Y105.652 E4.97631
G1 X114.028 Y105.876 E5.02089
G1 X114.826 Y106.267 E5.06523
G1 X115.53 Y106.811 E5.10961
G1 X116.11 Y107.488 E5.15409
G1 X116.539 Y108.262 E5.19824
G1 X116.81 Y109.125 E5.24337
G1 X116.898 Y110.011 E5.28779
G1 X116.809 Y110.88 E5.33137
G1 X116.541 Y111.736 E5.37612
G1 X116.11 Y112.512 E5.4204
G1 X115.528 Y113.191 E5.46502
G1 X114.832 Y113.729 E5.50891
G1 X114.029 Y114.123 E5.55353
G1 X113.167 Y114.347 E5.59797
M205 X10 Y10
G0 F6000 X113.224 Y114.745
M205 X8 Y8
;TYPE:WALL-OUTER
G1 F1200 X112.249 Y114.793 E5.64667
G1 X111.313 Y114.65 E5.69391
G1 X111.3 Y114.647 E5.69457
G1 X110.404 Y114.317 E5.74221
G1 X110.382 Y114.307 E5.74342
G1 X109.558 Y113.794 E5.79184
G1 X108.849 Y113.116 E5.84078
G1 X108.306 Y112.336 E5.8882
G1 X107.919 Y111.435 E5.93712
G1 X107.725 Y110.484 E5.98554
G1 X107.723 Y109.533 E6.03299
G1 X107.916 Y108.575 E6.08174
G1 X108.299 Y107.677 E6.13045
G1 X108.848 Y106.885 E6.17853
G1 X109.557 Y106.208 E6.22744
G1 X110.383 Y105.693 E6.276
G1 X110.397 Y105.686 E6.27678
G1 X111.31 Y105.351 E6.3253
G1 X112.263 Y105.206 E6.37339
G1 X113.225 Y105.255 E6.42145
G1 X114.168 Y105.499 E6.47004
G1 X115.042 Y105.928 E6.51862
G1 X115.794 Y106.509 E6.56603
G1 X115.814 Y106.528 E6.56741
G1 X116.433 Y107.25 E6.61485
G1 X116.449 Y107.274 E6.61629
G1 X116.909 Y108.104 E6.66363
G1 X117.2 Y109.029 E6.71201
G1 X117.205 Y109.059 E6.71353
G1 X117.299 Y110.003 E6.76086
G1 X117.299 Y110.02 E6.76171
G1 X117.203 Y110.962 E6.80895
G1 X116.911 Y111.894 E6.85767
G1 X116.447 Y112.73 E6.90538
G1 X116.435 Y112.748 E6.90645
G1 X115.815 Y113.471 E6.95397
G1 X115.795 Y113.49 E6.95535
G1 X115.045 Y114.07 E7.00265
G1 X114.169 Y114.5 E7.05133
G1 X113.224 Y114.745 E7.10004
M205 X10 Y10
G0 F6000 X113.025 Y114.754
G0 X113.005 Y114.315
G0 X113.291 Y115.163
M205 X8 Y8
G1 F1200 X114.314 Y114.897 E7.15277
G1 X115.262 Y114.432 E7.20545
G1 X116.098 Y113.785 E7.25819
G1 X116.786 Y112.983 E7.31091
G1 X117.3 Y112.06 E7.36362
G1 X117.616 Y111.05 E7.41642
G1 X117.722 Y110 E7.46907
G1 X117.617 Y108.949 E7.52176
G1 X117.299 Y107.941 E7.57449
G1 X116.786 Y107.017 E7.62722
G1 X116.098 Y106.215 E7.67994
G1 X115.262 Y105.568 E7.73268
G1 X114.314 Y105.102 E7.78538
G1 X113.291 Y104.838 E7.83809
G1 X112.235 Y104.783 E7.89085
G1 X111.191 Y104.944 E7.94355
G1 X110.201 Y105.311 E7.99622
G1 X109.303 Y105.87 E8.04899
G1 X108.537 Y106.598 E8.10172
G1 X107.934 Y107.465 E8.1544
G1 X107.517 Y108.437 E8.20717
G1 X107.304 Y109.471 E8.25984
G1 X107.305 Y110.528 E8.31258
G1 X107.517 Y111.563 E8.36528
G1 X107.934 Y112.535 E8.41805
G1 X108.537 Y113.402 E8.47074
G1 X109.302 Y114.131 E8.52346
G1 X110.201 Y114.689 E8.57625
G1 X111.192 Y115.056 E8.62897
G1 X112.236 Y115.216 E8.68166
G1 X113.291 Y115.163 E8.73436
M205 X10 Y10
G0 F6000 X113.484 Y115.113
G0 X113.023 Y115.797
M205 X8 Y8
G1 F1200 X112.023 Y115.798 E8.78426
G1 X111.944 Y115.793 E8.7882
G1 X110.949 Y115.608 E8.8387
G1 X110.892 Y115.594 E8.84162
G1 X109.951 Y115.23 E8.89196
G1 X109.882 Y115.198 E8.89576
G1 X109.033 Y114.672 E8.94558
G1 X108.974 Y114.631 E8.94917
G1 X108.229 Y113.951 E8.99949
G1 X108.185 Y113.905 E9.00267
G1 X107.571 Y113.092 E9.05349
G1 X107.536 Y113.037 E9.05675
G1 X107.085 Y112.131 E9.10724
G1 X107.062 Y112.075 E9.11026
G1 X106.788 Y111.114 E9.16011
G1 X106.772 Y111.029 E9.16443
G1 X106.68 Y110.037 E9.21413
G1 X106.681 Y109.959 E9.21802
G1 X106.772 Y108.968 E9.26767
G1 X106.788 Y108.89 E9.27165
G1 X107.061 Y107.926 E9.32163
G1 X107.084 Y107.87 E9.32465
G1 X107.535 Y106.964 E9.37514
G1 X107.57 Y106.909 E9.37839
G1 X108.184 Y106.096 E9.42922
G1 X108.228 Y106.05 E9.4324
G1 X108.973 Y105.37 E9.48272
G1 X109.034 Y105.327 E9.48645
G1 X109.885 Y104.799 E9.53641
G1 X109.944 Y104.773 E9.53963
G1 X110.885 Y104.407 E9.59
G1 X110.949 Y104.393 E9.59327
G1 X111.945 Y104.206 E9.64383
G1 X112.017 Y104.203 E9.64742
G1 X113.022 Y104.202 E9.69756
G1 X114.079 Y104.397 E9.75119
G1 X114.141 Y104.419 E9.75447
G1 X115.084 Y104.784 E9.80492
G1 X116 Y105.348 E9.85858
G1 X116.798 Y106.073 E9.91237
G1 X117.445 Y106.927 E9.96583
G1 X117.927 Y107.894 E10.01973
G1 X118.222 Y108.927 E10.07333
G1 X118.321 Y110 E10.12709
G1 X118.229 Y110.998 E10.17709
G1 X118.22 Y111.073 E10.18086
G1 X117.926 Y112.106 E10.23444
G1 X117.479 Y113.006 E10.28457
G1 X117.445 Y113.07 E10.28819
G1 X116.797 Y113.926 E10.34175
G1 X116.05 Y114.607 E10.39218
G1 X115.999 Y114.651 E10.39554
G1 X115.085 Y115.215 E10.44913
G1 X114.142 Y115.58 E10.49957
G1 X114.081 Y115.601 E10.50279
G1 X113.086 Y115.788 E10.5533
G1 X113.023 Y115.797 E10.55648
M205 X10 Y10
G0 F6000 X112.823 Y115.797
G0 X112.669 Y115.497
M205 X8 Y8
;TYPE:SKIN
G1 F1200 X112.393 Y115.505 E10.56519
G1 X111.436 Y115.396 E10.59559
G1 X110.652 Y115.178 E10.62128
G1 X110.166 Y114.974 E10.63792
G1 X109.541 Y114.632 E10.66041
M205 X10 Y10
G0 F6000 X109.12 Y114.494
M205 X8 Y8
G1 F1200 X108.12 Y113.494 E10.69568
M205 X10 Y10
G0 F6000 X107.918 Y113.009
M205 X8 Y8
G1 F1200 X107.5 Y112.308 E10.71885
G1 X107.101 Y111.061 E10.75601
G1 X106.992 Y110.103 E10.78337
G1 X107.072 Y109.052 E10.81329
G1 X107.388 Y107.953 E10.84574
G1 X107.869 Y107.02 E10.87554
G1 X108.633 Y106.088 E10.90974
G1 X109.408 Y105.448 E10.93827
G1 X110.321 Y104.947 E10.96782
G1 X111.399 Y104.611 E10.99987
G1 X112.419 Y104.499 E11.02899
G1 X113.322 Y104.554 E11.05467
G1 X114.497 Y104.88 E11.08928
G1 X115.007 Y105.107 E11.10512
M205 X10 Y10
G0 F6000 X115.375 Y105.193
M205 X8 Y8
G1 F1200 X117.345 Y107.162 E11.1746
M205 X10 Y10
G0 F6000 X117.374 Y107.475
M205 X8 Y8
G1 F1200 X117.643 Y108.027 E11.19164
G1 X117.94 Y109.172 E11.22445
G1 X117.987 Y110.35 E11.25716
G1 X117.837 Y111.332 E11.28472
G1 X117.463 Y112.372 E11.31538
G1 X116.935 Y113.258 E11.34399
G1 X116.12 Y114.14 E11.3773
G1 X115.118 Y114.835 E11.41113
G1 X114.125 Y115.256 E11.44105
G1 X113.196 Y115.459 E11.46743
M205 X10 Y10
G0 F6000 X113.049 Y115.594
M205 X8 Y8
G1 F1200 X112.835 Y115.381 E11.47496
M205 X10 Y10
G1 F1500 E5.47496
G1 F600 Z0.375
;MESH:NONMESH
G0 F6000 X111.696 Y113.514 Z0.375
;TIME_ELAPSED:15.427043
;LAYER:1
M106 S127.5
;MESH:led-weinkorken.stl
G0 X111.696 Y113.514 Z0.575
M205 X8 Y8
;TYPE:WALL-INNER
G1 F600 Z0.5
G1 F1500 E11.47496
G1 F1350 X112.5 Y113.606 E11.50188
G1 X113.304 Y113.514 E11.52879
G1 X114.064 Y113.249 E11.55557
G1 X114.748 Y112.82 E11.58242
G1 X115.32 Y112.248 E11.60932
G1 X115.749 Y111.564 E11.63618
G1 X116.014 Y110.804 E11.66295
G1 X116.106 Y110 E11.68986
G1 X116.014 Y109.196 E11.71678
G1 X115.749 Y108.436 E11.74355
G1 X115.32 Y107.752 E11.77041
G1 X114.748 Y107.18 E11.79731
G1 X114.064 Y106.751 E11.82416
G1 X113.304 Y106.486 E11.85093
G1 X112.5 Y106.394 E11.87785
G1 X111.696 Y106.486 E11.90477
G1 X110.936 Y106.751 E11.93154
G1 X110.252 Y107.18 E11.95839
G1 X109.68 Y107.752 E11.9853
G1 X109.251 Y108.436 E12.01215
G1 X108.986 Y109.196 E12.03892
G1 X108.894 Y110 E12.06584
G1 X108.986 Y110.804 E12.09275
G1 X109.251 Y111.564 E12.11952
G1 X109.68 Y112.248 E12.14638
G1 X110.252 Y112.82 E12.17328
G1 X110.936 Y113.249 E12.20014
G1 X111.696 Y113.514 E12.22691
M205 X10 Y10
G0 F6000 X111.786 Y113.122
M205 X8 Y8
G1 F1350 X112.5 Y113.203 E12.25081
G1 X113.214 Y113.122 E12.27471
G1 X113.89 Y112.886 E12.29852
G1 X114.497 Y112.505 E12.32236
G1 X115.005 Y111.997 E12.34625
G1 X115.386 Y111.39 E12.37009
G1 X115.622 Y110.714 E12.3939
G1 X115.703 Y110 E12.4178
G1 X115.622 Y109.286 E12.4417
G1 X115.386 Y108.61 E12.46552
G1 X115.005 Y108.003 E12.48935
G1 X114.497 Y107.495 E12.51325
G1 X113.89 Y107.114 E12.53709
G1 X113.214 Y106.878 E12.5609
G1 X112.5 Y106.797 E12.5848
G1 X111.786 Y106.878 E12.6087
G1 X111.11 Y107.114 E12.63251
G1 X110.503 Y107.495 E12.65635
G1 X109.995 Y108.003 E12.68025
G1 X109.614 Y108.61 E12.70408
G1 X109.378 Y109.286 E12.7279
G1 X109.297 Y110 E12.7518
G1 X109.378 Y110.714 E12.7757
G1 X109.614 Y111.39 E12.79951
G1 X109.995 Y111.997 E12.82335
G1 X110.503 Y112.505 E12.84724
G1 X111.11 Y112.886 E12.87108
G1 X111.786 Y113.122 E12.89489
M205 X10 Y10
G0 F6000 X111.876 Y112.73
M205 X8 Y8
;TYPE:WALL-OUTER
G1 F1350 X112.5 Y112.8 E12.91578
G1 X113.124 Y112.73 E12.93666
G1 X113.715 Y112.523 E12.95749
G1 X114.246 Y112.19 E12.97834
G1 X114.69 Y111.746 E12.99922
G1 X115.023 Y111.215 E13.02007
G1 X115.23 Y110.624 E13.0409
G1 X115.3 Y110 E13.06178
G1 X115.23 Y109.376 E13.08266
G1 X115.023 Y108.785 E13.10349
G1 X114.69 Y108.254 E13.12434
G1 X114.246 Y107.81 E13.14522
G1 X113.715 Y107.477 E13.16607
G1 X113.124 Y107.27 E13.1869
G1 X112.5 Y107.2 E13.20778
G1 X111.876 Y107.27 E13.22867
G1 X111.285 Y107.477 E13.24949
G1 X110.754 Y107.81 E13.27034
G1 X110.31 Y108.254 E13.29123
G1 X109.977 Y108.785 E13.31207
G1 X109.77 Y109.376 E13.3329
G1 X109.7 Y110 E13.35378
G1 X109.77 Y110.624 E13.37467
G1 X109.977 Y111.215 E13.3955
G1 X110.31 Y111.746 E13.41634
G1 X110.754 Y112.19 E13.43723
G1 X111.285 Y112.523 E13.45807
G1 X111.876 Y112.73 E13.4789
M205 X10 Y10
G0 F6000 X112.075 Y112.752
G0 X112.025 Y113.189
G0 X113.052 Y113.956
M205 X8 Y8
;TYPE:WALL-INNER
G1 F1350 X112.361 Y113.992 E13.50144
G1 X112.229 Y113.986 E13.50583
G1 X111.546 Y113.881 E13.52872
G1 X111.434 Y113.848 E13.5326
G1 X110.751 Y113.596 E13.55681
G1 X110.055 Y113.165 E13.58378
G1 X109.466 Y112.604 E13.61018
G1 X109.001 Y111.936 E13.63608
G1 X108.682 Y111.19 E13.66194
G1 X108.531 Y110.453 E13.68696
G1 X108.521 Y110.36 E13.69007
G1 X108.52 Y109.654 E13.71355
G1 X108.532 Y109.539 E13.7174
G1 X108.675 Y108.84 E13.74113
G1 X108.699 Y108.768 E13.74365
G1 X109.005 Y108.056 E13.76943
G1 X109.453 Y107.411 E13.79445
G1 X110.053 Y106.837 E13.82137
G1 X110.753 Y106.403 E13.84843
G1 X111.436 Y106.152 E13.87263
G1 X111.543 Y106.12 E13.87635
G1 X112.238 Y106.014 E13.89973
G1 X112.355 Y106.006 E13.90363
G1 X113.048 Y106.042 E13.9263
G1 X113.17 Y106.062 E13.93041
G1 X113.847 Y106.236 E13.95325
G1 X113.943 Y106.275 E13.9567
G1 X114.596 Y106.595 E13.98088
G1 X115.256 Y107.103 E14.00859
G1 X115.79 Y107.727 E14.03471
G1 X116.175 Y108.425 E14.06007
G1 X116.403 Y109.15 E14.08452
G1 X116.422 Y109.241 E14.08762
G1 X116.493 Y109.948 E14.11125
G1 X116.495 Y110.053 E14.11471
G1 X116.423 Y110.762 E14.13819
G1 X116.404 Y110.847 E14.14108
G1 X116.184 Y111.55 E14.16558
G1 X116.149 Y111.625 E14.16834
G1 X115.784 Y112.28 E14.19258
G1 X115.252 Y112.903 E14.21866
G1 X114.608 Y113.398 E14.24568
G1 X113.887 Y113.751 E14.27238
G1 X113.16 Y113.938 E14.2963
G1 X113.052 Y113.956 E14.29995
M205 X10 Y10
