;FLAVOR:Marlin
;TIME:1065
;Filament used: 0.625352m
;Layer height: 0.2
;MINX:101.708
;MINY:99.204
;MINZ:0.3
;MAXX:123.289
;MAXY:120.796
;MAXZ:10.175
;Generated with Cura_SteamEngine 4.13.1
M140 S60
M105
M190 S60
M104 S200
M105
M109 S200
M82 ;absolute extrusion mode
G21                                        ; metric values
G90                                        ; absolute positioning
M82                                        ; set extruder to absolute mode
M107                                       ; start with the fan off
M190 S60                                   ; preheat and wait for bed
M109 S210                                  ; preheat and wait for hotend
M300 S1000 P500                            ; BEEP heating done
G28 X0 Y10 Z0                              ; move X/Y to min endstops
M420 S1                                    ; enable mesh leveling
G0 Z0.15                                   ; lift nozzle a bit
G0 X2                                      ; move away from clips
G92 E0                                     ; zero the extruded length
G1 Y50 E25 F500                            ; Extrude 25mm of filament in a 5cm line.
G92 E0                                     ; zero the extruded length again
G1 E-2 F500                                ; Retract a little
G1 Y120 F4000                              ; Quickly wipe away from the filament line
G92 E0
G92 E0
G1 F1500 E-6
;LAYER_COUNT:50
;LAYER:0
M106 S76.5
M205 X10 Y10
G1 F600 Z0.375
;MESH:led-wk-deckel.stl
G0 F6000 X105.429 Y112.814 Z0.375
M205 X8 Y8
;TYPE:WALL-INNER
G1 F600 Z0.3
G1 F1500 E0
G1 F1200 X106.132 Y112.985 E0.0361
G1 X106.859 Y112.985 E0.07237
G1 X107.57 Y112.805 E0.10896
G1 X108.204 Y112.472 E0.14468
G1 X108.744 Y111.989 E0.18083
G1 X109.154 Y111.395 E0.21684
G1 X109.41 Y110.718 E0.25295
G1 X109.497 Y110 E0.28903
G1 X109.411 Y109.283 E0.32506
G1 X109.155 Y108.606 E0.36117
G1 X108.745 Y108.012 E0.39718
G1 X108.205 Y107.529 E0.43332
G1 X107.571 Y107.196 E0.46905
G1 X106.863 Y107.016 E0.5055
G1 X106.135 Y107.014 E0.54182
G1 X105.43 Y107.185 E0.57801
G1 X104.787 Y107.522 E0.61423
G1 X104.242 Y108.002 E0.65046
G1 X103.828 Y108.599 E0.68671
G1 X103.571 Y109.279 E0.72297
G1 X103.483 Y110 E0.75921
G1 X103.57 Y110.719 E0.79534
G1 X103.827 Y111.399 E0.83161
G1 X104.241 Y111.997 E0.8679
G1 X104.786 Y112.477 E0.90413
G1 X105.429 Y112.814 E0.94035
M205 X10 Y10
G0 F6000 X105.571 Y112.437
M205 X8 Y8
G1 F1200 X106.18 Y112.585 E0.97161
G1 X106.809 Y112.585 E1.003
G1 X107.426 Y112.429 E1.03475
G1 X107.974 Y112.141 E1.06563
G1 X108.442 Y111.723 E1.09694
G1 X108.797 Y111.208 E1.12814
G1 X109.019 Y110.622 E1.15941
G1 X109.094 Y110 E1.19066
G1 X109.02 Y109.379 E1.22187
G1 X108.798 Y108.793 E1.25313
G1 X108.443 Y108.278 E1.28433
G1 X107.975 Y107.86 E1.31564
G1 X107.427 Y107.572 E1.34653
G1 X106.812 Y107.416 E1.37818
G1 X106.182 Y107.414 E1.40961
G1 X105.572 Y107.562 E1.44093
G1 X105.015 Y107.854 E1.4723
G1 X104.543 Y108.27 E1.50369
G1 X104.185 Y108.787 E1.53507
G1 X103.962 Y109.375 E1.56644
G1 X103.886 Y110 E1.59785
G1 X103.961 Y110.623 E1.62916
G1 X104.184 Y111.212 E1.66058
G1 X104.542 Y111.729 E1.69195
G1 X105.014 Y112.145 E1.72334
G1 X105.571 Y112.437 E1.75472
M205 X10 Y10
G0 F6000 X105.713 Y112.06
M205 X8 Y8
;TYPE:WALL-OUTER
G1 F1200 X106.228 Y112.185 E1.78116
G1 X106.759 Y112.185 E1.80765
G1 X107.282 Y112.053 E1.83456
G1 X107.744 Y111.81 E1.8606
G1 X108.14 Y111.457 E1.88707
G1 X108.44 Y111.021 E1.91347
G1 X108.628 Y110.526 E1.93989
G1 X108.691 Y110 E1.96632
G1 X108.629 Y109.475 E1.99269
G1 X108.441 Y108.98 E2.01911
G1 X108.141 Y108.544 E2.04551
G1 X107.745 Y108.191 E2.07198
G1 X107.283 Y107.948 E2.09802
G1 X106.761 Y107.816 E2.12488
G1 X106.229 Y107.814 E2.15143
G1 X105.714 Y107.939 E2.17787
G1 X105.243 Y108.186 E2.2044
G1 X104.844 Y108.538 E2.23095
G1 X104.542 Y108.975 E2.25745
G1 X104.353 Y109.472 E2.28397
G1 X104.289 Y110 E2.31051
G1 X104.352 Y110.527 E2.33699
G1 X104.541 Y111.024 E2.36352
G1 X104.843 Y111.461 E2.39002
G1 X105.242 Y111.813 E2.41656
G1 X105.713 Y112.06 E2.4431
M205 X10 Y10
G0 F6000 X105.907 Y112.107
G0 X105.803 Y112.535
G1 F1500 E-3.5569
G1 F600 Z0.375
G0 F6000 X118.117 Y112.984 Z0.375
M205 X8 Y8
;TYPE:WALL-INNER
G1 F600 Z0.3
G1 F1500 E2.4431
G1 F1200 X118.845 Y112.986 E2.47942
G1 X119.55 Y112.815 E2.51561
G1 X120.193 Y112.478 E2.55183
G1 X120.738 Y111.998 E2.58806
G1 X121.152 Y111.401 E2.62431
G1 X121.409 Y110.721 E2.66057
G1 X121.497 Y110 E2.69681
G1 X121.41 Y109.281 E2.73294
G1 X121.153 Y108.601 E2.76921
G1 X120.739 Y108.003 E2.8055
G1 X120.194 Y107.523 E2.84173
G1 X119.551 Y107.186 E2.87795
G1 X118.848 Y107.015 E2.91404
G1 X118.121 Y107.015 E2.95031
G1 X117.41 Y107.195 E2.9869
G1 X116.776 Y107.528 E3.02263
G1 X116.236 Y108.011 E3.05878
G1 X115.826 Y108.605 E3.09479
G1 X115.57 Y109.282 E3.1309
G1 X115.483 Y110 E3.16698
G1 X115.569 Y110.717 E3.20301
G1 X115.825 Y111.394 E3.23912
G1 X116.235 Y111.988 E3.27513
G1 X116.775 Y112.471 E3.31127
G1 X117.409 Y112.804 E3.347
G1 X118.117 Y112.984 E3.38344
M205 X10 Y10
G0 F6000 X118.168 Y112.584
M205 X8 Y8
G1 F1200 X118.798 Y112.586 E3.41488
G1 X119.408 Y112.438 E3.44619
G1 X119.965 Y112.146 E3.47757
G1 X120.437 Y111.73 E3.50896
G1 X120.795 Y111.213 E3.54033
G1 X121.018 Y110.625 E3.5717
G1 X121.094 Y110 E3.60311
G1 X121.019 Y109.377 E3.63442
G1 X120.796 Y108.788 E3.66584
G1 X120.438 Y108.271 E3.69722
G1 X119.966 Y107.855 E3.7286
G1 X119.409 Y107.563 E3.75998
G1 X118.8 Y107.415 E3.79125
G1 X118.171 Y107.415 E3.82263
G1 X117.554 Y107.571 E3.85438
G1 X117.006 Y107.859 E3.88526
G1 X116.538 Y108.277 E3.91657
G1 X116.183 Y108.792 E3.94778
G1 X115.961 Y109.378 E3.97904
G1 X115.886 Y110 E4.0103
G1 X115.96 Y110.621 E4.0415
G1 X116.182 Y111.207 E4.07276
G1 X116.537 Y111.722 E4.10397
G1 X117.005 Y112.14 E4.13527
G1 X117.553 Y112.428 E4.16616
G1 X118.168 Y112.584 E4.19781
M205 X10 Y10
G0 F6000 X118.219 Y112.184
M205 X8 Y8
;TYPE:WALL-OUTER
G1 F1200 X118.751 Y112.186 E4.22435
G1 X119.266 Y112.061 E4.25079
G1 X119.737 Y111.814 E4.27733
G1 X120.136 Y111.462 E4.30387
G1 X120.438 Y111.025 E4.33037
G1 X120.627 Y110.528 E4.3569
G1 X120.691 Y110 E4.38344
G1 X120.628 Y109.473 E4.40992
G1 X120.439 Y108.976 E4.43644
G1 X120.137 Y108.539 E4.46295
G1 X119.738 Y108.187 E4.48949
G1 X119.267 Y107.94 E4.51602
G1 X118.752 Y107.815 E4.54246
G1 X118.221 Y107.815 E4.56896
G1 X117.698 Y107.947 E4.59587
G1 X117.236 Y108.19 E4.62191
G1 X116.84 Y108.543 E4.64838
G1 X116.54 Y108.979 E4.67478
G1 X116.352 Y109.474 E4.7012
G1 X116.289 Y110 E4.72763
G1 X116.351 Y110.525 E4.754
G1 X116.539 Y111.02 E4.78042
G1 X116.839 Y111.456 E4.80682
G1 X117.235 Y111.809 E4.83329
G1 X117.697 Y112.052 E4.85933
G1 X118.219 Y112.184 E4.88619
M205 X10 Y10
G0 F6000 X118.419 Y112.184
G0 X118.417 Y112.624
G1 F1500 E-1.11381
G1 F600 Z0.375
G0 F6000 X113.346 Y119.962 Z0.375
M205 X8 Y8
;TYPE:WALL-INNER
G1 F600 Z0.3
G1 F1500 E4.88619
G1 F1200 X112.209 Y119.994 E4.94294
G1 X111.057 Y119.894 E5.00063
G1 X109.941 Y119.669 E5.05743
G1 X108.872 Y119.322 E5.1135
G1 X107.831 Y118.846 E5.17061
G1 X106.838 Y118.247 E5.22846
G1 X105.944 Y117.557 E5.28481
G1 X105.129 Y116.765 E5.3415
G1 X104.395 Y115.869 E5.39929
G1 X103.782 Y114.915 E5.45586
G1 X103.285 Y113.903 E5.51211
G1 X102.897 Y112.815 E5.56974
G1 X102.637 Y111.693 E5.6272
G1 X102.508 Y110.574 E5.6834
G1 X102.508 Y109.426 E5.74067
G1 X102.637 Y108.307 E5.79687
G1 X102.899 Y107.179 E5.85464
G1 X103.285 Y106.097 E5.91196
G1 X103.782 Y105.085 E5.96821
G1 X104.395 Y104.131 E6.02478
G1 X105.131 Y103.233 E6.08271
G1 X105.944 Y102.443 E6.13926
G1 X106.838 Y101.753 E6.1956
G1 X107.831 Y101.154 E6.25346
G1 X108.872 Y100.678 E6.31057
G1 X109.941 Y100.331 E6.36664
G1 X111.057 Y100.106 E6.42344
G1 X112.209 Y100.006 E6.48113
G1 X113.346 Y100.038 E6.53787
G1 X114.478 Y100.202 E6.59494
G1 X115.576 Y100.49 E6.65157
G1 X116.647 Y100.908 E6.70893
G1 X117.652 Y101.437 E6.76559
G1 X118.598 Y102.084 E6.82277
G1 X119.459 Y102.831 E6.87964
G1 X120.231 Y103.672 E6.93659
G1 X120.904 Y104.597 E6.99366
G1 X121.462 Y105.586 E7.05032
G1 X121.903 Y106.629 E7.10681
G1 X122.231 Y107.744 E7.1648
G1 X122.422 Y108.859 E7.22124
G1 X122.489 Y110 E7.27826
G1 X122.422 Y111.141 E7.33528
G1 X122.231 Y112.256 E7.39172
G1 X121.903 Y113.371 E7.4497
G1 X121.462 Y114.414 E7.5062
G1 X120.904 Y115.403 E7.56285
G1 X120.231 Y116.328 E7.61992
G1 X119.459 Y117.169 E7.67688
G1 X118.598 Y117.916 E7.73375
G1 X117.652 Y118.563 E7.79093
G1 X116.647 Y119.092 E7.84759
G1 X115.576 Y119.51 E7.90494
G1 X114.478 Y119.798 E7.96158
G1 X113.346 Y119.962 E8.01864
M205 X10 Y10
G0 F6000 X113.38 Y120.361
M205 X8 Y8
G1 F1200 X112.194 Y120.395 E8.07784
G1 X111.006 Y120.292 E8.13733
G1 X109.843 Y120.057 E8.19652
G1 X108.721 Y119.693 E8.25537
G1 X107.639 Y119.198 E8.31473
G1 X106.616 Y118.581 E8.37434
G1 X105.68 Y117.859 E8.43331
G1 X104.834 Y117.037 E8.49216
G1 X104.075 Y116.109 E8.55197
G1 X103.432 Y115.109 E8.61129
G1 X102.914 Y114.054 E8.66992
G1 X102.514 Y112.934 E8.72926
G1 X102.243 Y111.768 E8.78898
G1 X102.108 Y110.594 E8.84794
G1 X102.108 Y109.406 E8.90721
G1 X102.243 Y108.232 E8.96616
G1 X102.514 Y107.066 E9.02588
G1 X102.914 Y105.946 E9.08522
G1 X103.432 Y104.891 E9.14385
G1 X104.075 Y103.891 E9.20317
G1 X104.836 Y102.961 E9.26312
G1 X105.68 Y102.141 E9.32183
G1 X106.616 Y101.419 E9.3808
G1 X107.639 Y100.802 E9.44041
G1 X108.721 Y100.307 E9.49977
G1 X109.843 Y99.943 E9.55862
G1 X111.006 Y99.708 E9.61781
G1 X112.194 Y99.605 E9.6773
G1 X113.38 Y99.639 E9.7365
G1 X114.557 Y99.809 E9.79583
G1 X115.702 Y100.109 E9.85488
G1 X116.811 Y100.542 E9.91428
G1 X117.859 Y101.094 E9.97337
G1 X118.842 Y101.766 E10.03278
G1 X119.739 Y102.544 E10.09202
G1 X120.538 Y103.415 E10.15098
G1 X121.24 Y104.38 E10.21052
G1 X121.822 Y105.412 E10.26963
G1 X122.282 Y106.499 E10.32852
G1 X122.62 Y107.65 E10.38836
G1 X122.82 Y108.812 E10.44719
G1 X122.889 Y110 E10.50656
G1 X122.82 Y111.188 E10.56593
G1 X122.62 Y112.35 E10.62475
G1 X122.282 Y113.501 E10.6846
G1 X121.822 Y114.588 E10.74349
G1 X121.24 Y115.62 E10.8026
G1 X120.538 Y116.585 E10.86213
G1 X119.739 Y117.456 E10.9211
G1 X118.842 Y118.234 E10.98034
G1 X117.859 Y118.906 E11.03975
G1 X116.811 Y119.458 E11.09884
G1 X115.702 Y119.891 E11.15824
G1 X114.557 Y120.191 E11.21729
G1 X113.38 Y120.361 E11.27662
M205 X10 Y10
G0 F6000 X113.414 Y120.76
M205 X8 Y8
;TYPE:WALL-OUTER
G1 F1200 X112.179 Y120.796 E11.33826
G1 X110.955 Y120.69 E11.39956
G1 X109.743 Y120.445 E11.46125
G1 X108.573 Y120.065 E11.52262
G1 X107.447 Y119.55 E11.58439
G1 X106.394 Y118.915 E11.64574
G1 X105.416 Y118.161 E11.70735
G1 X104.539 Y117.309 E11.76835
G1 X103.75 Y116.344 E11.83054
G1 X103.085 Y115.309 E11.89191
G1 X102.543 Y114.205 E11.95327
G1 X102.129 Y113.047 E12.01463
G1 X101.849 Y111.843 E12.0763
G1 X101.708 Y110.614 E12.13801
G1 X101.708 Y109.386 E12.19928
G1 X101.849 Y108.157 E12.261
G1 X102.129 Y106.953 E12.32267
G1 X102.543 Y105.795 E12.38402
G1 X103.085 Y104.691 E12.44538
G1 X103.75 Y103.656 E12.50676
G1 X104.541 Y102.689 E12.56908
G1 X105.416 Y101.839 E12.62995
G1 X106.394 Y101.085 E12.69156
G1 X107.447 Y100.45 E12.7529
G1 X108.573 Y99.935 E12.81468
G1 X109.743 Y99.555 E12.87605
G1 X110.955 Y99.31 E12.93774
G1 X112.179 Y99.204 E12.99903
G1 X113.414 Y99.24 E13.06067
G1 X114.638 Y99.416 E13.12237
G1 X115.826 Y99.728 E13.18365
G1 X116.975 Y100.176 E13.24517
G1 X118.066 Y100.751 E13.3067
G1 X119.085 Y101.448 E13.36829
G1 X120.019 Y102.257 E13.42994
G1 X120.845 Y103.158 E13.49092
G1 X121.579 Y104.167 E13.55317
G1 X122.181 Y105.234 E13.61429
G1 X122.661 Y106.369 E13.67577
G1 X123.009 Y107.555 E13.73744
G1 X123.218 Y108.765 E13.7987
G1 X123.289 Y110 E13.86042
G1 X123.218 Y111.235 E13.92213
G1 X123.009 Y112.445 E13.98339
G1 X122.661 Y113.631 E14.04506
G1 X122.181 Y114.766 E14.10654
G1 X121.579 Y115.833 E14.16766
G1 X120.845 Y116.842 E14.22991
G1 X120.019 Y117.743 E14.29089
G1 X119.085 Y118.552 E14.35254
G1 X118.066 Y119.249 E14.41413
G1 X116.975 Y119.824 E14.47566
G1 X115.826 Y120.272 E14.53719
G1 X114.638 Y120.584 E14.59846
G1 X113.414 Y120.76 E14.66016
M205 X10 Y10
G0 F6000 X113.214 Y120.765
G0 X113.203 Y120.325
G0 X113.314 Y119.572
M205 X8 Y8
;TYPE:SKIN
G1 F1200 X112.215 Y119.604 E14.71501
G1 X111.114 Y119.508 E14.77015
G1 X110.044 Y119.292 E14.82461
G1 X109.014 Y118.958 E14.87863
G1 X108.01 Y118.499 E14.93371
G1 X107.054 Y117.922 E14.98941
G1 X106.198 Y117.261 E15.04337
G1 X105.423 Y116.509 E15.09725
G1 X104.711 Y115.638 E15.15337
G1 X104.126 Y114.729 E15.2073
G1 X103.641 Y113.741 E15.26221
G1 X103.272 Y112.708 E15.31694
G1 X103.023 Y111.632 E15.37204
G1 X102.898 Y110.547 E15.42653
G1 X102.898 Y109.453 E15.48111
G1 X103.023 Y108.368 E15.5356
G1 X103.274 Y107.286 E15.59101
G1 X103.641 Y106.259 E15.64542
G1 X104.126 Y105.271 E15.70033
G1 X104.711 Y104.362 E15.75426
G1 X105.427 Y103.487 E15.81067
G1 X106.198 Y102.739 E15.86426
G1 X107.054 Y102.078 E15.91822
G1 X108.01 Y101.501 E15.97393
G1 X109.014 Y101.042 E16.029
G1 X110.044 Y100.708 E16.08302
G1 X111.114 Y100.492 E16.13748
G1 X112.215 Y100.396 E16.19262
G1 X113.314 Y100.428 E16.24747
G1 X114.402 Y100.585 E16.30232
G1 X115.456 Y100.862 E16.35669
G1 X116.487 Y101.264 E16.41189
G1 X117.447 Y101.769 E16.46601
G1 X118.36 Y102.394 E16.52121
G1 X119.192 Y103.114 E16.5761
G1 X119.92 Y103.909 E16.62988
G1 X120.585 Y104.823 E16.68628
G1 X121.109 Y105.752 E16.73949
G1 X121.535 Y106.76 E16.79408
G1 X121.851 Y107.834 E16.84994
G1 X122.032 Y108.894 E16.90359
G1 X122.097 Y110 E16.95886
G1 X122.032 Y111.106 E17.01413
G1 X121.851 Y112.166 E17.06778
G1 X121.535 Y113.24 E17.12364
G1 X121.109 Y114.248 E17.17823
G1 X120.585 Y115.177 E17.23145
G1 X119.92 Y116.091 E17.28784
G1 X119.192 Y116.886 E17.34162
G1 X118.36 Y117.606 E17.39651
G1 X117.447 Y118.231 E17.45171
G1 X116.487 Y118.736 E17.50583
G1 X115.456 Y119.138 E17.56104
G1 X114.402 Y119.415 E17.61541
G1 X113.314 Y119.572 E17.67025
M205 X10 Y10
G1 F1500 E11.67025
G1 F600 Z0.375
G0 F6000 X117.269 Y113.171 Z0.375
M205 X8 Y8
G1 F600 Z0.3
G1 F1500 E17.67025
G1 F1200 X118.068 Y113.374 E17.71138
G1 X118.891 Y113.376 E17.75244
G1 X119.689 Y113.183 E17.7934
G1 X120.415 Y112.802 E17.8343
G1 X121.031 Y112.259 E17.87527
G1 X121.499 Y111.584 E17.91625
G1 X121.791 Y110.815 E17.95729
G1 X121.889 Y110 E17.99824
G1 X121.792 Y109.187 E18.03909
G1 X121.5 Y108.418 E18.08013
G1 X121.033 Y107.742 E18.12112
G1 X120.416 Y107.199 E18.16212
G1 X119.69 Y106.818 E18.20303
G1 X118.895 Y106.625 E18.24384
G1 X118.072 Y106.625 E18.2849
G1 X117.27 Y106.828 E18.32618
G1 X116.552 Y107.205 E18.36664
G1 X115.941 Y107.752 E18.40755
G1 X115.479 Y108.422 E18.44815
G1 X115.188 Y109.188 E18.48903
G1 X115.091 Y110 E18.52983
G1 X115.187 Y110.811 E18.57058
G1 X115.478 Y111.577 E18.61146
G1 X115.94 Y112.247 E18.65206
G1 X116.551 Y112.794 E18.69297
G1 X117.269 Y113.171 E18.73343
M205 X10 Y10
G1 F1500 E12.73343
G1 F600 Z0.375
G0 F6000 X108.428 Y112.795 Z0.375
M205 X8 Y8
G1 F600 Z0.3
G1 F1500 E18.73343
G1 F1200 X109.039 Y112.248 E18.77435
G1 X109.501 Y111.578 E18.81495
G1 X109.792 Y110.812 E18.85583
G1 X109.889 Y110 E18.89663
G1 X109.793 Y109.189 E18.93737
G1 X109.502 Y108.423 E18.97825
G1 X109.04 Y107.753 E19.01885
G1 X108.429 Y107.206 E19.05977
G1 X107.711 Y106.829 E19.10023
G1 X106.912 Y106.626 E19.14136
G1 X106.089 Y106.624 E19.18242
G1 X105.291 Y106.817 E19.22338
G1 X104.565 Y107.198 E19.26428
G1 X103.949 Y107.741 E19.30525
G1 X103.481 Y108.416 E19.34623
G1 X103.189 Y109.185 E19.38727
G1 X103.091 Y110 E19.42822
G1 X103.188 Y110.813 E19.46907
G1 X103.48 Y111.582 E19.51011
G1 X103.947 Y112.258 E19.5511
G1 X104.564 Y112.801 E19.5921
G1 X105.29 Y113.182 E19.63301
G1 X106.085 Y113.375 E19.67382
G1 X106.908 Y113.375 E19.71488
G1 X107.71 Y113.172 E19.75616
G1 X108.428 Y112.795 E19.79661
M205 X10 Y10
G1 F1500 E13.79661
G1 F600 Z0.375
G0 F6000 X105.189 Y115.937 Z0.375
M205 X8 Y8
G1 F600 Z0.3
G1 F1500 E19.79661
G1 F1200 X106.581 Y117.329 E19.89483
G1 X106.651 Y117.399
M205 X10 Y10
G1 F1500 E13.89483
G1 F600 Z0.375
G0 F6000 X108.208 Y118.39 Z0.375
M205 X8 Y8
G1 F600 Z0.3
G1 F1500 E19.89483
G1 F1200 X104.116 Y114.298 E20.18354
G1 X104.046 Y114.228
M205 X10 Y10
G0 F6000 X103.668 Y113.285
M205 X8 Y8
