;FLAVOR:Marlin
;TIME:1901
;Filament used: 1.40432m
;Layer height: 0.2
;MINX:69.822
;MINY:70.01
;MINZ:0.3
;MAXX:155.395
;MAXY:149.99
;MAXZ:4.975
;Generated with Cura_SteamEngine 4.13.1
M140 S60
M105
M190 S60
M104 S200
M105
M109 S200
M82 ;absolute extrusion mode
G21                                        ; metric values
G90                                        ; absolute positioning
M82                                        ; set extruder to absolute mode
M107                                       ; start with the fan off
M190 S60                                   ; preheat and wait for bed
M109 S210                                  ; preheat and wait for hotend
M300 S1000 P500                            ; BEEP heating done
G28 X0 Y10 Z0                              ; move X/Y to min endstops
M420 S1                                    ; enable mesh leveling
G0 Z0.15                                   ; lift nozzle a bit
G0 X2                                      ; move away from clips
G92 E0                                     ; zero the extruded length
G1 Y50 E25 F500                            ; Extrude 25mm of filament in a 5cm line.
G92 E0                                     ; zero the extruded length again
G1 E-2 F500                                ; Retract a little
G1 Y120 F4000                              ; Quickly wipe away from the filament line
G92 E0
G92 E0
G1 F1500 E-6
;LAYER_COUNT:24
;LAYER:0
M107
M205 X10 Y10
G1 F600 Z0.375
G0 F6000 X83.639 Y82.317 Z0.375
M205 X8 Y8
;TYPE:SKIRT
G1 F600 Z0.3
G1 F1500 E0
G1 F1200 X84.031 Y81.917 E0.02794
G1 X84.646 Y81.303 E0.0713
G1 X85.104 Y80.867 E0.10285
G1 X85.487 Y80.512 E0.1289
G1 X86.074 Y79.982 E0.16836
G1 X86.548 Y79.573 E0.19959
G1 X86.931 Y79.252 E0.22452
G1 X87.653 Y78.663 E0.27101
G1 X88.11 Y78.307 E0.29991
G1 X88.525 Y77.993 E0.32587
G1 X89.259 Y77.454 E0.3713
G1 X89.425 Y77.337 E0.38144
G1 X90.173 Y76.824 E0.42669
G1 X90.882 Y76.355 E0.4691
G1 X91.36 Y76.053 E0.49731
G1 X91.861 Y75.749 E0.52654
G1 X92.718 Y75.244 E0.57617
G1 X93.466 Y74.83 E0.61882
G1 X94.328 Y74.376 E0.66743
G1 X94.87 Y74.105 E0.69766
G1 X95.328 Y73.885 E0.72301
G1 X96.133 Y73.511 E0.76729
G1 X96.73 Y73.25 E0.7998
G1 X97.204 Y73.051 E0.82545
G1 X97.965 Y72.743 E0.86641
G1 X98.566 Y72.516 E0.89846
G1 X99.042 Y72.344 E0.92371
G1 X100.022 Y72.004 E0.97546
G1 X100.366 Y71.894 E0.99348
G1 X100.968 Y71.709 E1.0249
G1 X101.734 Y71.484 E1.06473
G1 X102.294 Y71.333 E1.09367
G1 X102.817 Y71.2 E1.12059
G1 X103.711 Y70.985 E1.16646
G1 X103.907 Y70.941 E1.17648
G1 X104.688 Y70.779 E1.21628
G1 X105.65 Y70.599 E1.2651
G1 X106.234 Y70.503 E1.29463
G1 X106.764 Y70.424 E1.32137
G1 X107.773 Y70.289 E1.37215
G1 X108.673 Y70.194 E1.4173
G1 X109.606 Y70.113 E1.46403
G1 X110.132 Y70.079 E1.49032
G1 X110.711 Y70.05 E1.51925
G1 X111.594 Y70.018 E1.56333
G1 X112.146 Y70.01 E1.59087
G1 X112.631 Y70.01 E1.61507
G1 X113.575 Y70.023 E1.66217
G1 X114.168 Y70.044 E1.69177
G1 X114.678 Y70.07 E1.71725
G1 X115.608 Y70.13 E1.76374
G1 X116.119 Y70.173 E1.78933
G1 X116.689 Y70.231 E1.81791
G1 X117.728 Y70.352 E1.8701
G1 X118.599 Y70.478 E1.914
G1 X119.527 Y70.63 E1.96092
G1 X120.128 Y70.743 E1.99143
G1 X120.661 Y70.852 E2.01857
G1 X121.467 Y71.027 E2.05972
G1 X122.046 Y71.165 E2.08941
G1 X122.559 Y71.297 E2.11584
G1 X123.453 Y71.538 E2.16204
G1 X123.647 Y71.593 E2.1721
G1 X124.539 Y71.865 E2.21862
G1 X125.325 Y72.12 E2.25985
G1 X125.868 Y72.31 E2.28855
G1 X126.393 Y72.502 E2.31644
G1 X127.204 Y72.81 E2.35972
G1 X127.68 Y73.002 E2.38532
G1 X128.222 Y73.23 E2.41466
G1 X129.039 Y73.587 E2.45914
G1 X129.543 Y73.822 E2.48688
G1 X130.042 Y74.063 E2.51453
G1 X130.821 Y74.451 E2.55795
G1 X131.314 Y74.711 E2.58576
G1 X131.825 Y74.99 E2.6148
G1 X132.709 Y75.49 E2.66547
G1 X133.451 Y75.938 E2.70871
G1 X134.263 Y76.448 E2.75655
G1 X134.768 Y76.782 E2.78676
G1 X135.222 Y77.092 E2.81419
G1 X135.906 Y77.572 E2.85588
G1 X136.383 Y77.923 E2.88542
G1 X136.836 Y78.267 E2.9138
G1 X137.513 Y78.795 E2.95663
G1 X137.91 Y79.118 E2.98217
G1 X138.351 Y79.489 E3.01092
G1 X139.045 Y80.088 E3.05666
G1 X139.47 Y80.472 E3.08523
G1 X139.852 Y80.827 E3.11125
G1 X140.518 Y81.463 E3.15719
G1 X140.898 Y81.842 E3.18397
G1 X141.262 Y82.216 E3.21001
G1 X141.972 Y82.967 E3.26157
G1 X142.32 Y83.354 E3.28753
G1 X142.633 Y83.709 E3.31114
G1 X143.218 Y84.392 E3.35601
G1 X143.549 Y84.795 E3.38203
G1 X143.893 Y85.228 E3.40962
G1 X144.516 Y86.035 E3.46048
G1 X144.843 Y86.48 E3.48803
G1 X145.074 Y86.802 E3.5078
G1 X145.704 Y87.709 E3.5629
G1 X146.155 Y88.401 E3.60411
G1 X146.672 Y89.225 E3.65264
G1 X146.958 Y89.703 E3.68043
G1 X147.255 Y90.219 E3.71013
G1 X147.669 Y90.962 E3.75257
G1 X147.959 Y91.51 E3.7835
G1 X148.166 Y91.915 E3.80619
G1 X148.646 Y92.887 E3.86027
G1 X148.993 Y93.647 E3.90196
G1 X149.034 Y93.737 E3.90689
G1 X149.403 Y94.587 E3.95312
G1 X149.601 Y95.073 E3.9793
G1 X149.823 Y95.639 E4.00963
G1 X150.21 Y96.667 E4.06443
G1 X151.183 Y99.147 E4.19734
G1 X152.234 Y101.62 E4.3314
G1 X153.336 Y104.021 E4.4632
G1 X154.532 Y106.443 E4.59797
G1 X154.7 Y106.773 E4.61644
G1 X154.989 Y107.428 E4.65216
G1 X155.202 Y108.111 E4.68785
G1 X155.338 Y108.813 E4.72353
G1 X155.395 Y109.526 E4.75921
G1 X155.375 Y110.212 E4.79345
G1 X155.295 Y110.829 E4.82449
G1 X155.188 Y111.411 E4.85401
G1 X155.078 Y111.941 E4.88102
G1 X154.894 Y112.632 E4.91669
G1 X154.549 Y113.476 E4.96218
G1 X154.013 Y114.561 E5.02256
G1 X152.846 Y117.009 E5.15786
G1 X151.79 Y119.397 E5.28813
G1 X150.382 Y122.895 E5.47625
G1 X149.852 Y124.288 E5.55061
G1 X149.642 Y124.821 E5.57919
G1 X149.311 Y125.63 E5.6228
G1 X149.105 Y126.105 E5.64863
G1 X148.866 Y126.631 E5.67745
G1 X148.495 Y127.425 E5.72117
G1 X148.236 Y127.949 E5.75034
G1 X147.98 Y128.447 E5.77827
G1 X147.566 Y129.226 E5.82228
G1 X147.295 Y129.711 E5.85
G1 X147.008 Y130.207 E5.87859
G1 X146.587 Y130.914 E5.91964
G1 X146.294 Y131.384 E5.94727
G1 X145.97 Y131.884 E5.977
G1 X145.517 Y132.566 E6.01785
G1 X145.153 Y133.089 E6.04964
G1 X144.871 Y133.481 E6.07373
G1 X144.288 Y134.267 E6.12255
G1 X144.164 Y134.429 E6.13273
G1 X143.638 Y135.091 E6.17491
G1 X143.054 Y135.803 E6.22086
G1 X142.711 Y136.203 E6.24714
G1 X142.345 Y136.617 E6.27471
G1 X141.748 Y137.275 E6.31904
G1 X141.367 Y137.676 E6.34663
G1 X140.97 Y138.082 E6.37496
G1 X140.354 Y138.697 E6.41839
G1 X139.929 Y139.103 E6.44771
G1 X139.513 Y139.488 E6.47599
G1 X138.926 Y140.018 E6.51545
G1 X138.444 Y140.433 E6.54718
G1 X138.064 Y140.751 E6.5719
G1 X137.342 Y141.339 E6.61836
G1 X136.865 Y141.711 E6.64854
G1 X136.484 Y141.998 E6.67233
G1 X135.752 Y142.538 E6.71772
G1 X135.577 Y142.663 E6.72845
G1 X134.832 Y143.173 E6.77349
G1 X133.97 Y143.742 E6.82502
G1 X133.226 Y144.2 E6.86861
G1 X132.404 Y144.686 E6.91625
G1 X131.947 Y144.944 E6.94243
G1 X131.454 Y145.212 E6.97042
G1 X130.679 Y145.621 E7.01414
G1 X130.134 Y145.893 E7.04453
G1 X129.674 Y146.114 E7.06999
G1 X128.87 Y146.488 E7.11423
G1 X128.333 Y146.723 E7.14348
G1 X127.796 Y146.948 E7.17252
G1 X127.035 Y147.256 E7.21348
G1 X126.443 Y147.48 E7.24506
G1 X125.963 Y147.654 E7.27053
G1 X125.134 Y147.944 E7.31435
G1 X124.633 Y148.107 E7.34063
G1 X124.031 Y148.291 E7.37204
G1 X123.264 Y148.516 E7.41192
G1 X122.706 Y148.667 E7.44076
G1 X122.183 Y148.8 E7.46768
G1 X121.288 Y149.015 E7.5136
G1 X120.761 Y149.129 E7.5405
G1 X120.19 Y149.244 E7.56956
G1 X119.357 Y149.4 E7.61184
G1 X118.766 Y149.497 E7.64172
G1 X118.236 Y149.576 E7.66846
G1 X117.225 Y149.711 E7.71934
G1 X116.326 Y149.806 E7.76444
G1 X115.394 Y149.887 E7.81112
G1 X114.87 Y149.921 E7.83731
G1 X114.289 Y149.95 E7.86634
G1 X113.406 Y149.982 E7.91042
G1 X112.855 Y149.99 E7.93791
G1 X112.279 Y149.989 E7.96665
G1 X111.425 Y149.977 E8.00926
G1 X110.832 Y149.956 E8.03886
G1 X110.322 Y149.93 E8.06434
G1 X109.392 Y149.87 E8.11083
G1 X108.881 Y149.827 E8.13642
G1 X108.313 Y149.769 E8.1649
G1 X107.271 Y149.648 E8.21724
G1 X106.4 Y149.522 E8.26114
G1 X105.472 Y149.37 E8.30806
G1 X104.872 Y149.257 E8.33852
G1 X104.339 Y149.148 E8.36566
G1 X103.533 Y148.973 E8.40681
G1 X102.863 Y148.813 E8.44118
G1 X102.429 Y148.701 E8.46354
G1 X101.544 Y148.462 E8.50927
G1 X101.353 Y148.407 E8.51919
G1 X100.461 Y148.135 E8.56571
G1 X99.675 Y147.88 E8.60694
G1 X99.132 Y147.69 E8.63564
G1 X98.607 Y147.498 E8.66353
G1 X97.796 Y147.19 E8.70681
G1 X97.32 Y146.998 E8.73242
G1 X96.764 Y146.763 E8.76253
G1 X95.961 Y146.412 E8.80625
G1 X95.453 Y146.176 E8.8342
G1 X94.959 Y145.937 E8.86158
G1 X94.18 Y145.549 E8.905
G1 X93.693 Y145.293 E8.93244
G1 X93.175 Y145.01 E8.96189
G1 X92.293 Y144.511 E9.01245
G1 X91.545 Y144.06 E9.05603
G1 X90.737 Y143.552 E9.10364
G1 X90.231 Y143.217 E9.13392
G1 X89.778 Y142.908 E9.16128
G1 X89.095 Y142.429 E9.2029
G1 X88.604 Y142.067 E9.23333
G1 X88.164 Y141.733 E9.26089
G1 X87.487 Y141.205 E9.30372
G1 X87.078 Y140.871 E9.33007
G1 X86.649 Y140.511 E9.35801
G1 X85.955 Y139.912 E9.40374
G1 X85.53 Y139.528 E9.43232
G1 X85.147 Y139.172 E9.45841
G1 X84.476 Y138.531 E9.50471
G1 X84.096 Y138.151 E9.53152
G1 X83.727 Y137.772 E9.55791
G1 X83.134 Y137.147 E9.60089
G1 X82.721 Y136.692 E9.63155
G1 X82.366 Y136.29 E9.6583
G1 X81.775 Y135.6 E9.70363
G1 X81.452 Y135.206 E9.72905
G1 X81.106 Y134.771 E9.75678
G1 X80.579 Y134.09 E9.79974
G1 X80.472 Y133.947 E9.80865
G1 X79.927 Y133.199 E9.85482
G1 X79.386 Y132.423 E9.90201
G1 X79.277 Y132.261 E9.91176
G1 X78.789 Y131.512 E9.95636
G1 X78.328 Y130.775 E9.99973
G1 X78.019 Y130.257 E10.02982
G1 X77.745 Y129.781 E10.05722
G1 X77.331 Y129.038 E10.09965
G1 X77.028 Y128.466 E10.13195
G1 X76.834 Y128.085 E10.15328
G1 X76.429 Y127.268 E10.19877
G1 X76.344 Y127.09 E10.20861
G1 X75.966 Y126.263 E10.25398
G1 X75.597 Y125.413 E10.30021
G1 X75.525 Y125.238 E10.30965
G1 X75.192 Y124.401 E10.35459
G1 X74.643 Y122.937 E10.43259
G1 X73.665 Y120.446 E10.56611
G1 X72.624 Y118 E10.69873
G1 X71.515 Y115.584 E10.83136
G1 X71.118 Y114.782 E10.876
G1 X70.652 Y113.81 E10.92978
G1 X70.365 Y113.107 E10.96766
G1 X70.172 Y112.532 E10.99792
G1 X70.109 Y112.329 E11.00853
G1 X69.935 Y111.635 E11.04422
G1 X69.824 Y110.632 E11.09457
G1 X69.822 Y110.568 E11.09776
G1 X69.84 Y109.853 E11.13345
G1 X69.937 Y109.144 E11.16915
G1 X70.09 Y108.524 E11.20101
G1 X70.272 Y107.919 E11.23253
G1 X70.578 Y107.107 E11.27582
G1 X71.769 Y104.495 E11.41904
G1 X72.795 Y102.065 E11.55064
G1 X73.767 Y99.571 E11.68418
G1 X74.432 Y97.689 E11.78376
G1 X74.485 Y97.563 E11.79058
G1 X74.955 Y96.225 E11.86133
G1 X75.141 Y95.73 E11.88771
G1 X75.357 Y95.182 E11.9171
G1 X75.749 Y94.226 E11.96865
G1 X76.101 Y93.436 E12.0118
G1 X76.509 Y92.566 E12.05974
G1 X76.826 Y91.928 E12.09528
G1 X77.02 Y91.553 E12.11635
G1 X77.434 Y90.774 E12.16036
G1 X77.704 Y90.29 E12.18801
G1 X78.021 Y89.743 E12.21955
G1 X78.497 Y88.947 E12.26582
G1 X78.987 Y88.181 E12.31119
G1 X79.485 Y87.43 E12.35614
G1 X79.872 Y86.876 E12.38986
G1 X80.126 Y86.523 E12.41155
G1 X80.709 Y85.736 E12.46042
G1 X80.836 Y85.571 E12.47081
G1 X81.359 Y84.913 E12.51274
G1 X81.943 Y84.2 E12.55872
G1 X82.078 Y84.04 E12.56916
G1 X82.669 Y83.366 E12.61389
G1 X83.255 Y82.721 E12.65736
G1 X83.639 Y82.317 E12.68517
M205 X10 Y10
G0 F6000 X83.926 Y82.597
M205 X8 Y8
G1 F1200 X84.314 Y82.2 E12.71287
G1 X84.929 Y81.586 E12.75622
G1 X85.34 Y81.194 E12.78456
G1 X85.755 Y80.809 E12.8128
G1 X86.342 Y80.279 E12.85226
G1 X86.808 Y79.877 E12.88296
G1 X87.184 Y79.562 E12.90743
G1 X87.906 Y78.973 E12.95392
G1 X88.354 Y78.624 E12.98225
G1 X88.762 Y78.316 E13.00776
G1 X89.496 Y77.777 E13.05319
G1 X89.651 Y77.666 E13.0627
G1 X90.308 Y77.215 E13.10246
G1 X91.223 Y76.611 E13.15716
G1 X91.99 Y76.138 E13.20211
G1 X92.797 Y75.66 E13.24891
G1 X93.241 Y75.409 E13.27435
G1 X93.739 Y75.138 E13.30264
G1 X94.514 Y74.73 E13.34633
G1 X95.047 Y74.464 E13.37605
G1 X95.497 Y74.248 E13.40096
G1 X96.44 Y73.811 E13.45281
G1 X97.28 Y73.453 E13.49836
G1 X98.115 Y73.114 E13.54332
G1 X98.648 Y72.912 E13.57176
G1 X99.174 Y72.721 E13.59968
G1 X100.003 Y72.432 E13.64348
G1 X100.484 Y72.277 E13.66869
G1 X101.081 Y72.093 E13.69986
G1 X101.847 Y71.868 E13.73969
G1 X102.466 Y71.702 E13.77166
G1 X102.91 Y71.589 E13.79452
G1 X103.804 Y71.374 E13.84039
G1 X103.988 Y71.333 E13.8498
G1 X104.89 Y71.147 E13.89575
G1 X105.723 Y70.992 E13.93802
G1 X106.294 Y70.898 E13.96689
G1 X106.818 Y70.82 E13.99332
G1 X107.818 Y70.686 E14.04366
G1 X108.712 Y70.592 E14.0885
G1 X109.64 Y70.512 E14.13497
G1 X110.157 Y70.478 E14.16082
G1 X110.726 Y70.45 E14.18924
G1 X111.764 Y70.414 E14.24106
G1 X112.631 Y70.41 E14.28432
G1 X113.569 Y70.423 E14.33112
G1 X114.152 Y70.444 E14.36022
G1 X114.652 Y70.469 E14.3852
G1 X115.582 Y70.529 E14.43169
G1 X116.168 Y70.58 E14.46104
G1 X116.644 Y70.628 E14.48491
G1 X117.674 Y70.748 E14.53664
G1 X118.539 Y70.873 E14.58025
G1 X119.462 Y71.025 E14.62691
G1 X119.993 Y71.125 E14.65387
G1 X120.576 Y71.243 E14.68355
G1 X121.517 Y71.449 E14.73161
G1 X122.042 Y71.576 E14.75855
G1 X122.455 Y71.683 E14.77984
G1 X123.349 Y71.924 E14.82603
G1 X123.531 Y71.976 E14.83548
G1 X124.416 Y72.246 E14.88164
G1 X125.202 Y72.501 E14.92286
G1 X125.681 Y72.668 E14.94817
G1 X126.251 Y72.876 E14.97844
G1 X127.062 Y73.184 E15.02172
G1 X127.588 Y73.397 E15.05004
G1 X128.061 Y73.597 E15.07566
G1 X128.878 Y73.954 E15.12014
G1 X129.369 Y74.182 E15.14715
G1 X129.864 Y74.421 E15.17457
G1 X130.643 Y74.809 E15.21799
G1 X131.126 Y75.064 E15.24524
G1 X131.628 Y75.338 E15.27377
G1 X132.505 Y75.834 E15.32404
G1 X133.242 Y76.279 E15.36699
G1 X134.05 Y76.787 E15.41461
G1 X134.546 Y77.115 E15.44427
G1 X134.993 Y77.42 E15.47127
G1 X135.677 Y77.9 E15.51296
G1 X136.19 Y78.279 E15.54478
G1 X136.59 Y78.583 E15.56985
G1 X137.267 Y79.111 E15.61268
G1 X137.656 Y79.428 E15.63771
G1 X138.089 Y79.792 E15.66594
G1 X138.783 Y80.391 E15.71167
G1 X139.161 Y80.732 E15.73707
G1 X139.576 Y81.117 E15.76531
G1 X140.242 Y81.753 E15.81126
G1 X140.612 Y82.122 E15.83733
G1 X140.972 Y82.491 E15.86305
G1 X141.577 Y83.129 E15.90691
G1 X141.975 Y83.567 E15.93644
G1 X142.329 Y83.969 E15.96316
G1 X143.003 Y84.758 E16.01493
G1 X143.524 Y85.405 E16.05638
G1 X144.104 Y86.154 E16.10364
G1 X144.49 Y86.676 E16.13603
G1 X144.746 Y87.031 E16.15786
G1 X145.286 Y87.806 E16.20499
G1 X145.573 Y88.237 E16.23082
G1 X145.872 Y88.7 E16.25832
G1 X146.407 Y89.558 E16.30876
G1 X146.862 Y90.337 E16.35377
G1 X147.387 Y91.282 E16.40771
G1 X147.768 Y92.014 E16.44888
G1 X148.213 Y92.909 E16.49874
G1 X148.456 Y93.429 E16.52738
G1 X148.667 Y93.897 E16.55299
G1 X149.036 Y94.747 E16.59922
G1 X149.229 Y95.219 E16.62466
G1 X149.449 Y95.78 E16.65473
G1 X149.835 Y96.805 E16.70937
G1 X150.831 Y99.344 E16.84544
G1 X151.854 Y101.751 E16.97592
G1 X152.965 Y104.171 E17.10877
G1 X154.206 Y106.684 E17.2486
G1 X154.344 Y106.955 E17.26377
G1 X154.622 Y107.589 E17.29831
G1 X154.825 Y108.251 E17.33285
G1 X154.951 Y108.932 E17.3674
G1 X154.997 Y109.623 E17.40195
G1 X154.976 Y110.18 E17.42976
G1 X154.901 Y110.759 E17.45889
G1 X154.797 Y111.329 E17.4878
G1 X154.687 Y111.859 E17.5148
G1 X154.507 Y112.528 E17.54937
G1 X154.191 Y113.299 E17.59094
G1 X153.629 Y114.436 E17.65421
G1 X152.483 Y116.841 E17.78713
G1 X151.422 Y119.24 E17.91799
G1 X150.007 Y122.755 E18.10703
G1 X149.479 Y124.142 E18.18108
G1 X149.272 Y124.669 E18.20932
G1 X148.884 Y125.614 E18.26029
G1 X148.53 Y126.405 E18.30352
G1 X148.133 Y127.256 E18.35037
G1 X147.848 Y127.831 E18.38239
G1 X147.627 Y128.26 E18.40647
G1 X147.141 Y129.171 E18.45798
G1 X146.705 Y129.932 E18.50174
G1 X146.243 Y130.71 E18.54688
G1 X145.955 Y131.171 E18.574
G1 X145.637 Y131.663 E18.60322
G1 X145.184 Y132.345 E18.64407
G1 X144.826 Y132.859 E18.67532
G1 X144.55 Y133.242 E18.69887
G1 X143.967 Y134.028 E18.7477
G1 X143.851 Y134.18 E18.75724
G1 X143.329 Y134.837 E18.7991
G1 X142.745 Y135.549 E18.84504
G1 X142.411 Y135.939 E18.87066
G1 X142.049 Y136.349 E18.89795
G1 X141.452 Y137.007 E18.94227
G1 X141.081 Y137.396 E18.96909
G1 X140.687 Y137.799 E18.99721
G1 X140.071 Y138.414 E19.04064
G1 X139.694 Y138.774 E19.06664
G1 X139.245 Y139.191 E19.09722
G1 X138.658 Y139.721 E19.13667
G1 X138.184 Y140.129 E19.16787
G1 X137.812 Y140.44 E19.19206
G1 X137.09 Y141.028 E19.23852
G1 X136.624 Y141.392 E19.26802
G1 X136.247 Y141.676 E19.29157
G1 X135.515 Y142.216 E19.33695
G1 X135.351 Y142.333 E19.347
