;FLAVOR:Marlin
;TIME:2227
;Filament used: 1.59101m
;Layer height: 0.2
;MINX:68.308
;MINY:62.964
;MINZ:0.3
;MAXX:156.692
;MAXY:157.139
;MAXZ:4.975
;Generated with Cura_SteamEngine 4.13.1
M140 S60
M105
M190 S60
M104 S200
M105
M109 S200
M82 ;absolute extrusion mode
G21                                        ; metric values
G90                                        ; absolute positioning
M82                                        ; set extruder to absolute mode
M107                                       ; start with the fan off
M190 S60                                   ; preheat and wait for bed
M109 S210                                  ; preheat and wait for hotend
M300 S1000 P500                            ; BEEP heating done
G28 X0 Y10 Z0                              ; move X/Y to min endstops
M420 S1                                    ; enable mesh leveling
G0 Z0.15                                   ; lift nozzle a bit
G0 X2                                      ; move away from clips
G92 E0                                     ; zero the extruded length
G1 Y50 E25 F500                            ; Extrude 25mm of filament in a 5cm line.
G92 E0                                     ; zero the extruded length again
G1 E-2 F500                                ; Retract a little
G1 Y120 F4000                              ; Quickly wipe away from the filament line
G92 E0
G92 E0
G1 F1500 E-6
;LAYER_COUNT:24
;LAYER:0
M107
M205 X10 Y10
G1 F600 Z0.375
G0 F6000 X81.009 Y79.001 Z0.375
M205 X8 Y8
;TYPE:SKIRT
G1 F600 Z0.3
G1 F1500 E0
G1 F1200 X81.821 Y78.193 E0.05715
G1 X82.181 Y77.852 E0.08189
G1 X82.67 Y77.399 E0.11514
G1 X83.366 Y76.771 E0.16191
G1 X83.742 Y76.447 E0.18668
G1 X84.361 Y75.929 E0.22695
G1 X85.141 Y75.294 E0.27712
G1 X85.499 Y75.018 E0.29968
G1 X86.094 Y74.569 E0.33687
G1 X86.892 Y73.985 E0.3862
G1 X87.302 Y73.699 E0.41114
G1 X87.862 Y73.318 E0.44493
G1 X88.618 Y72.818 E0.49015
G1 X89.108 Y72.509 E0.51905
G1 X89.669 Y72.165 E0.55188
G1 X90.629 Y71.599 E0.60748
G1 X90.979 Y71.404 E0.62747
G1 X91.689 Y71.018 E0.66779
G1 X92.424 Y70.632 E0.70921
G1 X92.944 Y70.372 E0.73821
G1 X93.663 Y70.027 E0.778
G1 X94.538 Y69.623 E0.82608
G1 X94.931 Y69.452 E0.84747
G1 X95.665 Y69.143 E0.8872
G1 X96.417 Y68.838 E0.92768
G1 X96.576 Y68.776 E0.9362
G1 X97.289 Y68.509 E0.97418
G1 X97.419 Y68.451 E0.98128
G1 X98.93 Y67.88 E1.06187
G1 X101.352 Y66.887 E1.19247
G1 X103.818 Y65.792 E1.32708
G1 X106.18 Y64.662 E1.45771
G1 X107.495 Y63.997 E1.53123
G1 X108.116 Y63.679 E1.56604
G1 X108.77 Y63.388 E1.60175
G1 X109.452 Y63.172 E1.63744
G1 X110.153 Y63.034 E1.67308
G1 X110.913 Y62.974 E1.71112
G1 X111.429 Y62.964 E1.73687
G1 X111.646 Y62.964 E1.74769
G1 X112.196 Y62.972 E1.77513
G1 X112.75 Y62.993 E1.80279
G1 X113.812 Y63.128 E1.8562
G1 X114.514 Y63.278 E1.89202
G1 X114.871 Y63.364 E1.91034
G1 X115.554 Y63.577 E1.94603
G1 X116.025 Y63.775 E1.97152
G1 X117.014 Y64.239 E2.02602
G1 X119.481 Y65.353 E2.16107
G1 X121.97 Y66.395 E2.29569
G1 X124.423 Y67.338 E2.4268
G1 X125.726 Y67.807 E2.49589
G1 X127.21 Y68.33 E2.57439
G1 X127.863 Y68.569 E2.60908
G1 X128.778 Y68.916 E2.6579
G1 X129.235 Y69.101 E2.6825
G1 X129.99 Y69.419 E2.72337
G1 X130.764 Y69.759 E2.76555
G1 X131.31 Y70.013 E2.79559
G1 X131.971 Y70.333 E2.83223
G1 X132.733 Y70.713 E2.87471
G1 X133.248 Y70.984 E2.90375
G1 X133.871 Y71.322 E2.93911
G1 X134.661 Y71.766 E2.98432
G1 X135.201 Y72.085 E3.01561
G1 X135.798 Y72.451 E3.05055
G1 X136.584 Y72.946 E3.09689
G1 X137.005 Y73.225 E3.12208
G1 X137.626 Y73.649 E3.1596
G1 X138.393 Y74.188 E3.20637
G1 X138.858 Y74.53 E3.23517
G1 X139.453 Y74.982 E3.27245
G1 X140.126 Y75.508 E3.31506
G1 X140.609 Y75.903 E3.34619
G1 X141.168 Y76.373 E3.38263
G1 X141.797 Y76.916 E3.42408
G1 X142.247 Y77.322 E3.45432
G1 X142.799 Y77.834 E3.49188
G1 X143.418 Y78.425 E3.53458
G1 X143.841 Y78.847 E3.56439
G1 X144.393 Y79.414 E3.60387
G1 X144.955 Y80.008 E3.64466
G1 X145.356 Y80.45 E3.67444
G1 X145.837 Y80.995 E3.7107
G1 X146.534 Y81.811 E3.76424
G1 X146.727 Y82.048 E3.77949
G1 X147.25 Y82.704 E3.82135
G1 X147.764 Y83.367 E3.8632
G1 X148.131 Y83.862 E3.89395
G1 X148.575 Y84.481 E3.93195
G1 X149.07 Y85.192 E3.97517
G1 X149.361 Y85.629 E4.00137
G1 X149.798 Y86.304 E4.04148
G1 X150.265 Y87.05 E4.08539
G1 X150.527 Y87.489 E4.1109
G1 X150.928 Y88.183 E4.15089
G1 X151.357 Y88.95 E4.19473
G1 X151.601 Y89.41 E4.22071
G1 X151.984 Y90.157 E4.26259
G1 X152.344 Y90.885 E4.30311
G1 X152.634 Y91.507 E4.33735
G1 X152.896 Y92.089 E4.36919
G1 X153.33 Y93.094 E4.4238
G1 X153.456 Y93.406 E4.44059
G1 X153.756 Y94.171 E4.48159
G1 X154.07 Y95.004 E4.526
G1 X154.235 Y95.475 E4.5509
G1 X154.506 Y96.283 E4.59342
G1 X154.789 Y97.172 E4.63996
G1 X154.927 Y97.64 E4.66431
G1 X155.14 Y98.402 E4.70378
G1 X155.35 Y99.192 E4.74456
G1 X155.483 Y99.738 E4.7726
G1 X155.652 Y100.481 E4.81061
G1 X155.831 Y101.319 E4.85336
G1 X155.957 Y101.981 E4.88698
G1 X156.073 Y102.645 E4.92061
G1 X156.214 Y103.515 E4.96458
G1 X156.285 Y104.022 E4.99012
G1 X156.382 Y104.797 E5.02909
G1 X156.501 Y105.892 E5.08404
G1 X156.527 Y106.202 E5.09956
G1 X156.589 Y107.04 E5.14149
G1 X156.649 Y108.045 E5.19171
G1 X156.663 Y108.443 E5.21158
G1 X156.683 Y109.249 E5.25181
G1 X156.692 Y110.101 E5.29432
G1 X156.685 Y110.666 E5.32251
G1 X156.666 Y111.422 E5.36023
G1 X156.631 Y112.317 E5.40492
G1 X156.6 Y112.823 E5.43021
G1 X156.537 Y113.664 E5.47229
G1 X156.464 Y114.486 E5.51346
G1 X156.398 Y115.076 E5.54308
G1 X156.308 Y115.786 E5.57878
G1 X156.185 Y116.671 E5.62336
G1 X156.088 Y117.271 E5.65368
G1 X155.977 Y117.9 E5.68555
G1 X155.766 Y118.999 E5.74138
G1 X155.659 Y119.49 E5.76645
G1 X155.505 Y120.162 E5.80085
G1 X155.257 Y121.173 E5.85278
G1 X155.164 Y121.516 E5.87051
G1 X154.951 Y122.269 E5.90955
G1 X154.697 Y123.126 E5.95415
G1 X154.52 Y123.68 E5.98316
G1 X154.278 Y124.395 E6.02082
G1 X153.991 Y125.211 E6.06398
G1 X153.808 Y125.699 E6.08998
G1 X153.512 Y126.454 E6.13044
G1 X153.193 Y127.233 E6.17243
G1 X152.951 Y127.79 E6.20273
G1 X152.664 Y128.426 E6.23754
G1 X152.204 Y129.405 E6.29151
G1 X152.033 Y129.748 E6.31063
G1 X151.656 Y130.48 E6.35171
G1 X151.186 Y131.365 E6.4017
G1 X151.008 Y131.679 E6.41971
G1 X150.594 Y132.396 E6.46101
G1 X150.164 Y133.115 E6.50281
G1 X149.855 Y133.608 E6.53184
G1 X149.461 Y134.218 E6.56807
G1 X148.965 Y134.964 E6.61276
G1 X148.635 Y135.436 E6.64149
G1 X148.162 Y136.093 E6.68188
G1 X147.579 Y136.878 E6.73067
G1 X147.315 Y137.216 E6.75206
G1 X146.824 Y137.83 E6.79129
G1 X146.179 Y138.613 E6.8419
G1 X145.925 Y138.906 E6.86124
G1 X145.431 Y139.465 E6.89846
G1 X144.706 Y140.261 E6.95218
G1 X144.432 Y140.549 E6.97201
G1 X143.89 Y141.102 E7.01064
G1 X143.287 Y141.702 E7.05308
G1 X142.837 Y142.132 E7.08413
G1 X142.286 Y142.642 E7.12159
G1 X141.693 Y143.177 E7.16144
G1 X141.278 Y143.536 E7.18881
G1 X140.688 Y144.031 E7.22723
G1 X139.967 Y144.619 E7.27365
G1 X139.533 Y144.957 E7.30109
G1 X138.906 Y145.431 E7.34031
G1 X138.108 Y146.015 E7.38964
G1 X137.703 Y146.297 E7.41426
G1 X137.135 Y146.684 E7.44855
G1 X136.248 Y147.268 E7.50154
G1 X135.892 Y147.491 E7.5225
G1 X135.331 Y147.835 E7.55533
G1 X134.371 Y148.401 E7.61093
G1 X134.021 Y148.596 E7.63091
G1 X133.314 Y148.981 E7.67108
G1 X132.578 Y149.368 E7.71256
G1 X132.056 Y149.628 E7.74166
G1 X131.337 Y149.973 E7.78144
G1 X130.595 Y150.317 E7.82225
G1 X130.071 Y150.547 E7.8508
G1 X129.334 Y150.857 E7.89069
G1 X128.574 Y151.165 E7.9316
G1 X128.022 Y151.374 E7.96105
G1 X127.388 Y151.606 E7.99473
G1 X126.25 Y152.003 E8.05486
G1 X123.671 Y152.944 E8.19182
G1 X121.195 Y153.927 E8.32473
G1 X118.801 Y154.957 E8.45475
G1 X116.82 Y155.869 E8.56356
G1 X116.216 Y156.156 E8.59692
G1 X115.577 Y156.43 E8.63161
G1 X115.269 Y156.547 E8.64804
G1 X114.77 Y156.713 E8.67428
G1 X114.146 Y156.888 E8.70661
G1 X113.864 Y156.957 E8.7211
G1 X113.161 Y157.088 E8.75677
G1 X112.448 Y157.139 E8.79244
G1 X111.733 Y157.111 E8.82813
G1 X111.026 Y157.003 E8.86382
G1 X110.335 Y156.817 E8.89952
G1 X109.651 Y156.546 E8.93622
G1 X108.963 Y156.227 E8.97406
G1 X107.643 Y155.592 E9.04714
G1 X105.248 Y154.523 E9.17799
G1 X102.785 Y153.503 E9.31098
G1 X99.298 Y152.201 E9.49668
G1 X97.736 Y151.65 E9.57932
G1 X97.078 Y151.411 E9.61424
G1 X96.25 Y151.096 E9.65844
G1 X95.748 Y150.892 E9.68548
G1 X95.01 Y150.581 E9.72543
G1 X94.238 Y150.242 E9.7675
G1 X93.763 Y150.022 E9.79361
G1 X93.029 Y149.667 E9.83429
G1 X92.267 Y149.287 E9.87677
G1 X91.757 Y149.019 E9.90551
G1 X91.047 Y148.632 E9.94586
G1 X90.335 Y148.231 E9.98662
G1 X89.866 Y147.954 E10.0138
G1 X89.199 Y147.547 E10.05278
G1 X88.414 Y147.052 E10.09908
G1 X87.979 Y146.763 E10.12514
G1 X87.374 Y146.35 E10.16168
G1 X86.607 Y145.811 E10.20845
G1 X86.149 Y145.474 E10.23682
G1 X85.546 Y145.017 E10.27457
G1 X84.739 Y144.384 E10.32574
G1 X84.427 Y144.127 E10.3459
G1 X83.866 Y143.657 E10.38242
G1 X83.175 Y143.06 E10.42798
G1 X82.742 Y142.669 E10.45708
G1 X82.214 Y142.178 E10.49305
G1 X81.572 Y141.565 E10.53734
G1 X81.175 Y141.169 E10.56531
G1 X80.643 Y140.623 E10.60335
G1 X80.028 Y139.975 E10.64792
G1 X79.648 Y139.557 E10.6761
G1 X79.149 Y138.989 E10.71382
G1 X78.472 Y138.196 E10.76584
G1 X78.238 Y137.909 E10.78432
G1 X77.74 Y137.284 E10.82418
G1 X77.211 Y136.602 E10.86725
G1 X76.884 Y136.16 E10.89468
G1 X76.429 Y135.526 E10.93361
G1 X75.86 Y134.707 E10.98336
G1 X75.562 Y134.255 E11.01037
G1 X75.215 Y133.718 E11.04227
G1 X74.732 Y132.947 E11.08766
G1 X74.457 Y132.484 E11.11453
G1 X74.072 Y131.817 E11.15295
G1 X73.643 Y131.05 E11.19679
G1 X73.545 Y130.867 E11.20715
G1 X73.016 Y129.843 E11.26465
G1 X72.656 Y129.115 E11.30517
G1 X72.368 Y128.498 E11.33914
G1 X72.106 Y127.916 E11.37098
G1 X71.68 Y126.931 E11.42452
G1 X71.488 Y126.455 E11.45013
G1 X71.267 Y125.887 E11.48054
G1 X70.937 Y125.011 E11.52724
G1 X70.728 Y124.419 E11.55856
G1 X70.502 Y123.741 E11.59422
G1 X70.251 Y122.96 E11.63514
G1 X70.094 Y122.431 E11.66267
G1 X69.89 Y121.709 E11.7001
G1 X69.657 Y120.833 E11.74533
G1 X69.501 Y120.192 E11.77824
G1 X69.356 Y119.552 E11.81098
G1 X69.164 Y118.655 E11.85675
G1 X69.051 Y118.061 E11.88691
G1 X68.927 Y117.354 E11.92272
G1 X68.791 Y116.514 E11.96518
G1 X68.707 Y115.909 E11.99565
G1 X68.614 Y115.168 E12.03291
G1 X68.519 Y114.313 E12.07583
G1 X68.469 Y113.755 E12.10378
G1 X68.412 Y112.981 E12.1425
G1 X68.359 Y112.123 E12.18538
G1 X68.337 Y111.552 E12.21389
G1 X68.317 Y110.752 E12.25382
G1 X68.308 Y109.899 E12.29638
G1 X68.315 Y109.334 E12.32457
G1 X68.334 Y108.577 E12.36234
G1 X68.369 Y107.685 E12.40688
G1 X68.404 Y107.121 E12.43507
G1 X68.463 Y106.339 E12.4742
G1 X68.537 Y105.509 E12.51577
G1 X68.602 Y104.926 E12.54504
G1 X68.693 Y104.199 E12.58159
G1 X68.817 Y103.317 E12.62603
G1 X68.908 Y102.753 E12.65453
G1 X69.031 Y102.058 E12.68974
G1 X69.208 Y101.125 E12.73712
G1 X69.322 Y100.595 E12.76416
G1 X69.499 Y99.82 E12.80383
G1 X69.702 Y98.988 E12.84655
G1 X69.846 Y98.449 E12.87439
G1 X70.054 Y97.711 E12.91264
G1 X70.341 Y96.75 E12.96268
G1 X70.494 Y96.278 E12.98743
G1 X70.729 Y95.583 E13.02403
G1 X71.017 Y94.765 E13.0673
G1 X71.192 Y94.301 E13.09204
G1 X71.5 Y93.518 E13.13402
G1 X71.865 Y92.628 E13.18201
G1 X72.088 Y92.122 E13.2096
G1 X72.355 Y91.532 E13.2419
G1 X72.796 Y90.594 E13.29362
G1 X72.974 Y90.239 E13.31343
G1 X73.344 Y89.52 E13.35377
G1 X73.803 Y88.656 E13.40258
G1 X74.014 Y88.28 E13.42409
G1 X74.406 Y87.607 E13.46295
G1 X74.937 Y86.721 E13.51448
G1 X75.15 Y86.384 E13.53437
G1 X75.555 Y85.758 E13.57157
G1 X76.033 Y85.039 E13.61464
G1 X76.363 Y84.566 E13.64342
G1 X76.806 Y83.951 E13.68123
G1 X77.325 Y83.248 E13.72483
G1 X77.646 Y82.833 E13.751
G1 X78.166 Y82.182 E13.79257
G1 X78.739 Y81.486 E13.83755
G1 X79.087 Y81.081 E13.86419
G1 X79.571 Y80.533 E13.90066
G1 X80.194 Y79.848 E13.94686
G1 X80.584 Y79.436 E13.97516
G1 X81.009 Y79.001 E14.0055
M205 X10 Y10
G0 F6000 X81.351 Y79.225
M205 X8 Y8
G1 F1200 X82.097 Y78.483 E14.058
G1 X82.453 Y78.145 E14.08249
G1 X82.938 Y77.696 E14.11546
G1 X83.634 Y77.068 E14.16223
G1 X83.999 Y76.754 E14.18625
G1 X84.614 Y76.239 E14.22627
G1 X85.263 Y75.709 E14.26807
G1 X85.691 Y75.375 E14.29516
G1 X86.33 Y74.891 E14.33515
G1 X87.004 Y74.396 E14.37687
G1 X87.527 Y74.03 E14.40872
G1 X88.083 Y73.652 E14.44226
G1 X88.839 Y73.152 E14.48748
G1 X89.318 Y72.85 E14.51573
G1 X89.96 Y72.457 E14.55329
G1 X90.692 Y72.024 E14.59572
G1 X91.17 Y71.755 E14.62308
G1 X91.875 Y71.372 E14.66311
G1 X92.61 Y70.986 E14.70453
G1 X93.118 Y70.733 E14.73284
G1 X93.831 Y70.39 E14.77231
G1 X94.698 Y69.989 E14.81997
G1 X95.086 Y69.821 E14.84107
G1 X95.815 Y69.514 E14.88053
G1 X96.567 Y69.209 E14.92102
G1 X96.717 Y69.15 E14.92906
G1 X97.348 Y68.913 E14.96268
G1 X97.56 Y68.825 E14.97414
G1 X99.086 Y68.248 E15.05553
G1 X101.53 Y67.246 E15.18731
G1 X103.961 Y66.167 E15.32
G1 X106.354 Y65.022 E15.45235
G1 X107.643 Y64.37 E15.52442
G1 X108.298 Y64.034 E15.56115
G1 X108.932 Y63.754 E15.59573
G1 X109.593 Y63.549 E15.63025
G1 X110.274 Y63.422 E15.66481
G1 X110.921 Y63.374 E15.69718
G1 X111.437 Y63.364 E15.72293
G1 X111.64 Y63.364 E15.73306
G1 X112.19 Y63.372 E15.7605
G1 X112.733 Y63.393 E15.78761
G1 X113.729 Y63.519 E15.8377
G1 X114.431 Y63.669 E15.87351
G1 X114.774 Y63.752 E15.89112
G1 X115.434 Y63.959 E15.92563
G1 X115.855 Y64.138 E15.94845
G1 X116.823 Y64.592 E16.00179
G1 X119.311 Y65.716 E16.138
G1 X121.798 Y66.757 E16.2725
G1 X124.285 Y67.713 E16.40543
G1 X125.634 Y68.199 E16.47697
G1 X127.073 Y68.706 E16.55309
G1 X127.722 Y68.943 E16.58756
G1 X128.637 Y69.29 E16.63638
G1 X129.08 Y69.47 E16.66023
G1 X129.829 Y69.786 E16.70079
G1 X130.724 Y70.18 E16.74958
G1 X131.137 Y70.373 E16.77232
G1 X131.793 Y70.691 E16.80869
G1 X132.692 Y71.141 E16.85885
G1 X133.114 Y71.366 E16.88271
G1 X133.754 Y71.715 E16.91908
G1 X134.465 Y72.115 E16.95978
G1 X134.992 Y72.426 E16.99031
G1 X135.584 Y72.79 E17.02498
G1 X136.37 Y73.285 E17.07132
G1 X136.78 Y73.556 E17.09584
G1 X137.396 Y73.976 E17.13304
G1 X138.163 Y74.515 E17.1798
G1 X138.616 Y74.849 E17.20788
G1 X139.207 Y75.298 E17.24491
G1 X139.88 Y75.824 E17.28753
G1 X140.351 Y76.209 E17.31788
G1 X140.907 Y76.676 E17.3541
G1 X141.536 Y77.219 E17.39556
G1 X141.978 Y77.618 E17.42527
G1 X142.522 Y78.123 E17.4623
G1 X143.249 Y78.819 E17.51251
G1 X143.554 Y79.127 E17.53414
G1 X144.102 Y79.689 E17.5733
G1 X144.756 Y80.382 E17.62084
G1 X145.056 Y80.715 E17.6432
G1 X145.533 Y81.255 E17.67914
G1 X146.224 Y82.064 E17.73222
G1 X146.415 Y82.298 E17.74729
G1 X146.934 Y82.949 E17.78883
G1 X147.539 Y83.732 E17.8382
G1 X147.849 Y84.154 E17.86432
G1 X148.247 Y84.71 E17.89843
G1 X148.825 Y85.543 E17.94902
G1 X149.056 Y85.893 E17.96994
G1 X149.459 Y86.516 E18.00696
G1 X149.926 Y87.262 E18.05087
G1 X150.183 Y87.693 E18.0759
G1 X150.579 Y88.378 E18.11538
G1 X151.008 Y89.145 E18.15922
G1 X151.245 Y89.593 E18.18451
G1 X151.625 Y90.334 E18.22605
G1 X151.985 Y91.062 E18.26657
G1 X152.27 Y91.671 E18.30012
G1 X152.529 Y92.248 E18.33167
G1 X152.96 Y93.245 E18.38586
G1 X153.084 Y93.552 E18.40238
G1 X153.381 Y94.312 E18.44309
G1 X153.748 Y95.29 E18.4952
G1 X153.856 Y95.602 E18.51167
G1 X154.125 Y96.405 E18.55392
G1 X154.406 Y97.285 E18.60001
G1 X154.542 Y97.748 E18.62409
G1 X154.754 Y98.505 E18.66331
G1 X154.964 Y99.295 E18.70409
G1 X155.093 Y99.826 E18.73135
G1 X155.261 Y100.565 E18.76916
G1 X155.44 Y101.403 E18.81191
G1 X155.563 Y102.051 E18.84482
G1 X155.678 Y102.709 E18.87814
G1 X155.819 Y103.579 E18.92211
G1 X155.888 Y104.072 E18.94695
G1 X155.984 Y104.841 E18.98561
G1 X156.102 Y105.927 E19.04011
G1 X156.128 Y106.232 E19.05538
G1 X156.19 Y107.065 E19.09706
G1 X156.249 Y108.06 E19.14678
G1 X156.263 Y108.453 E19.1664
G1 X156.283 Y109.254 E19.20638
G1 X156.292 Y110.106 E19.24889
G1 X156.285 Y110.656 E19.27633
G1 X156.266 Y111.406 E19.31376
G1 X156.223 Y112.466 E19.36669
G1 X156.198 Y112.841 E19.38544
G1 X156.138 Y113.629 E19.42486
G1 X156.05 Y114.605 E19.47375
G1 X156.001 Y115.026 E19.4949
G1 X155.912 Y115.731 E19.53035
G1 X155.789 Y116.616 E19.57493
G1 X155.693 Y117.206 E19.60475
G1 X155.584 Y117.825 E19.63611
G1 X155.375 Y118.915 E19.69148
G1 X155.269 Y119.401 E19.7163
G1 X155.117 Y120.067 E19.75038
G1 X154.903 Y120.943 E19.79537
G1 X154.779 Y121.407 E19.81933
G1 X154.568 Y122.155 E19.8581
G1 X154.272 Y123.148 E19.9098
