;FLAVOR:Marlin
;TIME:2419
;Filament used: 1.76195m
;Layer height: 0.2
;MINX:64.108
;MINY:61.613
;MINZ:0.3
;MAXX:160.892
;MAXY:158.387
;MAXZ:4.975
;Generated with Cura_SteamEngine 4.13.1
M140 S60
M105
M190 S60
M104 S200
M105
M109 S200
M82 ;absolute extrusion mode
G21                                        ; metric values
G90                                        ; absolute positioning
M82                                        ; set extruder to absolute mode
M107                                       ; start with the fan off
M190 S60                                   ; preheat and wait for bed
M109 S210                                  ; preheat and wait for hotend
M300 S1000 P500                            ; BEEP heating done
G28 X0 Y10 Z0                              ; move X/Y to min endstops
M420 S1                                    ; enable mesh leveling
G0 Z0.15                                   ; lift nozzle a bit
G0 X2                                      ; move away from clips
G92 E0                                     ; zero the extruded length
G1 Y50 E25 F500                            ; Extrude 25mm of filament in a 5cm line.
G92 E0                                     ; zero the extruded length again
G1 E-2 F500                                ; Retract a little
G1 Y120 F4000                              ; Quickly wipe away from the filament line
G92 E0
G92 E0
G1 F1500 E-6
;LAYER_COUNT:24
;LAYER:0
M107
M205 X10 Y10
G1 F600 Z0.375
G0 F6000 X78.201 Y75.868 Z0.375
M205 X8 Y8
;TYPE:SKIRT
G1 F600 Z0.3
G1 F1500 E0
G1 F1200 X78.888 Y75.186 E0.0483
G1 X79.211 Y74.88 E0.07049
G1 X79.931 Y74.212 E0.11949
G1 X80.534 Y73.668 E0.16001
G1 X81.015 Y73.254 E0.19167
G1 X81.736 Y72.65 E0.2386
G1 X82.53 Y72.004 E0.28966
G1 X82.837 Y71.766 E0.30904
G1 X83.637 Y71.163 E0.35902
G1 X84.481 Y70.545 E0.41121
G1 X84.784 Y70.334 E0.42963
G1 X85.637 Y69.753 E0.48112
G1 X86.318 Y69.302 E0.52187
G1 X86.812 Y68.991 E0.551
G1 X87.652 Y68.478 E0.6001
G1 X88.378 Y68.048 E0.6422
G1 X88.908 Y67.751 E0.67251
G1 X89.7 Y67.319 E0.71752
G1 X90.505 Y66.895 E0.76291
G1 X91.069 Y66.615 E0.79433
G1 X91.919 Y66.207 E0.84136
G1 X92.686 Y65.851 E0.88355
G1 X93.166 Y65.64 E0.90971
G1 X94.085 Y65.253 E0.95946
G1 X94.918 Y64.915 E1.00431
G1 X95.387 Y64.736 E1.02935
G1 X96.279 Y64.411 E1.07672
G1 X97.16 Y64.104 E1.12326
G1 X97.752 Y63.913 E1.1543
G1 X98.644 Y63.638 E1.20086
G1 X99.518 Y63.382 E1.2463
G1 X100.017 Y63.247 E1.27209
G1 X100.969 Y63.006 E1.32108
G1 X101.978 Y62.766 E1.37283
G1 X102.437 Y62.668 E1.39624
G1 X103.358 Y62.482 E1.44312
G1 X104.164 Y62.331 E1.48403
G1 X104.746 Y62.235 E1.51346
G1 X105.742 Y62.085 E1.56371
G1 X106.558 Y61.974 E1.6048
G1 X107.144 Y61.907 E1.63422
G1 X108.085 Y61.814 E1.6814
G1 X108.985 Y61.736 E1.72647
G1 X109.553 Y61.7 E1.75486
G1 X110.567 Y61.65 E1.80551
G1 X111.539 Y61.617 E1.85403
G1 X111.899 Y61.613 E1.87199
G1 X112.84 Y61.613 E1.91894
G1 X113.801 Y61.626 E1.96689
G1 X114.344 Y61.645 E1.994
G1 X115.363 Y61.696 E2.0449
G1 X116.173 Y61.748 E2.08539
G1 X116.894 Y61.81 E2.1215
G1 X117.702 Y61.893 E2.16202
G1 X118.628 Y61.999 E2.20852
G1 X119.173 Y62.073 E2.23596
G1 X120.129 Y62.217 E2.28419
G1 X120.984 Y62.358 E2.32743
G1 X121.626 Y62.479 E2.36002
G1 X122.424 Y62.64 E2.40063
G1 X123.497 Y62.874 E2.45542
G1 X123.93 Y62.979 E2.47765
G1 X124.868 Y63.219 E2.52596
G1 X125.851 Y63.486 E2.57678
G1 X126.257 Y63.607 E2.59791
G1 X127.167 Y63.888 E2.64543
G1 X128.015 Y64.163 E2.6899
G1 X128.552 Y64.35 E2.71827
G1 X129.482 Y64.689 E2.76766
G1 X130.261 Y64.985 E2.80923
G1 X130.814 Y65.209 E2.839
G1 X131.699 Y65.584 E2.88695
G1 X132.517 Y65.943 E2.93152
G1 X132.983 Y66.159 E2.95714
G1 X133.89 Y66.596 E3.00737
G1 X134.659 Y66.98 E3.05026
G1 X135.142 Y67.234 E3.07748
G1 X136.004 Y67.704 E3.12646
G1 X136.918 Y68.22 E3.17883
G1 X137.309 Y68.454 E3.20156
G1 X138.057 Y68.913 E3.24535
G1 X138.844 Y69.408 E3.29173
G1 X139.281 Y69.696 E3.31784
G1 X140.124 Y70.271 E3.36875
G1 X140.833 Y70.77 E3.412
G1 X141.239 Y71.068 E3.43713
G1 X142.106 Y71.724 E3.49137
G1 X142.724 Y72.206 E3.53047
G1 X143.164 Y72.565 E3.5588
G1 X143.889 Y73.175 E3.60607
G1 X144.614 Y73.8 E3.65383
G1 X145.014 Y74.161 E3.68071
G1 X145.701 Y74.799 E3.72749
G1 X146.382 Y75.449 E3.77445
G1 X146.76 Y75.826 E3.80109
G1 X147.444 Y76.529 E3.85002
G1 X148.038 Y77.154 E3.89304
G1 X148.441 Y77.598 E3.92296
G1 X149.043 Y78.281 E3.96838
G1 X149.66 Y79.001 E4.01568
G1 X149.977 Y79.387 E4.0406
G1 X150.607 Y80.179 E4.09109
G1 X151.117 Y80.837 E4.13263
G1 X151.462 Y81.303 E4.16155
G1 X151.971 Y82.009 E4.20498
G1 X152.551 Y82.841 E4.25557
G1 X152.855 Y83.298 E4.28296
G1 X153.374 Y84.103 E4.33074
G1 X153.935 Y85.003 E4.38365
G1 X154.138 Y85.346 E4.40354
G1 X154.619 Y86.18 E4.45157
G1 X155.04 Y86.933 E4.49461
G1 X155.289 Y87.401 E4.52106
G1 X155.758 Y88.317 E4.5724
G1 X156.134 Y89.075 E4.61461
G1 X156.373 Y89.586 E4.64276
G1 X156.783 Y90.495 E4.69251
G1 X157.18 Y91.414 E4.74245
G1 X157.375 Y91.897 E4.76844
G1 X157.683 Y92.684 E4.8106
G1 X158.02 Y93.579 E4.85831
G1 X158.188 Y94.058 E4.88364
G1 X158.508 Y95.011 E4.93379
G1 X158.819 Y95.987 E4.9849
G1 X158.925 Y96.35 E5.00376
G1 X159.188 Y97.285 E5.05222
G1 X159.422 Y98.166 E5.0977
G1 X159.549 Y98.689 E5.12455
G1 X159.768 Y99.652 E5.17382
G1 X159.949 Y100.497 E5.21693
G1 X160.054 Y101.05 E5.24502
G1 X160.227 Y102.023 E5.29432
G1 X160.364 Y102.868 E5.33703
G1 X160.45 Y103.49 E5.36836
G1 X160.558 Y104.366 E5.41239
G1 X160.68 Y105.471 E5.46785
G1 X160.712 Y105.853 E5.48698
G1 X160.785 Y106.835 E5.53611
G1 X160.835 Y107.657 E5.57719
G1 X160.86 Y108.318 E5.61019
G1 X160.883 Y109.237 E5.65606
G1 X160.892 Y110.099 E5.69906
G1 X160.885 Y110.704 E5.72925
G1 X160.86 Y111.651 E5.77651
G1 X160.827 Y112.503 E5.81905
G1 X160.797 Y113.007 E5.84424
G1 X160.717 Y114.078 E5.89782
G1 X160.644 Y114.896 E5.93879
G1 X160.581 Y115.459 E5.96706
G1 X160.463 Y116.396 E6.01417
G1 X160.315 Y117.445 E6.06703
G1 X160.226 Y117.981 E6.09413
G1 X160.084 Y118.778 E6.13452
G1 X159.903 Y119.726 E6.18267
G1 X159.795 Y120.234 E6.20858
G1 X159.569 Y121.22 E6.25905
G1 X159.337 Y122.166 E6.30765
G1 X159.218 Y122.612 E6.33067
G1 X158.967 Y123.499 E6.37667
G1 X158.67 Y124.495 E6.42852
G1 X158.517 Y124.967 E6.45327
G1 X158.219 Y125.849 E6.49972
G1 X157.948 Y126.619 E6.54044
G1 X157.72 Y127.225 E6.57275
G1 X157.385 Y128.077 E6.61842
G1 X157.048 Y128.901 E6.66284
G1 X156.826 Y129.411 E6.69059
G1 X156.442 Y130.26 E6.73707
G1 X156.047 Y131.105 E6.78361
G1 X155.809 Y131.583 E6.81025
G1 X155.345 Y132.489 E6.86103
G1 X154.974 Y133.189 E6.90056
G1 X154.664 Y133.743 E6.93223
G1 X154.196 Y134.552 E6.97886
G1 X153.652 Y135.46 E7.03167
G1 X153.424 Y135.821 E7.05297
G1 X152.92 Y136.599 E7.09922
G1 X152.431 Y137.336 E7.14334
G1 X152.123 Y137.778 E7.17022
G1 X151.558 Y138.564 E7.21851
G1 X151.017 Y139.294 E7.26384
G1 X150.666 Y139.748 E7.29247
G1 X150.072 Y140.492 E7.33997
G1 X149.507 Y141.181 E7.38443
G1 X149.145 Y141.603 E7.41216
G1 X148.519 Y142.311 E7.45931
G1 X147.874 Y143.021 E7.50717
G1 X147.537 Y143.376 E7.53159
G1 X146.82 Y144.111 E7.58282
G1 X146.214 Y144.714 E7.62547
G1 X145.835 Y145.076 E7.65162
G1 X145.134 Y145.727 E7.69934
G1 X144.469 Y146.328 E7.74406
G1 X144.026 Y146.71 E7.77325
G1 X143.273 Y147.342 E7.82229
G1 X142.482 Y147.985 E7.87315
G1 X142.159 Y148.236 E7.89356
G1 X141.373 Y148.829 E7.94268
G1 X140.656 Y149.358 E7.98713
G1 X140.217 Y149.666 E8.01389
G1 X139.384 Y150.233 E8.06416
G1 X138.691 Y150.691 E8.1056
G1 X138.194 Y151.004 E8.1349
G1 X137.344 Y151.524 E8.18462
G1 X136.617 Y151.954 E8.22676
G1 X136.089 Y152.25 E8.25696
G1 X135.299 Y152.68 E8.30183
G1 X134.5 Y153.101 E8.34689
G1 X133.99 Y153.356 E8.37533
G1 X133.079 Y153.795 E8.42579
G1 X132.311 Y154.151 E8.46802
G1 X131.761 Y154.391 E8.49796
G1 X130.919 Y154.745 E8.54353
G1 X130.085 Y155.084 E8.58844
G1 X129.546 Y155.289 E8.61721
G1 X128.64 Y155.617 E8.66528
G1 X127.842 Y155.895 E8.70744
G1 X127.243 Y156.088 E8.73884
G1 X126.355 Y156.362 E8.7852
G1 X125.339 Y156.658 E8.838
G1 X124.982 Y156.753 E8.85643
G1 X124.031 Y156.994 E8.90537
G1 X123.171 Y157.2 E8.94949
G1 X122.569 Y157.33 E8.98022
G1 X121.642 Y157.518 E9.02741
G1 X120.836 Y157.669 E9.06832
G1 X120.254 Y157.765 E9.09775
G1 X119.259 Y157.915 E9.14795
G1 X118.443 Y158.026 E9.18903
G1 X117.78 Y158.101 E9.22232
G1 X116.915 Y158.186 E9.26569
G1 X116.015 Y158.264 E9.31075
G1 X115.511 Y158.297 E9.33595
G1 X114.432 Y158.35 E9.38985
G1 X113.461 Y158.383 E9.43832
G1 X113.101 Y158.387 E9.45628
G1 X112.071 Y158.386 E9.50767
G1 X111.2 Y158.374 E9.55113
G1 X110.657 Y158.355 E9.57824
G1 X109.637 Y158.304 E9.62919
G1 X108.827 Y158.252 E9.66968
G1 X108.107 Y158.19 E9.70573
G1 X107.301 Y158.108 E9.74615
G1 X106.373 Y158.002 E9.79275
G1 X105.826 Y157.927 E9.8203
G1 X104.872 Y157.783 E9.86843
G1 X104.016 Y157.642 E9.91171
G1 X103.433 Y157.532 E9.94131
G1 X102.485 Y157.34 E9.98957
G1 X101.485 Y157.122 E10.04063
G1 X101.07 Y157.02 E10.06195
G1 X100.125 Y156.778 E10.11062
G1 X99.155 Y156.515 E10.16076
G1 X98.746 Y156.394 E10.18204
G1 X97.831 Y156.111 E10.22982
G1 X96.841 Y155.788 E10.28178
G1 X96.449 Y155.65 E10.30251
G1 X95.521 Y155.312 E10.35178
G1 X94.741 Y155.016 E10.39341
G1 X94.187 Y154.791 E10.42324
G1 X93.295 Y154.414 E10.47155
G1 X92.482 Y154.057 E10.51585
G1 X92.017 Y153.841 E10.54143
G1 X91.11 Y153.404 E10.59166
G1 X90.341 Y153.02 E10.63454
G1 X89.858 Y152.766 E10.66177
G1 X88.996 Y152.296 E10.71075
G1 X88.082 Y151.78 E10.76311
G1 X87.692 Y151.547 E10.78578
G1 X86.939 Y151.086 E10.82983
G1 X86.154 Y150.592 E10.8761
G1 X85.719 Y150.304 E10.90213
G1 X84.87 Y149.724 E10.95343
G1 X84.048 Y149.144 E11.00362
G1 X83.704 Y148.889 E11.02498
G1 X82.893 Y148.275 E11.07573
G1 X82.274 Y147.792 E11.1149
G1 X81.838 Y147.436 E11.14298
G1 X81.158 Y146.866 E11.18725
G1 X80.384 Y146.198 E11.23826
G1 X79.986 Y145.838 E11.26503
G1 X79.268 Y145.171 E11.31392
G1 X78.616 Y144.548 E11.35891
G1 X78.24 Y144.174 E11.38537
G1 X77.556 Y143.471 E11.43431
G1 X76.962 Y142.846 E11.47733
G1 X76.601 Y142.448 E11.50413
G1 X75.947 Y141.706 E11.55348
G1 X75.341 Y140.999 E11.59993
G1 X75.024 Y140.614 E11.62482
G1 X74.378 Y139.803 E11.67654
G1 X73.88 Y139.16 E11.71712
G1 X73.536 Y138.694 E11.74602
G1 X73.024 Y137.984 E11.78969
G1 X72.447 Y137.156 E11.84004
G1 X72.141 Y136.696 E11.8676
G1 X71.611 Y135.873 E11.91644
G1 X71.065 Y134.997 E11.96794
G1 X70.86 Y134.651 E11.988
G1 X70.37 Y133.801 E12.03695
G1 X69.96 Y133.068 E12.07885
G1 X69.711 Y132.599 E12.10534
G1 X69.237 Y131.674 E12.1572
G1 X68.866 Y130.927 E12.19881
G1 X68.627 Y130.414 E12.22704
G1 X68.208 Y129.484 E12.27793
G1 X67.882 Y128.733 E12.31878
G1 X67.626 Y128.104 E12.35266
G1 X67.319 Y127.321 E12.39462
G1 X66.981 Y126.425 E12.44239
G1 X66.812 Y125.944 E12.46783
G1 X66.487 Y124.977 E12.51873
G1 X66.224 Y124.155 E12.56178
G1 X66.076 Y123.653 E12.58789
G1 X65.801 Y122.673 E12.63867
G1 X65.578 Y121.833 E12.68203
G1 X65.451 Y121.311 E12.70884
G1 X65.226 Y120.323 E12.75939
G1 X65.05 Y119.497 E12.80152
G1 X64.946 Y118.95 E12.8293
G1 X64.773 Y117.97 E12.87895
G1 X64.637 Y117.133 E12.92126
G1 X64.56 Y116.585 E12.94887
G1 X64.436 Y115.591 E12.99884
G1 X64.336 Y114.691 E13.04402
G1 X64.288 Y114.143 E13.07146
G1 X64.214 Y113.145 E13.12139
G1 X64.165 Y112.345 E13.16138
G1 X64.142 Y111.74 E13.19158
G1 X64.117 Y110.756 E13.24069
G1 X64.108 Y109.903 E13.28325
G1 X64.115 Y109.295 E13.31358
G1 X64.14 Y108.345 E13.361
G1 X64.173 Y107.496 E13.40339
G1 X64.203 Y106.993 E13.42852
G1 X64.285 Y105.904 E13.48301
G1 X64.356 Y105.106 E13.52298
G1 X64.419 Y104.541 E13.55134
G1 X64.524 Y103.696 E13.59382
G1 X64.686 Y102.548 E13.65166
G1 X64.786 Y101.95 E13.68191
G1 X64.925 Y101.167 E13.72159
G1 X65.097 Y100.269 E13.7672
G1 X65.205 Y99.766 E13.79287
G1 X65.431 Y98.777 E13.84348
G1 X65.628 Y97.967 E13.88507
G1 X65.76 Y97.469 E13.91078
G1 X66.042 Y96.469 E13.96261
G1 X66.33 Y95.506 E14.01276
G1 X66.482 Y95.036 E14.0374
G1 X66.785 Y94.139 E14.08464
G1 X67.104 Y93.238 E14.13232
G1 X67.28 Y92.775 E14.15704
G1 X67.614 Y91.926 E14.20255
G1 X67.951 Y91.101 E14.24701
G1 X68.174 Y90.589 E14.27487
G1 X68.558 Y89.74 E14.32136
G1 X68.953 Y88.895 E14.3679
G1 X69.196 Y88.405 E14.39518
G1 X69.66 Y87.501 E14.44588
G1 X70.027 Y86.809 E14.48496
G1 X70.339 Y86.252 E14.51681
G1 X70.827 Y85.409 E14.56541
G1 X71.348 Y84.54 E14.61596
G1 X71.573 Y84.183 E14.63701
G1 X72.115 Y83.346 E14.68676
G1 X72.575 Y82.655 E14.72817
G1 X72.874 Y82.227 E14.75422
G1 X73.44 Y81.441 E14.80254
G1 X74.072 Y80.589 E14.85547
G1 X74.385 Y80.188 E14.88084
G1 X74.925 Y79.511 E14.92405
G1 X75.49 Y78.821 E14.96854
G1 X75.864 Y78.386 E14.99716
G1 X76.481 Y77.688 E15.04364
G1 X77.127 Y76.977 E15.09157
G1 X77.466 Y76.621 E15.11609
G1 X78.201 Y75.868 E15.16859
M205 X10 Y10
G0 F6000 X78.483 Y76.151
M205 X8 Y8
G1 F1200 X79.068 Y75.569 E15.20976
G1 X79.432 Y75.221 E15.23488
G1 X80.199 Y74.509 E15.28709
G1 X80.802 Y73.965 E15.32761
G1 X81.225 Y73.6 E15.35549
G1 X81.989 Y72.96 E15.40521
G1 X82.664 Y72.409 E15.44868
G1 X83.078 Y72.085 E15.47491
G1 X83.874 Y71.485 E15.52464
G1 X84.71 Y70.873 E15.57633
G1 X85.01 Y70.664 E15.59457
G1 X85.858 Y70.087 E15.64574
G1 X86.539 Y69.636 E15.68649
G1 X87.024 Y69.331 E15.71507
G1 X87.855 Y68.823 E15.76367
G1 X88.726 Y68.309 E15.81412
G1 X89.099 Y68.102 E15.83541
G1 X89.887 Y67.673 E15.88017
G1 X90.692 Y67.249 E15.92556
G1 X91.243 Y66.976 E15.95624
G1 X92.087 Y66.57 E16.00296
G1 X92.985 Y66.155 E16.05232
G1 X93.389 Y65.979 E16.0743
G1 X94.235 Y65.623 E16.12009
G1 X95.068 Y65.285 E16.16494
G1 X95.59 Y65.087 E16.1928
G1 X96.492 Y64.76 E16.24066
G1 X97.291 Y64.482 E16.28287
G1 X97.874 Y64.294 E16.31343
G1 X98.756 Y64.022 E16.35948
G1 X99.63 Y63.766 E16.40492
G1 X100.116 Y63.635 E16.43003
G1 X101.062 Y63.395 E16.47872
G1 X102.062 Y63.157 E16.53
G1 X102.517 Y63.06 E16.55321
G1 X103.432 Y62.876 E16.59978
G1 X104.384 Y62.699 E16.64809
G1 X104.875 Y62.62 E16.6729
G1 X105.796 Y62.482 E16.71936
G1 X106.612 Y62.371 E16.76044
G1 X107.259 Y62.297 E16.79293
G1 X108.12 Y62.212 E16.8361
G1 X109.02 Y62.134 E16.88117
G1 X109.573 Y62.099 E16.90881
G1 X110.582 Y62.05 E16.95921
G1 X111.543 Y62.017 E17.00718
G1 X111.903 Y62.013 E17.02514
G1 X112.84 Y62.013 E17.07189
G1 X113.795 Y62.026 E17.11954
G1 X114.387 Y62.047 E17.14909
G1 X115.337 Y62.095 E17.19655
G1 X116.147 Y62.147 E17.23705
G1 X116.778 Y62.201 E17.26864
G1 X117.577 Y62.281 E17.3087
G1 X118.582 Y62.396 E17.35917
G1 X119.181 Y62.478 E17.38933
G1 X120.064 Y62.612 E17.43389
G1 X121.073 Y62.78 E17.48492
G1 X121.547 Y62.872 E17.50901
G1 X122.43 Y63.05 E17.55395
G1 X123.404 Y63.263 E17.60369
G1 X123.831 Y63.366 E17.62561
G1 X124.764 Y63.605 E17.67366
G1 X125.605 Y63.832 E17.71712
G1 X126.139 Y63.989 E17.74488
G1 X127.044 Y64.269 E17.79215
G1 X128.028 Y64.589 E17.84377
G1 X128.416 Y64.726 E17.8643
G1 X129.34 Y65.063 E17.91337
G1 X130.119 Y65.359 E17.95494
G1 X130.594 Y65.551 E17.9805
G1 X131.538 Y65.95 E18.03163
G1 X132.487 Y66.368 E18.08337
G1 X132.81 Y66.519 E18.10116
G1 X133.711 Y66.954 E18.15107
G1 X134.613 Y67.406 E18.20141
G1 X135.012 Y67.618 E18.22395
G1 X135.808 Y68.053 E18.26921
G1 X136.713 Y68.564 E18.32106
G1 X137.1 Y68.795 E18.34354
G1 X137.844 Y69.251 E18.38708
G1 X138.631 Y69.746 E18.43346
G1 X139.059 Y70.029 E18.45906
G1 X139.893 Y70.598 E18.50943
G1 X140.602 Y71.097 E18.55268
G1 X141.055 Y71.43 E18.58073
G1 X141.86 Y72.04 E18.63112
G1 X142.6 Y72.619 E18.678
G1 X142.957 Y72.913 E18.70107
G1 X143.628 Y73.478 E18.74484
G1 X144.353 Y74.103 E18.79259
G1 X144.742 Y74.455 E18.81877
G1 X145.425 Y75.089 E18.86526
G1 X146.206 Y75.836 E18.91918
G1 X146.474 Y76.105 E18.93812
G1 X147.154 Y76.805 E18.98681
G1 X147.859 Y77.549 E19.03794
G1 X148.141 Y77.863 E19.059
G1 X148.739 Y78.542 E19.10414
G1 X149.442 Y79.364 E19.1581
G1 X149.664 Y79.637 E19.17566
G1 X150.291 Y80.424 E19.22586
G1 X150.801 Y81.082 E19.26739
G1 X151.171 Y81.583 E19.29846
G1 X151.698 Y82.316 E19.3435
G1 X152.223 Y83.069 E19.3893
G1 X152.519 Y83.515 E19.41601
G1 X153.035 Y84.315 E19.4635
G1 X153.591 Y85.207 E19.51594
G1 X153.792 Y85.547 E19.53565
G1 X154.27 Y86.375 E19.58334
G1 X154.691 Y87.128 E19.62638
G1 X154.935 Y87.587 E19.65232
G1 X155.4 Y88.495 E19.70321
G1 X155.776 Y89.253 E19.74543
