;FLAVOR:Marlin
;TIME:2673
;Filament used: 1.92501m
;Layer height: 0.2
;MINX:76.215
;MINY:73.711
;MINZ:0.3
;MAXX:148.785
;MAXY:146.285
;MAXZ:4.575
;Generated with Cura_SteamEngine 4.13.1
M140 S60
M105
M190 S60
M104 S200
M105
M109 S200
M82 ;absolute extrusion mode
G21                                        ; metric values
G90                                        ; absolute positioning
M82                                        ; set extruder to absolute mode
M107                                       ; start with the fan off
M190 S60                                   ; preheat and wait for bed
M109 S210                                  ; preheat and wait for hotend
M300 S1000 P500                            ; BEEP heating done
G28 X0 Y10 Z0                              ; move X/Y to min endstops
M420 S1                                    ; enable mesh leveling
G0 Z0.15                                   ; lift nozzle a bit
G0 X2                                      ; move away from clips
G92 E0                                     ; zero the extruded length
G1 Y50 E25 F500                            ; Extrude 25mm of filament in a 5cm line.
G92 E0                                     ; zero the extruded length again
G1 E-2 F500                                ; Retract a little
G1 Y120 F4000                              ; Quickly wipe away from the filament line
G92 E0
G92 E0
G1 F1500 E-6
;LAYER_COUNT:22
;LAYER:0
M107
M205 X10 Y10
G1 F600 Z0.375
G0 F6000 X86.065 Y85.157 Z0.375
M205 X8 Y8
;TYPE:SKIRT
G1 F600 Z0.3
G1 F1500 E0
G1 F1200 X87.558 Y83.665 E0.1053
G1 X88.04 Y83.198 E0.13879
G1 X88.44 Y82.837 E0.16567
G1 X88.828 Y82.513 E0.19089
G1 X90.421 Y81.223 E0.29315
G1 X90.984 Y80.78 E0.32889
G1 X91.412 Y80.469 E0.35529
G1 X91.88 Y80.157 E0.38335
G1 X93.491 Y79.111 E0.47918
G1 X94.164 Y78.688 E0.51884
G1 X94.669 Y78.398 E0.54789
G1 X95.075 Y78.185 E0.57076
G1 X96.879 Y77.267 E0.67175
G1 X97.501 Y76.959 E0.70638
G1 X98.094 Y76.697 E0.73872
G1 X98.488 Y76.54 E0.75988
G1 X100.396 Y75.808 E0.86184
G1 X101.047 Y75.568 E0.89645
G1 X101.561 Y75.4 E0.92343
G1 X102.102 Y75.247 E0.95148
G1 X104.034 Y74.731 E1.05124
G1 X104.718 Y74.559 E1.08643
G1 X105.258 Y74.443 E1.11399
G1 X105.756 Y74.357 E1.1392
G1 X107.755 Y74.041 E1.24017
G1 X108.472 Y73.938 E1.27631
G1 X109.061 Y73.877 E1.30585
G1 X109.453 Y73.851 E1.32545
G1 X111.574 Y73.741 E1.43141
G1 X112.242 Y73.715 E1.46476
G1 X112.607 Y73.711 E1.48297
G1 X113.266 Y73.732 E1.51587
G1 X115.403 Y73.845 E1.62263
G1 X116.066 Y73.89 E1.65578
G1 X116.624 Y73.949 E1.68378
G1 X117.142 Y74.024 E1.70989
G1 X119.091 Y74.333 E1.80834
G1 X119.791 Y74.453 E1.84377
G1 X120.439 Y74.594 E1.87686
G1 X120.813 Y74.689 E1.89611
G1 X122.746 Y75.207 E1.99595
G1 X123.505 Y75.423 E2.03532
G1 X124.003 Y75.584 E2.06143
G1 X124.513 Y75.773 E2.08857
G1 X126.397 Y76.497 E2.18926
G1 X127.035 Y76.752 E2.22354
G1 X127.535 Y76.974 E2.25083
G1 X128.027 Y77.217 E2.27821
G1 X129.806 Y78.124 E2.37783
G1 X130.407 Y78.441 E2.41173
G1 X130.869 Y78.706 E2.43831
G1 X131.315 Y78.984 E2.46453
G1 X133.041 Y80.106 E2.56723
G1 X133.627 Y80.498 E2.60241
G1 X134.083 Y80.829 E2.63052
G1 X134.462 Y81.128 E2.6546
G1 X136.062 Y82.425 E2.75736
G1 X136.597 Y82.872 E2.79214
G1 X137.043 Y83.273 E2.82206
G1 X137.343 Y83.565 E2.84295
G1 X138.835 Y85.058 E2.94825
G1 X139.302 Y85.54 E2.98173
G1 X139.663 Y85.94 E3.00862
G1 X139.987 Y86.328 E3.03384
G1 X141.222 Y87.853 E3.13174
G1 X141.712 Y88.475 E3.17124
G1 X142.029 Y88.909 E3.19805
G1 X142.309 Y89.327 E3.22316
G1 X143.394 Y90.998 E3.32255
G1 X143.814 Y91.668 E3.36201
G1 X144.086 Y92.139 E3.38914
G1 X144.316 Y92.575 E3.41373
G1 X145.242 Y94.394 E3.51557
G1 X145.547 Y95.014 E3.55004
G1 X145.789 Y95.561 E3.57988
G1 X145.96 Y95.988 E3.60283
G1 X146.69 Y97.89 E3.70447
G1 X146.93 Y98.539 E3.73899
G1 X147.106 Y99.08 E3.76737
G1 X147.253 Y99.601 E3.79438
G1 X147.767 Y101.525 E3.89374
G1 X147.94 Y102.209 E3.92893
G1 X148.063 Y102.788 E3.95847
G1 X148.143 Y103.255 E3.9821
G1 X148.459 Y105.254 E4.08307
G1 X148.561 Y105.964 E4.11886
G1 X148.622 Y106.553 E4.1484
G1 X148.649 Y106.953 E4.1684
G1 X148.759 Y109.074 E4.27436
G1 X148.785 Y109.741 E4.30766
G1 X148.785 Y110.327 E4.3369
G1 X148.765 Y110.832 E4.36211
G1 X148.656 Y112.897 E4.46528
G1 X148.612 Y113.553 E4.49808
G1 X148.551 Y114.124 E4.52673
G1 X148.476 Y114.642 E4.55284
G1 X148.167 Y116.591 E4.65129
G1 X148.047 Y117.291 E4.68673
G1 X147.906 Y117.939 E4.71981
G1 X147.811 Y118.313 E4.73906
G1 X147.269 Y120.332 E4.84336
G1 X147.085 Y120.982 E4.87706
G1 X146.918 Y121.497 E4.90407
G1 X146.727 Y122.013 E4.93152
G1 X146.003 Y123.897 E5.03222
G1 X145.748 Y124.535 E5.0665
G1 X145.526 Y125.035 E5.09379
G1 X145.283 Y125.527 E5.12117
G1 X144.378 Y127.302 E5.22057
G1 X144.062 Y127.902 E5.2544
G1 X143.789 Y128.378 E5.28177
G1 X143.516 Y128.815 E5.30748
G1 X142.394 Y130.541 E5.41019
G1 X142.002 Y131.127 E5.44536
G1 X141.671 Y131.583 E5.47347
G1 X141.372 Y131.962 E5.49756
G1 X140.075 Y133.562 E5.60031
G1 X139.628 Y134.097 E5.63509
G1 X139.227 Y134.543 E5.66502
G1 X138.935 Y134.843 E5.6859
G1 X137.442 Y136.335 E5.79121
G1 X136.96 Y136.802 E5.82469
G1 X136.56 Y137.163 E5.85157
G1 X136.172 Y137.487 E5.87679
G1 X134.571 Y138.783 E5.97956
G1 X134.01 Y139.223 E6.01513
G1 X133.603 Y139.52 E6.04026
G1 X133.173 Y139.808 E6.06608
G1 X131.514 Y140.884 E6.16473
G1 X130.844 Y141.306 E6.20424
G1 X130.361 Y141.586 E6.23209
G1 X129.927 Y141.815 E6.25657
G1 X128.105 Y142.743 E6.35858
G1 X127.485 Y143.048 E6.39306
G1 X126.925 Y143.295 E6.42359
G1 X126.512 Y143.46 E6.44578
G1 X124.604 Y144.192 E6.54774
G1 X123.953 Y144.432 E6.58235
G1 X123.439 Y144.6 E6.60933
G1 X122.898 Y144.753 E6.63738
G1 X120.966 Y145.269 E6.73715
G1 X120.282 Y145.441 E6.77233
G1 X119.742 Y145.557 E6.79989
G1 X119.244 Y145.643 E6.8251
G1 X117.245 Y145.959 E6.92607
G1 X116.528 Y146.062 E6.96221
G1 X115.939 Y146.123 E6.99175
G1 X115.547 Y146.149 E7.01135
G1 X113.426 Y146.259 E7.11731
G1 X112.758 Y146.285 E7.15066
G1 X112.172 Y146.285 E7.1799
G1 X111.668 Y146.265 E7.20506
G1 X109.598 Y146.155 E7.30848
G1 X108.934 Y146.11 E7.34168
G1 X108.376 Y146.051 E7.36968
G1 X107.857 Y145.975 E7.39585
G1 X105.899 Y145.665 E7.49475
G1 X105.21 Y145.547 E7.52962
G1 X104.561 Y145.406 E7.56276
G1 X104.187 Y145.311 E7.58201
G1 X102.254 Y144.793 E7.68185
G1 X101.495 Y144.577 E7.72122
G1 X100.997 Y144.416 E7.74733
G1 X100.487 Y144.227 E7.77447
G1 X98.603 Y143.503 E7.87516
G1 X97.965 Y143.248 E7.90944
G1 X97.465 Y143.026 E7.93673
G1 X96.973 Y142.783 E7.96411
G1 X95.192 Y141.875 E8.06384
G1 X94.584 Y141.554 E8.09815
G1 X94.128 Y141.293 E8.12436
G1 X93.685 Y141.016 E8.15043
G1 X91.956 Y139.892 E8.25331
G1 X91.369 Y139.499 E8.28855
G1 X90.922 Y139.175 E8.3161
G1 X90.537 Y138.872 E8.34054
G1 X88.937 Y137.575 E8.4433
G1 X88.403 Y137.129 E8.47801
G1 X87.957 Y136.727 E8.50796
G1 X87.657 Y136.435 E8.52885
G1 X86.165 Y134.943 E8.63412
G1 X85.697 Y134.46 E8.66767
G1 X85.335 Y134.058 E8.69466
G1 X85.013 Y133.672 E8.71974
G1 X83.723 Y132.079 E8.822
G1 X83.29 Y131.529 E8.85693
G1 X82.963 Y131.079 E8.88468
G1 X82.658 Y130.62 E8.91217
G1 X81.616 Y129.014 E9.00768
G1 X81.194 Y128.344 E9.04719
G1 X80.914 Y127.861 E9.07504
G1 X80.685 Y127.427 E9.09952
G1 X79.757 Y125.605 E9.20154
G1 X79.451 Y124.983 E9.23612
G1 X79.203 Y124.422 E9.26672
G1 X79.04 Y124.012 E9.28873
G1 X78.309 Y122.106 E9.39058
G1 X78.068 Y121.453 E9.4253
G1 X77.896 Y120.927 E9.45291
G1 X77.747 Y120.398 E9.48033
G1 X77.234 Y118.476 E9.57958
G1 X77.059 Y117.785 E9.61514
G1 X76.935 Y117.201 E9.64493
G1 X76.857 Y116.744 E9.66805
G1 X76.541 Y114.745 E9.76902
G1 X76.438 Y114.029 E9.80511
G1 X76.377 Y113.439 E9.8347
G1 X76.351 Y113.047 E9.8543
G1 X76.241 Y110.923 E9.96041
G1 X76.215 Y110.247 E9.99416
G1 X76.215 Y109.668 E10.02305
G1 X76.235 Y109.168 E10.04802
G1 X76.345 Y107.098 E10.15143
G1 X76.39 Y106.434 E10.18464
G1 X76.448 Y105.879 E10.21248
G1 X76.525 Y105.358 E10.23875
G1 X76.834 Y103.406 E10.33735
G1 X76.956 Y102.697 E10.37324
G1 X77.088 Y102.084 E10.40453
G1 X77.189 Y101.687 E10.42496
G1 X77.733 Y99.661 E10.52962
G1 X77.922 Y98.996 E10.56411
G1 X78.084 Y98.496 E10.59033
G1 X78.273 Y97.987 E10.61742
G1 X78.998 Y96.101 E10.71823
G1 X79.254 Y95.461 E10.75262
G1 X79.467 Y94.979 E10.77891
G1 X79.717 Y94.473 E10.80707
G1 X80.622 Y92.698 E10.90647
G1 X80.938 Y92.098 E10.9403
G1 X81.211 Y91.622 E10.96767
G1 X81.484 Y91.185 E10.99338
G1 X82.609 Y89.454 E11.09638
G1 X83.005 Y88.863 E11.13187
G1 X83.325 Y88.422 E11.15905
G1 X83.628 Y88.038 E11.18346
G1 X84.925 Y86.438 E11.28621
G1 X85.372 Y85.903 E11.321
G1 X85.773 Y85.457 E11.35092
G1 X86.065 Y85.157 E11.3718
M205 X10 Y10
G0 F6000 X86.348 Y85.44
M205 X8 Y8
G1 F1200 X87.836 Y83.952 E11.47679
G1 X88.318 Y83.485 E11.51027
G1 X88.703 Y83.138 E11.53613
G1 X89.132 Y82.781 E11.56398
G1 X90.669 Y81.538 E11.66259
G1 X91.232 Y81.095 E11.69834
G1 X91.641 Y80.797 E11.72358
G1 X92.097 Y80.492 E11.75095
G1 X93.704 Y79.45 E11.8465
G1 X94.377 Y79.027 E11.88616
G1 X94.862 Y78.748 E11.91408
G1 X95.256 Y78.542 E11.93626
G1 X97.056 Y77.625 E12.03704
G1 X97.678 Y77.317 E12.07167
G1 X98.248 Y77.066 E12.10274
G1 X98.631 Y76.914 E12.1233
G1 X100.535 Y76.183 E12.22505
G1 X101.186 Y75.943 E12.25967
G1 X101.678 Y75.782 E12.28549
G1 X102.205 Y75.634 E12.3128
G1 X104.132 Y75.119 E12.41232
G1 X104.816 Y74.947 E12.4475
G1 X105.337 Y74.835 E12.47409
G1 X105.818 Y74.752 E12.49844
G1 X107.812 Y74.437 E12.59916
G1 X108.529 Y74.334 E12.63529
G1 X109.095 Y74.275 E12.66369
G1 X109.473 Y74.25 E12.68259
G1 X111.59 Y74.141 E12.78834
G1 X112.258 Y74.115 E12.82169
G1 X112.6 Y74.111 E12.83876
G1 X113.249 Y74.131 E12.87115
G1 X115.286 Y74.238 E12.97292
G1 X116.039 Y74.289 E13.01057
G1 X116.575 Y74.346 E13.03746
G1 X117.079 Y74.42 E13.06288
G1 X119.024 Y74.727 E13.16112
G1 X119.724 Y74.847 E13.19655
G1 X120.346 Y74.983 E13.22831
G1 X120.709 Y75.075 E13.247
G1 X122.732 Y75.618 E13.3515
G1 X123.396 Y75.807 E13.38594
G1 X123.872 Y75.962 E13.41091
G1 X124.37 Y76.146 E13.4374
G1 X126.249 Y76.869 E13.53785
G1 X126.887 Y77.124 E13.57212
G1 X127.366 Y77.337 E13.59828
G1 X127.846 Y77.574 E13.62498
G1 X129.619 Y78.478 E13.72427
G1 X130.22 Y78.795 E13.75817
G1 X130.665 Y79.05 E13.78376
G1 X131.1 Y79.322 E13.80936
G1 X132.819 Y80.439 E13.91163
G1 X133.405 Y80.831 E13.94681
G1 X133.843 Y81.148 E13.97378
G1 X134.211 Y81.439 E13.99719
G1 X135.806 Y82.732 E14.09963
G1 X136.341 Y83.179 E14.13441
G1 X136.77 Y83.566 E14.16323
G1 X137.06 Y83.848 E14.18341
G1 X138.548 Y85.336 E14.2884
G1 X139.015 Y85.818 E14.32188
G1 X139.362 Y86.203 E14.34774
G1 X139.719 Y86.632 E14.37558
G1 X140.96 Y88.166 E14.47402
G1 X141.398 Y88.722 E14.50934
G1 X141.702 Y89.139 E14.53508
G1 X142.006 Y89.595 E14.56242
G1 X143.055 Y91.21 E14.6585
G1 X143.475 Y91.88 E14.69795
G1 X143.737 Y92.334 E14.7241
G1 X143.959 Y92.756 E14.74789
G1 X144.883 Y94.571 E14.8495
G1 X145.188 Y95.191 E14.88397
G1 X145.421 Y95.717 E14.91268
G1 X145.586 Y96.131 E14.93491
G1 X146.315 Y98.029 E15.03635
G1 X146.555 Y98.678 E15.07087
G1 X146.723 Y99.196 E15.09804
G1 X146.866 Y99.704 E15.12437
G1 X147.379 Y101.623 E15.22347
G1 X147.552 Y102.307 E15.25867
G1 X147.67 Y102.865 E15.28712
G1 X147.748 Y103.318 E15.31005
G1 X148.063 Y105.311 E15.41072
G1 X148.165 Y106.021 E15.44651
G1 X148.224 Y106.588 E15.47495
G1 X148.25 Y106.973 E15.4942
G1 X148.359 Y109.089 E15.59991
G1 X148.385 Y109.756 E15.63321
G1 X148.385 Y110.32 E15.66135
G1 X148.366 Y110.811 E15.68586
G1 X148.257 Y112.871 E15.78878
G1 X148.213 Y113.527 E15.82158
G1 X148.154 Y114.075 E15.84908
G1 X148.08 Y114.579 E15.87449
G1 X147.773 Y116.524 E15.97273
G1 X147.653 Y117.224 E16.00816
G1 X147.517 Y117.846 E16.03993
G1 X147.425 Y118.209 E16.05861
G1 X146.884 Y120.223 E16.16265
G1 X146.7 Y120.873 E16.19635
G1 X146.54 Y121.367 E16.22226
G1 X146.354 Y121.87 E16.24901
G1 X145.631 Y123.749 E16.34946
G1 X145.376 Y124.387 E16.38374
G1 X145.163 Y124.866 E16.40989
G1 X144.926 Y125.346 E16.4366
G1 X144.024 Y127.116 E16.53571
G1 X143.708 Y127.716 E16.56954
G1 X143.445 Y128.174 E16.59589
G1 X143.178 Y128.6 E16.62097
G1 X142.061 Y130.319 E16.72325
G1 X141.669 Y130.905 E16.75842
G1 X141.352 Y131.343 E16.7854
G1 X141.061 Y131.711 E16.8088
G1 X139.768 Y133.306 E16.91124
G1 X139.321 Y133.841 E16.94602
G1 X138.934 Y134.27 E16.97485
G1 X138.652 Y134.56 E16.99503
G1 X137.164 Y136.048 E17.10001
G1 X136.682 Y136.515 E17.1335
G1 X136.297 Y136.862 E17.15935
G1 X135.868 Y137.219 E17.1872
G1 X134.324 Y138.468 E17.28628
G1 X133.763 Y138.908 E17.32185
G1 X133.234 Y139.287 E17.35431
G1 X132.903 Y139.507 E17.37414
G1 X131.301 Y140.546 E17.4694
G1 X130.631 Y140.968 E17.50891
G1 X130.166 Y141.237 E17.53571
G1 X129.745 Y141.459 E17.55945
G1 X127.928 Y142.384 E17.66118
G1 X127.308 Y142.689 E17.69565
G1 X126.771 Y142.926 E17.72493
G1 X126.369 Y143.086 E17.74652
G1 X124.465 Y143.817 E17.84827
G1 X123.814 Y144.057 E17.88289
G1 X123.322 Y144.218 E17.90871
G1 X122.795 Y144.366 E17.93602
G1 X120.868 Y144.881 E18.03553
G1 X120.184 Y145.053 E18.07072
G1 X119.663 Y145.165 E18.09731
G1 X119.182 Y145.248 E18.12166
G1 X117.188 Y145.563 E18.22237
G1 X116.471 Y145.666 E18.25851
G1 X115.905 Y145.725 E18.2869
G1 X115.527 Y145.75 E18.3058
G1 X113.41 Y145.859 E18.41156
G1 X112.742 Y145.885 E18.44491
G1 X112.179 Y145.885 E18.473
G1 X111.689 Y145.866 E18.49747
G1 X109.625 Y145.756 E18.60058
G1 X108.961 Y145.711 E18.63379
G1 X108.425 Y145.654 E18.66068
G1 X107.92 Y145.58 E18.68614
G1 X105.966 Y145.271 E18.78484
G1 X105.277 Y145.153 E18.81972
G1 X104.654 Y145.017 E18.85153
G1 X104.291 Y144.925 E18.87021
G1 X102.268 Y144.382 E18.97471
G1 X101.604 Y144.193 E19.00915
G1 X101.128 Y144.038 E19.03413
G1 X100.63 Y143.854 E19.06062
G1 X98.751 Y143.131 E19.16106
G1 X98.113 Y142.876 E19.19534
G1 X97.634 Y142.663 E19.22149
G1 X97.154 Y142.426 E19.2482
G1 X95.379 Y141.521 E19.3476
G1 X94.771 Y141.2 E19.3819
G1 X94.332 Y140.948 E19.40716
G1 X93.9 Y140.678 E19.43257
G1 X92.179 Y139.56 E19.53496
G1 X91.592 Y139.167 E19.5702
G1 X91.162 Y138.855 E19.59671
G1 X90.789 Y138.561 E19.6204
G1 X89.194 Y137.268 E19.72284
G1 X88.66 Y136.822 E19.75755
G1 X88.23 Y136.434 E19.78645
G1 X87.94 Y136.152 E19.80663
G1 X86.452 Y134.664 E19.91161
G1 X85.984 Y134.181 E19.94517
G1 X85.636 Y133.795 E19.97109
G1 X85.281 Y133.369 E19.99876
G1 X84.038 Y131.831 E20.09742
G1 X83.605 Y131.281 E20.13234
G1 X83.292 Y130.85 E20.15892
G1 X82.993 Y130.403 E20.18575
G1 X81.954 Y128.801 E20.28101
G1 X81.532 Y128.131 E20.32051
G1 X81.263 Y127.666 E20.34731
G1 X81.041 Y127.245 E20.37106
G1 X80.116 Y125.429 E20.47273
G1 X79.81 Y124.807 E20.50732
G1 X79.572 Y124.267 E20.53676
G1 X79.414 Y123.869 E20.55812
G1 X78.684 Y121.967 E20.65976
G1 X78.443 Y121.314 E20.69449
G1 X78.279 Y120.81 E20.72093
G1 X78.134 Y120.295 E20.74762
G1 X77.622 Y118.378 E20.84662
G1 X77.447 Y117.687 E20.88218
G1 X77.328 Y117.124 E20.91089
G1 X77.252 Y116.681 E20.93331
G1 X76.937 Y114.688 E21.03398
G1 X76.834 Y113.972 E21.07007
G1 X76.775 Y113.405 E21.09851
G1 X76.75 Y113.027 E21.11741
G1 X76.64 Y110.908 E21.22327
G1 X76.614 Y110.232 E21.25702
G1 X76.615 Y109.675 E21.28481
G1 X76.634 Y109.189 E21.30907
G1 X76.744 Y107.125 E21.41219
G1 X76.789 Y106.461 E21.44539
G1 X76.845 Y105.928 E21.47213
G1 X76.92 Y105.42 E21.49775
G1 X77.228 Y103.474 E21.59605
G1 X77.35 Y102.765 E21.63194
G1 X77.477 Y102.175 E21.66205
G1 X77.575 Y101.791 E21.68182
G1 X78.093 Y99.858 E21.78166
G1 X78.307 Y99.106 E21.82067
G1 X78.462 Y98.627 E21.84578
G1 X78.646 Y98.13 E21.87222
G1 X79.369 Y96.25 E21.97271
G1 X79.625 Y95.61 E22.0071
G1 X79.83 Y95.147 E22.03237
G1 X80.053 Y94.695 E22.05751
G1 X80.976 Y92.884 E22.15892
G1 X81.292 Y92.284 E22.19275
G1 X81.555 Y91.826 E22.2191
G1 X81.822 Y91.4 E22.24418
G1 X82.941 Y89.677 E22.34668
G1 X83.337 Y89.086 E22.38217
G1 X83.645 Y88.662 E22.40832
G1 X83.939 Y88.289 E22.43201
G1 X85.232 Y86.694 E22.53445
G1 X85.679 Y86.159 E22.56923
G1 X86.066 Y85.73 E22.59806
G1 X86.348 Y85.44 E22.61824
M205 X10 Y10
G0 F6000 X86.631 Y85.723
M205 X8 Y8
G1 F1200 X88.114 Y84.239 E22.72291
G1 X88.596 Y83.772 E22.75639
G1 X89.084 Y83.339 E22.78894
G1 X89.383 Y83.092 E22.80829
G1 X90.916 Y81.852 E22.90666
G1 X91.479 Y81.409 E22.9424
