;FLAVOR:Marlin
;TIME:2885
;Filament used: 2.04849m
;Layer height: 0.2
;MINX:76.013
;MINY:73.51
;MINZ:0.3
;MAXX:148.986
;MAXY:146.486
;MAXZ:4.775
;Generated with Cura_SteamEngine 4.13.1
M140 S60
M105
M190 S60
M104 S200
M105
M109 S200
M82 ;absolute extrusion mode
G21                                        ; metric values
G90                                        ; absolute positioning
M82                                        ; set extruder to absolute mode
M107                                       ; start with the fan off
M190 S60                                   ; preheat and wait for bed
M109 S210                                  ; preheat and wait for hotend
M300 S1000 P500                            ; BEEP heating done
G28 X0 Y10 Z0                              ; move X/Y to min endstops
M420 S1                                    ; enable mesh leveling
G0 Z0.15                                   ; lift nozzle a bit
G0 X2                                      ; move away from clips
G92 E0                                     ; zero the extruded length
G1 Y50 E25 F500                            ; Extrude 25mm of filament in a 5cm line.
G92 E0                                     ; zero the extruded length again
G1 E-2 F500                                ; Retract a little
G1 Y120 F4000                              ; Quickly wipe away from the filament line
G92 E0
G92 E0
G1 F1500 E-6
;LAYER_COUNT:23
;LAYER:0
M107
M205 X10 Y10
G1 F600 Z0.375
G0 F6000 X85.817 Y85.123 Z0.375
M205 X8 Y8
;TYPE:SKIRT
G1 F600 Z0.3
G1 F1500 E0
G1 F1200 X87.341 Y83.597 E0.1076
G1 X87.898 Y83.057 E0.1463
G1 X88.318 Y82.679 E0.17449
G1 X88.732 Y82.333 E0.20141
G1 X90.25 Y81.102 E0.29892
G1 X90.827 Y80.648 E0.33554
G1 X91.307 Y80.299 E0.36515
G1 X91.689 Y80.044 E0.38807
G1 X93.357 Y78.957 E0.48739
G1 X94.025 Y78.537 E0.52676
G1 X94.465 Y78.281 E0.55216
G1 X94.936 Y78.032 E0.57874
G1 X96.717 Y77.12 E0.67856
G1 X97.379 Y76.794 E0.71538
G1 X97.916 Y76.556 E0.74468
G1 X98.309 Y76.399 E0.7658
G1 X100.238 Y75.652 E0.869
G1 X100.85 Y75.424 E0.90158
G1 X101.439 Y75.23 E0.93252
G1 X101.834 Y75.117 E0.95302
G1 X103.906 Y74.554 E1.06014
G1 X104.564 Y74.387 E1.09401
G1 X105.117 Y74.268 E1.12223
G1 X105.586 Y74.186 E1.14598
G1 X107.539 Y73.869 E1.24469
G1 X108.264 Y73.761 E1.28126
G1 X108.805 Y73.7 E1.30842
G1 X109.293 Y73.665 E1.33283
G1 X111.365 Y73.546 E1.43637
G1 X112.068 Y73.516 E1.47148
G1 X112.406 Y73.51 E1.48835
G1 X113.044 Y73.527 E1.52019
G1 X115.133 Y73.624 E1.62452
G1 X115.847 Y73.668 E1.66021
G1 X116.485 Y73.734 E1.69221
G1 X116.828 Y73.78 E1.70947
G1 X118.92 Y74.098 E1.81504
G1 X119.593 Y74.21 E1.84908
G1 X120.18 Y74.331 E1.87898
G1 X120.59 Y74.432 E1.90005
G1 X122.608 Y74.957 E2.00408
G1 X123.268 Y75.139 E2.03824
G1 X123.827 Y75.317 E2.0675
G1 X124.347 Y75.504 E2.09507
G1 X126.165 Y76.186 E2.19195
G1 X126.835 Y76.447 E2.22782
G1 X127.395 Y76.692 E2.25831
G1 X127.797 Y76.886 E2.28058
G1 X129.643 Y77.808 E2.38353
G1 X130.256 Y78.126 E2.41798
G1 X130.743 Y78.402 E2.44591
G1 X131.163 Y78.661 E2.47053
G1 X132.833 Y79.724 E2.56929
G1 X133.461 Y80.136 E2.60676
G1 X133.912 Y80.457 E2.63438
G1 X134.315 Y80.767 E2.65975
G1 X135.879 Y82.008 E2.75935
G1 X136.449 Y82.474 E2.79608
G1 X136.897 Y82.87 E2.82592
G1 X137.173 Y83.131 E2.84487
G1 X138.711 Y84.637 E2.95226
G1 X139.154 Y85.083 E2.98362
G1 X139.583 Y85.553 E3.01537
G1 X139.879 Y85.9 E3.03812
G1 X141.172 Y87.459 E3.13917
G1 X141.611 Y88.004 E3.17409
G1 X141.966 Y88.482 E3.20379
G1 X142.208 Y88.834 E3.2251
G1 X143.378 Y90.588 E3.33029
G1 X143.742 Y91.151 E3.36374
G1 X144.16 Y91.875 E3.40545
G1 X144.231 Y92.005 E3.41284
G1 X145.203 Y93.856 E3.51714
G1 X145.52 Y94.478 E3.55197
G1 X145.781 Y95.047 E3.5832
G1 X145.962 Y95.484 E3.6068
G1 X146.7 Y97.329 E3.70594
G1 X146.953 Y97.987 E3.74111
G1 X147.144 Y98.551 E3.77082
G1 X147.288 Y99.038 E3.79615
G1 X147.834 Y100.965 E3.89608
G1 X148.022 Y101.668 E3.93238
G1 X148.15 Y102.234 E3.96133
G1 X148.232 Y102.675 E3.98371
G1 X148.579 Y104.672 E4.08484
G1 X148.69 Y105.364 E4.1198
G1 X148.763 Y105.981 E4.1508
G1 X148.797 Y106.388 E4.17117
G1 X148.939 Y108.453 E4.27444
G1 X148.977 Y109.151 E4.30932
G1 X148.986 Y109.505 E4.32698
G1 X148.985 Y110.542 E4.37872
G1 X148.975 Y110.885 E4.39584
G1 X148.934 Y111.631 E4.43311
G1 X148.811 Y113.421 E4.52263
G1 X148.751 Y114.129 E4.55807
G1 X148.668 Y114.793 E4.59146
G1 X148.638 Y114.984 E4.60111
G1 X148.278 Y117.079 E4.70716
G1 X148.141 Y117.811 E4.74431
G1 X148.007 Y118.396 E4.77425
G1 X147.905 Y118.777 E4.79393
G1 X147.355 Y120.737 E4.89549
G1 X147.161 Y121.395 E4.92972
G1 X146.97 Y121.959 E4.95942
G1 X146.8 Y122.406 E4.98328
G1 X146.09 Y124.206 E5.07982
G1 X145.813 Y124.882 E5.11627
G1 X145.555 Y125.446 E5.14721
G1 X145.462 Y125.634 E5.15767
G1 X144.431 Y127.623 E5.26944
G1 X144.131 Y128.183 E5.30114
G1 X143.814 Y128.725 E5.33247
G1 X143.691 Y128.921 E5.34401
G1 X142.492 Y130.751 E5.45316
G1 X142.06 Y131.388 E5.49156
G1 X141.7 Y131.876 E5.52181
G1 X141.587 Y132.019 E5.53091
G1 X140.191 Y133.736 E5.64131
G1 X139.735 Y134.279 E5.67668
G1 X139.32 Y134.736 E5.70748
G1 X139.173 Y134.888 E5.71803
G1 X137.609 Y136.452 E5.82838
G1 X137.128 Y136.92 E5.86186
G1 X136.521 Y137.457 E5.90229
G1 X134.785 Y138.871 E6.014
G1 X134.241 Y139.301 E6.04859
G1 X133.732 Y139.671 E6.07999
G1 X133.389 Y139.903 E6.10065
G1 X131.697 Y141.01 E6.20152
G1 X131.111 Y141.382 E6.23615
G1 X130.558 Y141.702 E6.26803
G1 X130.389 Y141.793 E6.2776
G1 X128.482 Y142.781 E6.38475
G1 X127.816 Y143.115 E6.42193
G1 X127.245 Y143.373 E6.45319
G1 X127.047 Y143.455 E6.46388
G1 X125.034 Y144.249 E6.57184
G1 X124.346 Y144.509 E6.60853
G1 X123.721 Y144.716 E6.64138
G1 X123.53 Y144.773 E6.65132
G1 X121.442 Y145.358 E6.7595
G1 X120.722 Y145.548 E6.79665
G1 X120.169 Y145.672 E6.82493
G1 X119.748 Y145.75 E6.84629
G1 X117.741 Y146.094 E6.94788
G1 X117.055 Y146.201 E6.98252
G1 X116.419 Y146.274 E7.01446
G1 X116.218 Y146.291 E7.02452
G1 X114.071 Y146.438 E7.13189
G1 X113.35 Y146.477 E7.16791
G1 X112.998 Y146.486 E7.18548
G1 X111.967 Y146.485 E7.23691
G1 X111.625 Y146.476 E7.25398
G1 X110.872 Y146.434 E7.29161
G1 X109.013 Y146.305 E7.38458
G1 X108.333 Y146.247 E7.41862
G1 X107.727 Y146.172 E7.44909
G1 X107.373 Y146.115 E7.46698
G1 X105.298 Y145.753 E7.57206
G1 X104.609 Y145.623 E7.60704
G1 X104.043 Y145.493 E7.63602
G1 X103.839 Y145.439 E7.64655
G1 X101.625 Y144.812 E7.76135
G1 X100.961 Y144.613 E7.79593
G1 X100.393 Y144.418 E7.82589
G1 X99.962 Y144.252 E7.84893
G1 X98.111 Y143.512 E7.94839
G1 X97.391 Y143.211 E7.98732
G1 X96.917 Y142.992 E8.01337
G1 X96.47 Y142.764 E8.0384
G1 X94.661 Y141.811 E8.14041
G1 X94.062 Y141.484 E8.17446
G1 X93.539 Y141.172 E8.20484
G1 X93.349 Y141.05 E8.21611
G1 X91.435 Y139.774 E8.33087
G1 X90.872 Y139.385 E8.36501
G1 X90.415 Y139.043 E8.39349
G1 X90.054 Y138.751 E8.41666
G1 X88.482 Y137.446 E8.51859
G1 X87.962 Y137.002 E8.5527
G1 X87.527 Y136.599 E8.58228
G1 X87.16 Y136.234 E8.60811
G1 X85.752 Y134.794 E8.70858
G1 X85.291 Y134.309 E8.74197
G1 X84.919 Y133.887 E8.77003
G1 X84.638 Y133.543 E8.79219
G1 X83.355 Y131.925 E8.89521
G1 X82.912 Y131.35 E8.93143
G1 X82.571 Y130.87 E8.9608
G1 X82.324 Y130.494 E8.98325
G1 X81.226 Y128.765 E9.08543
G1 X80.847 Y128.146 E9.12164
G1 X80.553 Y127.622 E9.15162
G1 X80.365 Y127.257 E9.1721
G1 X79.443 Y125.406 E9.27527
G1 X79.161 Y124.823 E9.30758
G1 X78.917 Y124.264 E9.33801
G1 X78.737 Y123.807 E9.36251
G1 X78.026 Y121.903 E9.46391
G1 X77.778 Y121.208 E9.50073
G1 X77.601 Y120.642 E9.53031
G1 X77.546 Y120.446 E9.54047
G1 X76.979 Y118.27 E9.65266
G1 X76.807 Y117.565 E9.68886
G1 X76.697 Y117.031 E9.71606
G1 X76.613 Y116.524 E9.7417
G1 X76.299 Y114.446 E9.84655
G1 X76.219 Y113.863 E9.87591
G1 X76.159 Y113.24 E9.90713
G1 X76.132 Y112.799 E9.92918
G1 X76.036 Y110.746 E10.03171
G1 X76.013 Y110.043 E10.0668
G1 X76.017 Y109.47 E10.09539
G1 X76.04 Y108.959 E10.12091
G1 X76.153 Y106.999 E10.21886
G1 X76.206 Y106.256 E10.25602
G1 X76.273 Y105.653 E10.28629
G1 X76.339 Y105.212 E10.30854
G1 X76.668 Y103.2 E10.41025
G1 X76.797 Y102.478 E10.44684
G1 X76.911 Y101.952 E10.47369
G1 X77.032 Y101.483 E10.49786
G1 X77.568 Y99.517 E10.59952
G1 X77.765 Y98.83 E10.63518
G1 X77.937 Y98.304 E10.66279
G1 X78.105 Y97.855 E10.6867
G1 X78.846 Y95.945 E10.78891
G1 X79.123 Y95.262 E10.82568
G1 X79.361 Y94.734 E10.85458
G1 X79.52 Y94.412 E10.87249
G1 X80.481 Y92.538 E10.97757
G1 X80.814 Y91.91 E11.01303
G1 X81.121 Y91.384 E11.04341
G1 X81.363 Y91.001 E11.06602
G1 X82.424 Y89.372 E11.16301
G1 X82.876 Y88.702 E11.20333
G1 X83.192 Y88.267 E11.23015
G1 X83.526 Y87.843 E11.25708
G1 X84.801 Y86.273 E11.35798
G1 X85.231 Y85.76 E11.39138
G1 X85.656 Y85.29 E11.42299
G1 X85.817 Y85.123 E11.43457
M205 X10 Y10
G0 F6000 X86.1 Y85.406
M205 X8 Y8
G1 F1200 X87.694 Y83.811 E11.54707
G1 X88.176 Y83.344 E11.58055
G1 X88.58 Y82.98 E11.60768
G1 X88.984 Y82.644 E11.63389
G1 X90.498 Y81.417 E11.73112
G1 X91.075 Y80.963 E11.76775
G1 X91.537 Y80.627 E11.79625
G1 X91.907 Y80.379 E11.81847
G1 X93.57 Y79.296 E11.91748
G1 X94.238 Y78.876 E11.95685
G1 X94.795 Y78.557 E11.98887
G1 X95.118 Y78.388 E12.00706
G1 X96.893 Y77.479 E12.10655
G1 X97.555 Y77.153 E12.14336
G1 X98.072 Y76.924 E12.17157
G1 X98.454 Y76.771 E12.1921
G1 X100.377 Y76.027 E12.29497
G1 X100.989 Y75.799 E12.32756
G1 X101.558 Y75.612 E12.35744
G1 X101.939 Y75.503 E12.37721
G1 X104.004 Y74.941 E12.48398
G1 X104.662 Y74.774 E12.51785
G1 X105.194 Y74.661 E12.54498
G1 X105.65 Y74.581 E12.56808
G1 X107.598 Y74.264 E12.66654
G1 X108.323 Y74.156 E12.70311
G1 X108.845 Y74.098 E12.72932
G1 X109.316 Y74.064 E12.75287
G1 X111.382 Y73.945 E12.85612
G1 X112.085 Y73.915 E12.89122
G1 X112.402 Y73.91 E12.90704
G1 X113.029 Y73.926 E12.93833
G1 X115.108 Y74.023 E13.04217
G1 X115.822 Y74.067 E13.07786
G1 X116.438 Y74.131 E13.10875
G1 X116.768 Y74.176 E13.12537
G1 X118.854 Y74.492 E13.23063
G1 X119.527 Y74.604 E13.26467
G1 X120.093 Y74.721 E13.2935
G1 X120.49 Y74.819 E13.3139
G1 X122.502 Y75.343 E13.41763
G1 X123.162 Y75.525 E13.45179
G1 X123.7 Y75.696 E13.47995
G1 X124.207 Y75.879 E13.50684
G1 X126.02 Y76.558 E13.60343
G1 X126.69 Y76.819 E13.6393
G1 X127.226 Y77.055 E13.66852
G1 X127.618 Y77.244 E13.69023
G1 X129.459 Y78.163 E13.79289
G1 X130.072 Y78.481 E13.82734
G1 X130.54 Y78.747 E13.8542
G1 X130.948 Y78.999 E13.87812
G1 X132.613 Y80.058 E13.97657
G1 X133.241 Y80.47 E14.01404
G1 X133.675 Y80.779 E14.04062
G1 X134.067 Y81.08 E14.06528
G1 X135.626 Y82.318 E14.16459
G1 X136.196 Y82.784 E14.20133
G1 X136.628 Y83.166 E14.2301
G1 X136.893 Y83.417 E14.24831
G1 X138.427 Y84.919 E14.35542
G1 X138.87 Y85.365 E14.38678
G1 X139.284 Y85.818 E14.41739
G1 X139.571 Y86.155 E14.43948
G1 X140.861 Y87.71 E14.54028
G1 X141.3 Y88.255 E14.57519
G1 X141.641 Y88.715 E14.60376
G1 X141.875 Y89.056 E14.62439
G1 X143.042 Y90.805 E14.72929
G1 X143.406 Y91.368 E14.76274
G1 X143.81 Y92.069 E14.8031
G1 X143.876 Y92.191 E14.81002
G1 X144.847 Y94.038 E14.91413
G1 X145.164 Y94.66 E14.94896
G1 X145.414 Y95.207 E14.97896
G1 X145.59 Y95.633 E15.00196
G1 X146.326 Y97.473 E15.10083
G1 X146.579 Y98.131 E15.136
G1 X146.763 Y98.672 E15.16451
G1 X146.903 Y99.147 E15.18921
G1 X147.447 Y101.068 E15.28882
G1 X147.635 Y101.771 E15.32513
G1 X147.758 Y102.315 E15.35295
G1 X147.838 Y102.744 E15.37472
G1 X148.184 Y104.736 E15.47559
G1 X148.295 Y105.428 E15.51056
G1 X148.365 Y106.021 E15.54035
G1 X148.398 Y106.415 E15.56007
G1 X148.539 Y108.475 E15.66309
G1 X148.577 Y109.173 E15.69796
G1 X148.586 Y109.505 E15.71453
G1 X148.585 Y110.542 E15.76627
G1 X148.576 Y110.863 E15.78229
G1 X148.535 Y111.603 E15.81927
G1 X148.413 Y113.388 E15.90853
G1 X148.353 Y114.096 E15.94398
G1 X148.272 Y114.737 E15.97621
G1 X148.244 Y114.916 E15.98525
G1 X147.885 Y117.006 E16.09105
G1 X147.748 Y117.738 E16.1282
G1 X147.618 Y118.3 E16.15698
G1 X147.519 Y118.669 E16.17604
G1 X146.971 Y120.624 E16.27733
G1 X146.777 Y121.282 E16.31156
G1 X146.593 Y121.824 E16.34012
G1 X146.428 Y122.259 E16.36333
G1 X145.72 Y124.054 E16.45959
G1 X145.443 Y124.73 E16.49604
G1 X145.194 Y125.274 E16.52589
G1 X145.107 Y125.45 E16.53568
G1 X144.079 Y127.434 E16.64716
G1 X143.779 Y127.994 E16.67886
G1 X143.472 Y128.518 E16.70916
G1 X143.356 Y128.702 E16.72001
G1 X142.161 Y130.527 E16.82884
G1 X141.729 Y131.164 E16.86724
G1 X141.382 Y131.632 E16.89631
G1 X141.276 Y131.767 E16.90487
G1 X139.885 Y133.479 E17.01492
G1 X139.429 Y134.022 E17.0503
G1 X139.028 Y134.463 E17.08004
G1 X138.89 Y134.605 E17.08991
G1 X137.33 Y136.165 E17.19998
G1 X136.849 Y136.633 E17.23346
G1 X136.261 Y137.153 E17.27262
G1 X136.148 Y137.247 E17.27996
G1 X134.537 Y138.557 E17.38355
G1 X133.993 Y138.987 E17.41814
G1 X133.502 Y139.344 E17.44843
G1 X133.17 Y139.568 E17.46841
G1 X131.483 Y140.673 E17.56902
G1 X130.897 Y141.045 E17.60365
G1 X130.363 Y141.353 E17.63441
G1 X130.205 Y141.438 E17.64336
G1 X128.303 Y142.423 E17.75022
G1 X127.637 Y142.757 E17.78739
G1 X127.086 Y143.007 E17.81758
G1 X126.9 Y143.083 E17.8276
G1 X124.893 Y143.875 E17.93525
G1 X124.205 Y144.135 E17.97194
G1 X123.601 Y144.335 E18.00368
G1 X123.422 Y144.388 E18.013
G1 X121.34 Y144.971 E18.12086
G1 X120.62 Y145.161 E18.15801
G1 X120.088 Y145.28 E18.18521
G1 X119.68 Y145.355 E18.20591
G1 X117.68 Y145.698 E18.30714
G1 X116.994 Y145.805 E18.34178
G1 X116.379 Y145.876 E18.37267
G1 X116.191 Y145.892 E18.38208
G1 X114.049 Y146.038 E18.48919
G1 X113.328 Y146.077 E18.52522
G1 X112.998 Y146.086 E18.54169
G1 X111.967 Y146.085 E18.59312
G1 X111.647 Y146.076 E18.6091
G1 X110.899 Y146.035 E18.64647
G1 X109.047 Y145.906 E18.73909
G1 X108.367 Y145.848 E18.77314
G1 X107.782 Y145.775 E18.80255
G1 X107.441 Y145.721 E18.81978
G1 X105.373 Y145.36 E18.92451
G1 X104.684 Y145.23 E18.95949
G1 X104.14 Y145.105 E18.98734
G1 X103.948 Y145.054 E18.99725
G1 X101.74 Y144.428 E19.11175
G1 X101.076 Y144.229 E19.14633
G1 X100.529 Y144.042 E19.17517
G1 X100.11 Y143.881 E19.19757
G1 X98.266 Y143.143 E19.29666
G1 X97.546 Y142.842 E19.33559
G1 X97.092 Y142.632 E19.36055
G1 X96.656 Y142.41 E19.38496
G1 X94.853 Y141.46 E19.48663
G1 X94.254 Y141.133 E19.52068
G1 X93.749 Y140.832 E19.55001
G1 X93.571 Y140.718 E19.56055
G1 X91.662 Y139.445 E19.67503
G1 X91.099 Y139.056 E19.70917
G1 X90.66 Y138.727 E19.73654
G1 X90.31 Y138.444 E19.75899
G1 X88.742 Y137.142 E19.86067
G1 X88.222 Y136.698 E19.89479
G1 X87.803 Y136.311 E19.92324
G1 X87.446 Y135.955 E19.9484
G1 X86.042 Y134.519 E20.04859
G1 X85.581 Y134.034 E20.08198
G1 X85.223 Y133.627 E20.10902
G1 X84.951 Y133.294 E20.13047
G1 X83.672 Y131.681 E20.23317
G1 X83.229 Y131.106 E20.26938
G1 X82.9 Y130.643 E20.29772
G1 X82.661 Y130.279 E20.31945
G1 X81.567 Y128.556 E20.42127
G1 X81.188 Y127.937 E20.45748
G1 X80.905 Y127.432 E20.48636
G1 X80.723 Y127.079 E20.50618
G1 X79.803 Y125.232 E20.60912
G1 X79.521 Y124.649 E20.64143
G1 X79.286 Y124.11 E20.67077
G1 X79.112 Y123.667 E20.69451
G1 X78.403 Y121.768 E20.79564
G1 X78.155 Y121.073 E20.83246
G1 X77.984 Y120.528 E20.86095
G1 X77.933 Y120.345 E20.87043
G1 X77.368 Y118.175 E20.9823
G1 X77.196 Y117.47 E21.01851
G1 X77.09 Y116.955 E21.04474
G1 X77.008 Y116.464 E21.06957
G1 X76.696 Y114.392 E21.17411
G1 X76.616 Y113.809 E21.20347
G1 X76.557 Y113.207 E21.23365
G1 X76.532 Y112.78 E21.25499
G1 X76.436 Y110.733 E21.35723
G1 X76.413 Y110.03 E21.39232
G1 X76.417 Y109.479 E21.41981
G1 X76.439 Y108.982 E21.44463
G1 X76.552 Y107.027 E21.54233
G1 X76.605 Y106.284 E21.57949
G1 X76.67 Y105.705 E21.60856
G1 X76.734 Y105.276 E21.6302
G1 X77.062 Y103.271 E21.73156
G1 X77.191 Y102.549 E21.76815
G1 X77.3 Y102.043 E21.79397
G1 X77.418 Y101.588 E21.81742
G1 X77.952 Y99.627 E21.91882
G1 X78.149 Y98.94 E21.95447
G1 X78.315 Y98.435 E21.981
G1 X78.478 Y97.999 E22.00422
G1 X79.217 Y96.095 E22.10611
G1 X79.494 Y95.412 E22.14288
G1 X79.723 Y94.905 E22.17064
G1 X79.876 Y94.595 E22.18789
G1 X80.834 Y92.725 E22.29271
G1 X81.167 Y92.097 E22.32817
G1 X81.462 Y91.592 E22.35735
G1 X81.698 Y91.219 E22.37937
G1 X82.813 Y89.509 E22.48122
G1 X83.207 Y88.925 E22.51637
G1 X83.511 Y88.507 E22.54215
G1 X83.836 Y88.095 E22.56833
G1 X85.108 Y86.53 E22.66895
G1 X85.538 Y86.017 E22.70234
G1 X85.949 Y85.563 E22.7329
G1 X86.1 Y85.406 E22.74376
M205 X10 Y10
G0 F6000 X86.383 Y85.689
