;FLAVOR:Marlin
;TIME:1155
;Filament used: 0.825559m
;Layer height: 0.2
;MINX:72.7
;MINY:105.7
;MINZ:0.3
;MAXX:152.3
;MAXY:114.3
;MAXZ:3.175
;Generated with Cura_SteamEngine 4.13.1
M140 S60
M105
M190 S60
M104 S200
M105
M109 S200
M82 ;absolute extrusion mode
G21                                        ; metric values
G90                                        ; absolute positioning
M82                                        ; set extruder to absolute mode
M107                                       ; start with the fan off
M190 S60                                   ; preheat and wait for bed
M109 S210                                  ; preheat and wait for hotend
M300 S1000 P500                            ; BEEP heating done
G28 X0 Y10 Z0                              ; move X/Y to min endstops
M420 S1                                    ; enable mesh leveling
G0 Z0.15                                   ; lift nozzle a bit
G0 X2                                      ; move away from clips
G92 E0                                     ; zero the extruded length
G1 Y50 E25 F500                            ; Extrude 25mm of filament in a 5cm line.
G92 E0                                     ; zero the extruded length again
G1 E-2 F500                                ; Retract a little
G1 Y120 F4000                              ; Quickly wipe away from the filament line
G92 E0
G92 E0
G1 F1500 E-6
;LAYER_COUNT:15
;LAYER:0
M106 S76.5
M205 X10 Y10
G1 F600 Z0.375
;MESH:led-leiste.stl
G0 F6000 X76.364 Y112.496 Z0.375
M205 X8 Y8
;TYPE:WALL-INNER
G1 F600 Z0.3
G1 F1500 E0
G1 F1200 X77.114 Y112.681 E0.03854
G1 X77.886 Y112.681 E0.07705
G1 X78.636 Y112.496 E0.11559
G1 X79.32 Y112.138 E0.15411
G1 X79.899 Y111.625 E0.1927
G1 X80.337 Y110.989 E0.23123
G1 X80.611 Y110.266 E0.2698
G1 X80.704 Y109.5 E0.3083
G1 X80.611 Y108.734 E0.3468
G1 X80.337 Y108.011 E0.38537
G1 X79.899 Y107.375 E0.4239
G1 X79.32 Y106.862 E0.46249
G1 X78.636 Y106.504 E0.50101
G1 X77.886 Y106.319 E0.53955
G1 X77.114 Y106.319 E0.57806
G1 X76.364 Y106.504 E0.6166
G1 X75.68 Y106.862 E0.65512
G1 X75.101 Y107.375 E0.69371
G1 X74.663 Y108.011 E0.73224
G1 X74.389 Y108.734 E0.77081
G1 X74.296 Y109.5 E0.80931
G1 X74.389 Y110.266 E0.84781
G1 X74.663 Y110.989 E0.88638
G1 X75.101 Y111.625 E0.92491
G1 X75.68 Y112.138 E0.9635
G1 X76.364 Y112.496 E1.00202
M205 X10 Y10
G0 F6000 X76.507 Y112.119
M205 X8 Y8
;TYPE:WALL-OUTER
G1 F1200 X77.163 Y112.281 E1.03573
G1 X77.837 Y112.281 E1.06935
G1 X78.493 Y112.119 E1.10306
G1 X79.091 Y111.806 E1.13674
G1 X79.597 Y111.358 E1.17046
G1 X79.98 Y110.802 E1.20414
G1 X80.22 Y110.17 E1.23787
G1 X80.301 Y109.5 E1.27154
G1 X80.22 Y108.83 E1.30521
G1 X79.98 Y108.198 E1.33893
G1 X79.597 Y107.642 E1.37262
G1 X79.091 Y107.194 E1.40633
G1 X78.493 Y106.881 E1.44001
G1 X77.837 Y106.719 E1.47372
G1 X77.163 Y106.719 E1.50734
G1 X76.507 Y106.881 E1.54106
G1 X75.909 Y107.194 E1.57473
G1 X75.403 Y107.642 E1.60845
G1 X75.02 Y108.198 E1.64213
G1 X74.78 Y108.83 E1.67586
G1 X74.699 Y109.5 E1.70953
G1 X74.78 Y110.17 E1.7432
G1 X75.02 Y110.802 E1.77693
G1 X75.403 Y111.358 E1.81061
G1 X75.909 Y111.806 E1.84433
G1 X76.507 Y112.119 E1.878
M205 X10 Y10
G0 F6000 X76.701 Y112.167
G0 X76.596 Y112.593
G1 F1500 E-4.122
G1 F600 Z0.375
G0 F6000 X111.364 Y112.496 Z0.375
M205 X8 Y8
;TYPE:WALL-INNER
G1 F600 Z0.3
G1 F1500 E1.878
G1 F1200 X112.114 Y112.681 E1.91654
G1 X112.886 Y112.681 E1.95505
G1 X113.636 Y112.496 E1.99359
G1 X114.32 Y112.138 E2.03211
G1 X114.899 Y111.625 E2.0707
G1 X115.337 Y110.989 E2.10923
G1 X115.611 Y110.266 E2.1478
G1 X115.704 Y109.5 E2.1863
G1 X115.611 Y108.734 E2.2248
G1 X115.337 Y108.011 E2.26337
G1 X114.899 Y107.375 E2.3019
G1 X114.32 Y106.862 E2.34049
G1 X113.636 Y106.504 E2.37901
G1 X112.886 Y106.319 E2.41755
G1 X112.114 Y106.319 E2.45606
G1 X111.364 Y106.504 E2.4946
G1 X110.68 Y106.862 E2.53312
G1 X110.101 Y107.375 E2.57171
G1 X109.663 Y108.011 E2.61024
G1 X109.389 Y108.734 E2.64881
G1 X109.296 Y109.5 E2.68731
G1 X109.389 Y110.266 E2.7258
G1 X109.663 Y110.989 E2.76438
G1 X110.101 Y111.625 E2.80291
G1 X110.68 Y112.138 E2.8415
G1 X111.364 Y112.496 E2.88002
M205 X10 Y10
G0 F6000 X111.507 Y112.119
M205 X8 Y8
;TYPE:WALL-OUTER
G1 F1200 X112.163 Y112.281 E2.91373
G1 X112.837 Y112.281 E2.94735
G1 X113.493 Y112.119 E2.98106
G1 X114.091 Y111.806 E3.01474
G1 X114.597 Y111.358 E3.04845
G1 X114.98 Y110.802 E3.08214
G1 X115.22 Y110.17 E3.11587
G1 X115.301 Y109.5 E3.14954
G1 X115.22 Y108.83 E3.18321
G1 X114.98 Y108.198 E3.21693
G1 X114.597 Y107.642 E3.25062
G1 X114.091 Y107.194 E3.28433
G1 X113.493 Y106.881 E3.31801
G1 X112.837 Y106.719 E3.35172
G1 X112.163 Y106.719 E3.38534
G1 X111.507 Y106.881 E3.41906
G1 X110.909 Y107.194 E3.45273
G1 X110.403 Y107.642 E3.48645
G1 X110.02 Y108.198 E3.52013
G1 X109.78 Y108.83 E3.55386
G1 X109.699 Y109.5 E3.58753
G1 X109.78 Y110.17 E3.6212
G1 X110.02 Y110.802 E3.65492
G1 X110.403 Y111.358 E3.68861
G1 X110.909 Y111.806 E3.72233
G1 X111.507 Y112.119 E3.756
M205 X10 Y10
G0 F6000 X111.701 Y112.167
G0 X111.596 Y112.593
G1 F1500 E-2.244
G1 F600 Z0.375
G0 F6000 X146.364 Y112.496 Z0.375
M205 X8 Y8
;TYPE:WALL-INNER
G1 F600 Z0.3
G1 F1500 E3.756
G1 F1200 X147.114 Y112.681 E3.79454
G1 X147.886 Y112.681 E3.83305
G1 X148.636 Y112.496 E3.87159
G1 X149.32 Y112.138 E3.91011
G1 X149.899 Y111.625 E3.9487
G1 X150.337 Y110.989 E3.98723
G1 X150.611 Y110.266 E4.0258
G1 X150.704 Y109.5 E4.0643
G1 X150.611 Y108.734 E4.1028
G1 X150.337 Y108.011 E4.14137
G1 X149.899 Y107.375 E4.1799
G1 X149.32 Y106.862 E4.21849
G1 X148.636 Y106.504 E4.25701
G1 X147.886 Y106.319 E4.29555
G1 X147.114 Y106.319 E4.33406
G1 X146.364 Y106.504 E4.3726
G1 X145.68 Y106.862 E4.41112
G1 X145.101 Y107.375 E4.44971
G1 X144.663 Y108.011 E4.48824
G1 X144.389 Y108.734 E4.52681
G1 X144.296 Y109.5 E4.56531
G1 X144.389 Y110.266 E4.6038
G1 X144.663 Y110.989 E4.64238
G1 X145.101 Y111.625 E4.68091
G1 X145.68 Y112.138 E4.7195
G1 X146.364 Y112.496 E4.75802
M205 X10 Y10
G0 F6000 X146.507 Y112.119
M205 X8 Y8
;TYPE:WALL-OUTER
G1 F1200 X147.163 Y112.281 E4.79173
G1 X147.837 Y112.281 E4.82535
G1 X148.493 Y112.119 E4.85906
G1 X149.091 Y111.806 E4.89274
G1 X149.597 Y111.358 E4.92645
G1 X149.98 Y110.802 E4.96014
G1 X150.22 Y110.17 E4.99387
G1 X150.301 Y109.5 E5.02754
G1 X150.22 Y108.83 E5.0612
G1 X149.98 Y108.198 E5.09493
G1 X149.597 Y107.642 E5.12862
G1 X149.091 Y107.194 E5.16233
G1 X148.493 Y106.881 E5.19601
G1 X147.837 Y106.719 E5.22972
G1 X147.163 Y106.719 E5.26334
G1 X146.507 Y106.881 E5.29706
G1 X145.909 Y107.194 E5.33073
G1 X145.403 Y107.642 E5.36445
G1 X145.02 Y108.198 E5.39813
G1 X144.78 Y108.83 E5.43186
G1 X144.699 Y109.5 E5.46553
G1 X144.78 Y110.17 E5.4992
G1 X145.02 Y110.802 E5.53292
G1 X145.403 Y111.358 E5.56661
G1 X145.909 Y111.806 E5.60032
G1 X146.507 Y112.119 E5.634
M205 X10 Y10
G0 F6000 X146.701 Y112.167
G0 X146.596 Y112.593
G1 F1500 E-0.366
G1 F600 Z0.375
G0 F6000 X151.5 Y113.5 Z0.375
M205 X8 Y8
;TYPE:WALL-INNER
G1 F600 Z0.3
G1 F1500 E5.634
G1 F1200 X73.5 Y113.5 E9.52543
G1 X73.5 Y109.5 E9.725
G1 X73.5 Y106.5 E9.87467
G1 X75.067 Y106.5 E9.95284
G1 X75.508 Y106.5 E9.97485
G1 X75.451 Y106.53 E9.97806
G1 X75.121 Y106.822 E9.9914
G1 X74.799 Y107.108 E10.01289
G1 X74.306 Y107.824 E10.05626
G1 X73.998 Y108.638 E10.09968
G1 X73.893 Y109.5 E10.143
G1 X73.998 Y110.362 E10.18632
G1 X74.306 Y111.176 E10.22975
G1 X74.799 Y111.892 E10.27312
G1 X75.451 Y112.47 E10.31659
G1 X76.221 Y112.873 E10.35994
G1 X77.065 Y113.081 E10.40331
G1 X77.935 Y113.081 E10.44672
G1 X78.779 Y112.873 E10.49008
G1 X79.549 Y112.47 E10.53344
G1 X80.201 Y111.892 E10.57691
G1 X80.694 Y111.176 E10.62028
G1 X81.002 Y110.362 E10.6637
G1 X81.107 Y109.5 E10.70703
G1 X81.002 Y108.638 E10.75035
G1 X80.694 Y107.824 E10.79377
G1 X80.201 Y107.108 E10.83714
G1 X79.549 Y106.53 E10.88061
G1 X79.492 Y106.5 E10.88382
G1 X79.978 Y106.5 E10.89965
G1 X110.067 Y106.5 E12.4008
G1 X110.508 Y106.5 E12.4228
G1 X110.451 Y106.53 E12.42601
G1 X110.121 Y106.822 E12.43935
G1 X109.799 Y107.108 E12.46084
G1 X109.306 Y107.824 E12.50421
G1 X108.998 Y108.638 E12.54763
G1 X108.893 Y109.5 E12.59095
G1 X108.998 Y110.362 E12.63428
G1 X109.306 Y111.176 E12.6777
G1 X109.799 Y111.892 E12.72107
G1 X110.451 Y112.47 E12.76454
G1 X111.221 Y112.873 E12.8079
G1 X112.065 Y113.081 E12.85126
G1 X112.935 Y113.081 E12.89467
G1 X113.779 Y112.873 E12.93804
G1 X114.549 Y112.47 E12.98139
G1 X115.201 Y111.892 E13.02486
G1 X115.694 Y111.176 E13.06823
G1 X116.002 Y110.362 E13.11165
G1 X116.107 Y109.5 E13.15498
G1 X116.002 Y108.638 E13.1983
G1 X115.694 Y107.824 E13.24172
G1 X115.201 Y107.108 E13.28509
G1 X114.549 Y106.53 E13.32856
G1 X114.492 Y106.5 E13.33178
G1 X114.978 Y106.5 E13.3476
G1 X145.067 Y106.5 E14.84875
G1 X145.508 Y106.5 E14.87075
G1 X145.451 Y106.53 E14.87396
G1 X145.121 Y106.822 E14.88731
G1 X144.799 Y107.108 E14.90879
G1 X144.306 Y107.824 E14.95216
G1 X143.998 Y108.638 E14.99558
G1 X143.893 Y109.5 E15.03891
G1 X143.998 Y110.362 E15.08223
G1 X144.306 Y111.176 E15.12565
G1 X144.799 Y111.892 E15.16902
G1 X145.451 Y112.47 E15.21249
G1 X146.221 Y112.873 E15.25585
G1 X147.065 Y113.081 E15.29922
G1 X147.935 Y113.081 E15.34262
G1 X148.779 Y112.873 E15.38599
G1 X149.549 Y112.47 E15.42935
G1 X150.201 Y111.892 E15.47282
G1 X150.694 Y111.176 E15.51619
G1 X151.002 Y110.362 E15.55961
G1 X151.107 Y109.5 E15.60293
G1 X151.002 Y108.638 E15.64625
G1 X150.694 Y107.824 E15.68967
G1 X150.201 Y107.108 E15.73304
G1 X149.549 Y106.53 E15.77651
G1 X149.492 Y106.5 E15.77973
G1 X149.978 Y106.5 E15.79555
G1 X151.5 Y106.5 E15.87149
G1 X151.5 Y109.5 E16.02116
G1 X151.5 Y113.5 E16.22072
M205 X10 Y10
G0 F6000 X151.9 Y113.9
M205 X8 Y8
G1 F1200 X73.1 Y113.9 E20.15207
G1 X73.1 Y106.1 E20.54121
G1 X76.374 Y106.1 E20.70455
G1 X77.114 Y106.1 E20.73356
G1 X77.886 Y106.1 E20.7547
G1 X78.626 Y106.1 E20.78371
G1 X111.374 Y106.1 E22.41751
G1 X112.114 Y106.1 E22.44652
G1 X112.886 Y106.1 E22.46766
G1 X113.626 Y106.1 E22.49667
G1 X146.374 Y106.1 E24.13047
G1 X147.114 Y106.1 E24.15948
G1 X147.886 Y106.1 E24.18062
G1 X148.626 Y106.1 E24.20962
G1 X151.9 Y106.1 E24.37297
G1 X151.9 Y113.9 E24.76211
M205 X10 Y10
G0 F6000 X152.3 Y114.3
M205 X8 Y8
;TYPE:WALL-OUTER
G1 F1200 X72.7 Y114.3 E28.73337
G1 X72.7 Y105.7 E29.16242
G1 X152.3 Y105.7 E33.13368
G1 X152.3 Y114.3 E33.56274
M205 X10 Y10
G0 F6000 X152.1 Y114.3
G0 X151.86 Y113.86
G0 X151.11 Y113.11
M205 X8 Y8
;TYPE:SKIN
G1 F1200 X149.167 Y113.11 E33.65968
G1 X149.772 Y112.794 E33.69373
G1 X150.495 Y112.152 E33.74197
G1 X151.042 Y111.358 E33.79007
G1 X151.11 Y111.179 E33.79963
G1 X151.11 Y113.11 E33.89596
M205 X10 Y10
G1 F1500 E27.89596
G1 F600 Z0.375
G0 F6000 X145.833 Y113.11 Z0.375
M205 X8 Y8
G1 F600 Z0.3
G1 F1500 E33.89596
G1 F1200 X114.167 Y113.11 E35.47579
G1 X114.772 Y112.794 E35.50984
G1 X115.495 Y112.152 E35.55808
G1 X116.042 Y111.358 E35.60618
G1 X116.384 Y110.456 E35.65431
G1 X116.499 Y109.5 E35.70235
G1 X116.384 Y108.544 E35.75039
G1 X116.042 Y107.642 E35.79851
G1 X115.524 Y106.89 E35.84407
G1 X144.476 Y106.89 E37.28849
G1 X143.958 Y107.642 E37.33405
G1 X143.616 Y108.544 E37.38217
G1 X143.501 Y109.5 E37.43021
G1 X143.616 Y110.456 E37.47825
G1 X143.958 Y111.358 E37.52638
G1 X144.505 Y112.152 E37.57448
G1 X145.228 Y112.794 E37.62272
G1 X145.833 Y113.11 E37.65677
M205 X10 Y10
G1 F1500 E31.65677
G1 F600 Z0.375
G0 F6000 X110.833 Y113.11 Z0.375
M205 X8 Y8
G1 F600 Z0.3
G1 F1500 E37.65677
G1 F1200 X79.167 Y113.11 E39.2366
G1 X79.772 Y112.794 E39.27065
G1 X80.495 Y112.152 E39.31889
G1 X81.042 Y111.358 E39.36699
G1 X81.384 Y110.456 E39.41512
G1 X81.499 Y109.5 E39.46316
G1 X81.384 Y108.544 E39.5112
G1 X81.042 Y107.642 E39.55932
G1 X80.524 Y106.89 E39.60488
G1 X109.476 Y106.89 E41.0493
G1 X108.958 Y107.642 E41.09486
G1 X108.616 Y108.544 E41.14299
G1 X108.501 Y109.5 E41.19102
G1 X108.616 Y110.456 E41.23906
G1 X108.958 Y111.358 E41.28719
G1 X109.505 Y112.152 E41.33529
G1 X110.228 Y112.794 E41.38353
G1 X110.833 Y113.11 E41.41759
M205 X10 Y10
G1 F1500 E35.41759
G1 F600 Z0.375
G0 F6000 X75.833 Y113.11 Z0.375
M205 X8 Y8
G1 F600 Z0.3
G1 F1500 E41.41759
G1 F1200 X73.89 Y113.11 E41.51452
G1 X73.89 Y111.179 E41.61086
G1 X73.958 Y111.358 E41.62041
G1 X74.505 Y112.152 E41.66852
G1 X75.228 Y112.794 E41.71676
G1 X75.833 Y113.11 E41.75081
M205 X10 Y10
G0 F6000 X74.462 Y112.929
M205 X8 Y8
G1 F1200 X74.069 Y112.536 E41.77854
M205 X10 Y10
G0 F6000 X74.364 Y112.265
M205 X8 Y8
G1 F1200 X74.069 Y111.97 E41.79935
M205 X10 Y10
G0 F6000 X74.379 Y112.28
M205 X8 Y8
G1 F1200 X75.028 Y112.929 E41.84514
G1 X75.098 Y112.999
M205 X10 Y10
G1 F1500 E35.84514
G1 F600 Z0.375
G0 F6000 X80.011 Y112.821 Z0.375
M205 X8 Y8
G1 F600 Z0.3
G1 F1500 E41.84514
G1 F1200 X80.119 Y112.929 E41.85276
M205 X10 Y10
G0 F6000 X80.311 Y112.555
M205 X8 Y8
G1 F1200 X80.685 Y112.929 E41.87915
M205 X10 Y10
G0 F6000 X81.25 Y112.929
M205 X8 Y8
G1 F1200 X80.611 Y112.289 E41.92427
M205 X10 Y10
G0 F6000 X80.846 Y111.959
M205 X8 Y8
G1 F1200 X81.816 Y112.929 E41.99271
M205 X10 Y10
G0 F6000 X82.382 Y112.929
M205 X8 Y8
G1 F1200 X81.076 Y111.623 E42.08485
M205 X10 Y10
G0 F6000 X81.272 Y111.254
M205 X8 Y8
G1 F1200 X82.947 Y112.929 E42.20303
M205 X10 Y10
G0 F6000 X83.513 Y112.929
M205 X8 Y8
G1 F1200 X81.428 Y110.843 E42.35018
M205 X10 Y10
G0 F6000 X81.569 Y110.419
M205 X8 Y8
G1 F1200 X84.079 Y112.929 E42.52727
M205 X10 Y10
G0 F6000 X84.644 Y112.929
M205 X8 Y8
G1 F1200 X81.629 Y109.914 E42.73999
M205 X10 Y10
G0 F6000 X81.666 Y109.385
M205 X8 Y8
G1 F1200 X85.21 Y112.929 E42.99004
M205 X10 Y10
G0 F6000 X85.776 Y112.929
M205 X8 Y8
G1 F1200 X81.589 Y108.742 E43.28546
G1 X81.519 Y108.672
M205 X10 Y10
G0 F6000 X81.343 Y107.93
M205 X8 Y8
G1 F1200 X86.341 Y112.929 E43.63813
M205 X10 Y10
G0 F6000 X86.907 Y112.929
M205 X8 Y8
G1 F1200 X81.047 Y107.069 E44.05158
M205 X10 Y10
G0 F6000 X81.613 Y107.069
M205 X8 Y8
G1 F1200 X87.473 Y112.929 E44.46504
M205 X10 Y10
G0 F6000 X88.039 Y112.929
M205 X8 Y8
G1 F1200 X82.179 Y107.069 E44.87849
M205 X10 Y10
G0 F6000 X82.744 Y107.069
M205 X8 Y8
G1 F1200 X88.604 Y112.929 E45.29195
M205 X10 Y10
G0 F6000 X89.17 Y112.929
M205 X8 Y8
G1 F1200 X83.31 Y107.069 E45.7054
M205 X10 Y10
G0 F6000 X83.876 Y107.069
M205 X8 Y8
G1 F1200 X89.736 Y112.929 E46.11886
M205 X10 Y10
G0 F6000 X90.301 Y112.929
M205 X8 Y8
G1 F1200 X84.441 Y107.069 E46.53231
M205 X10 Y10
G0 F6000 X85.007 Y107.069
M205 X8 Y8
G1 F1200 X90.867 Y112.929 E46.94577
M205 X10 Y10
G0 F6000 X91.433 Y112.929
M205 X8 Y8
G1 F1200 X85.573 Y107.069 E47.35922
M205 X10 Y10
G0 F6000 X86.139 Y107.069
M205 X8 Y8
G1 F1200 X91.998 Y112.929 E47.77264
M205 X10 Y10
G0 F6000 X92.564 Y112.929
M205 X8 Y8
G1 F1200 X86.704 Y107.069 E48.1861
M205 X10 Y10
G0 F6000 X87.27 Y107.069
M205 X8 Y8
G1 F1200 X93.13 Y112.929 E48.59955
M205 X10 Y10
G0 F6000 X93.695 Y112.929
M205 X8 Y8
G1 F1200 X87.836 Y107.069 E49.01297
M205 X10 Y10
G0 F6000 X88.401 Y107.069
M205 X8 Y8
G1 F1200 X94.261 Y112.929 E49.42642
M205 X10 Y10
G0 F6000 X94.827 Y112.929
M205 X8 Y8
G1 F1200 X88.967 Y107.069 E49.83988
M205 X10 Y10
G0 F6000 X89.533 Y107.069
M205 X8 Y8
G1 F1200 X95.392 Y112.929 E50.2533
M205 X10 Y10
G0 F6000 X95.958 Y112.929
M205 X8 Y8
G1 F1200 X90.098 Y107.069 E50.66675
M205 X10 Y10
G0 F6000 X90.664 Y107.069
M205 X8 Y8
G1 F1200 X96.524 Y112.929 E51.08021
M205 X10 Y10
G0 F6000 X97.09 Y112.929
M205 X8 Y8
G1 F1200 X91.23 Y107.069 E51.49366
M205 X10 Y10
G0 F6000 X91.795 Y107.069
M205 X8 Y8
G1 F1200 X97.655 Y112.929 E51.90712
M205 X10 Y10
G0 F6000 X98.221 Y112.929
M205 X8 Y8
G1 F1200 X92.361 Y107.069 E52.32057
M205 X10 Y10
G0 F6000 X92.927 Y107.069
M205 X8 Y8
G1 F1200 X98.787 Y112.929 E52.73403
M205 X10 Y10
G0 F6000 X99.352 Y112.929
M205 X8 Y8
G1 F1200 X93.492 Y107.069 E53.14748
M205 X10 Y10
G0 F6000 X94.058 Y107.069
M205 X8 Y8
G1 F1200 X99.918 Y112.929 E53.56094
M205 X10 Y10
G0 F6000 X100.484 Y112.929
M205 X8 Y8
G1 F1200 X94.624 Y107.069 E53.97439
M205 X10 Y10
G0 F6000 X95.19 Y107.07
M205 X8 Y8
G1 F1200 X101.049 Y112.929 E54.38777
M205 X10 Y10
G0 F6000 X101.615 Y112.929
M205 X8 Y8
G1 F1200 X95.756 Y107.07 E54.80116
M205 X10 Y10
G0 F6000 X96.322 Y107.07
M205 X8 Y8
G1 F1200 X102.181 Y112.929 E55.21454
M205 X10 Y10
G0 F6000 X102.746 Y112.929
M205 X8 Y8
G1 F1200 X96.887 Y107.07 E55.62793
M205 X10 Y10
G0 F6000 X97.453 Y107.07
