;FLAVOR:Marlin
;TIME:4054
;Filament used: 3.22306m
;Layer height: 0.2
;MINX:82.7
;MINY:80.205
;MINZ:0.3
;MAXX:142.3
;MAXY:139.795
;MAXZ:9.175
;Generated with Cura_SteamEngine 4.13.1
M140 S60
M105
M190 S60
M104 S200
M105
M109 S200
M82 ;absolute extrusion mode
G21                                        ; metric values
G90                                        ; absolute positioning
M82                                        ; set extruder to absolute mode
M107                                       ; start with the fan off
M190 S60                                   ; preheat and wait for bed
M109 S210                                  ; preheat and wait for hotend
M300 S1000 P500                            ; BEEP heating done
G28 X0 Y10 Z0                              ; move X/Y to min endstops
M420 S1                                    ; enable mesh leveling
G0 Z0.15                                   ; lift nozzle a bit
G0 X2                                      ; move away from clips
G92 E0                                     ; zero the extruded length
G1 Y50 E25 F500                            ; Extrude 25mm of filament in a 5cm line.
G92 E0                                     ; zero the extruded length again
G1 E-2 F500                                ; Retract a little
G1 Y120 F4000                              ; Quickly wipe away from the filament line
G92 E0
G92 E0
G1 F1500 E-6
;LAYER_COUNT:45
;LAYER:0
M106 S76.5
M205 X10 Y10
G1 F600 Z0.375
;MESH:spider-banjo-klangkoerper.stl
G0 F6000 X113.238 Y138.991 Z0.375
M205 X8 Y8
;TYPE:WALL-INNER
G1 F600 Z0.3
G1 F1500 E0
G1 F1200 X111.762 Y138.991 E0.07364
G1 X110.348 Y138.92 E0.14427
G1 X108.92 Y138.777 E0.21587
G1 X107.441 Y138.554 E0.29049
G1 X106.071 Y138.277 E0.36023
G1 X104.622 Y137.909 E0.43481
G1 X103.278 Y137.495 E0.50497
G1 X101.914 Y136.997 E0.57742
G1 X100.557 Y136.426 E0.65087
G1 X99.282 Y135.812 E0.72147
G1 X98.008 Y135.119 E0.79382
G1 X96.754 Y134.353 E0.86713
G1 X95.584 Y133.554 E0.93782
G1 X94.409 Y132.664 E1.01136
G1 X93.319 Y131.751 E1.08229
G1 X92.247 Y130.756 E1.15526
G1 X91.246 Y129.728 E1.22685
G1 X90.269 Y128.622 E1.30047
G1 X89.373 Y127.497 E1.37223
G1 X88.537 Y126.333 E1.44372
G1 X87.742 Y125.101 E1.51687
G1 X87.037 Y123.878 E1.5873
G1 X86.361 Y122.56 E1.6612
G1 X85.768 Y121.243 E1.73326
G1 X85.256 Y119.935 E1.80334
G1 X84.783 Y118.53 E1.8773
G1 X84.397 Y117.154 E1.9486
G1 X84.072 Y115.73 E2.02147
G1 X83.824 Y114.322 E2.0928
G1 X83.642 Y112.872 E2.1657
G1 X83.537 Y111.44 E2.23734
G1 X83.5 Y110.005 E2.30895
G1 X83.537 Y108.55 E2.38157
G1 X83.642 Y107.128 E2.45271
G1 X83.826 Y105.664 E2.52632
G1 X84.07 Y104.279 E2.59648
G1 X84.401 Y102.829 E2.67068
G1 X84.781 Y101.477 E2.74075
G1 X85.258 Y100.059 E2.81539
G1 X85.768 Y98.757 E2.88515
G1 X86.361 Y97.44 E2.95721
G1 X87.039 Y96.118 E3.03133
G1 X87.742 Y94.899 E3.10154
G1 X88.543 Y93.658 E3.17523
G1 X89.374 Y92.501 E3.2463
G1 X90.269 Y91.378 E3.31794
G1 X91.246 Y90.272 E3.39156
G1 X92.248 Y89.243 E3.46322
G1 X93.325 Y88.244 E3.53651
G1 X94.409 Y87.336 E3.60705
G1 X95.585 Y86.445 E3.68066
G1 X96.754 Y85.647 E3.75128
G1 X98.014 Y84.877 E3.82495
G1 X99.258 Y84.2 E3.89561
G1 X100.559 Y83.573 E3.96766
G1 X101.906 Y83.005 E4.04059
G1 X103.284 Y82.503 E4.11376
G1 X104.622 Y82.091 E4.18361
G1 X106.069 Y81.723 E4.25809
G1 X107.441 Y81.446 E4.32793
G1 X108.92 Y81.223 E4.40255
G1 X110.348 Y81.08 E4.47415
G1 X111.762 Y81.009 E4.54478
G1 X113.238 Y81.009 E4.61842
G1 X114.652 Y81.08 E4.68905
G1 X116.081 Y81.223 E4.7607
G1 X117.56 Y81.446 E4.83532
G1 X118.932 Y81.723 E4.90515
G1 X120.379 Y82.091 E4.97964
G1 X121.717 Y82.503 E5.04949
G1 X123.095 Y83.005 E5.12266
G1 X124.442 Y83.573 E5.19559
G1 X125.743 Y84.2 E5.26764
G1 X127.01 Y84.891 E5.33964
G1 X128.231 Y85.636 E5.411
G1 X129.416 Y86.445 E5.48258
G1 X130.592 Y87.336 E5.55619
G1 X131.676 Y88.244 E5.62674
G1 X132.767 Y89.257 E5.70102
G1 X133.749 Y90.265 E5.77122
G1 X134.726 Y91.371 E5.84485
G1 X135.62 Y92.493 E5.91642
G1 X136.451 Y93.65 E5.98749
G1 X137.259 Y94.9 E6.06175
G1 X137.957 Y96.107 E6.13131
G1 X138.621 Y97.404 E6.204
G1 X139.229 Y98.75 E6.27769
G1 X139.743 Y100.059 E6.34785
G1 X140.22 Y101.477 E6.42249
G1 X140.598 Y102.819 E6.49205
G1 X140.92 Y104.231 E6.5643
G1 X141.18 Y105.704 E6.63892
G1 X141.357 Y107.118 E6.71002
G1 X141.464 Y108.55 E6.78166
G1 X141.5 Y109.995 E6.85378
G1 X141.463 Y111.45 E6.92639
G1 X141.357 Y112.882 E6.99803
G1 X141.176 Y114.322 E7.07043
G1 X140.93 Y115.722 E7.14135
G1 X140.606 Y117.148 E7.21431
G1 X140.21 Y118.55 E7.28699
G1 X139.749 Y119.927 E7.35944
G1 X139.233 Y121.241 E7.42987
G1 X138.621 Y122.596 E7.50404
G1 X137.972 Y123.865 E7.57515
G1 X137.259 Y125.1 E7.6463
G1 X136.457 Y126.341 E7.72002
G1 X135.622 Y127.504 E7.79144
G1 X134.732 Y128.622 E7.86274
G1 X133.749 Y129.735 E7.93682
G1 X132.767 Y130.743 E8.00703
G1 X131.682 Y131.751 E8.08092
G1 X130.592 Y132.664 E8.15185
G1 X129.417 Y133.554 E8.22539
G1 X128.231 Y134.364 E8.29704
G1 X127.01 Y135.109 E8.3684
G1 X125.719 Y135.812 E8.44174
G1 X124.444 Y136.425 E8.51232
G1 X123.087 Y136.997 E8.58579
G1 X121.723 Y137.495 E8.65824
G1 X120.379 Y137.909 E8.7284
G1 X118.93 Y138.277 E8.80298
G1 X117.56 Y138.554 E8.87272
G1 X116.081 Y138.777 E8.94734
G1 X114.652 Y138.92 E9.01899
G1 X113.238 Y138.991 E9.08962
M205 X10 Y10
G0 F6000 X113.238 Y139.391
M205 X8 Y8
G1 F1200 X111.762 Y139.391 E9.16326
G1 X110.308 Y139.318 E9.23589
G1 X108.86 Y139.173 E9.30849
G1 X107.381 Y138.95 E9.38311
G1 X105.971 Y138.665 E9.45488
G1 X104.523 Y138.297 E9.52942
G1 X103.144 Y137.872 E9.60141
G1 X101.759 Y137.367 E9.67496
G1 X100.401 Y136.794 E9.74849
G1 X99.096 Y136.166 E9.82075
G1 X97.802 Y135.462 E9.89424
G1 X96.537 Y134.689 E9.9682
G1 X95.343 Y133.874 E10.04033
G1 X94.167 Y132.983 E10.11393
G1 X93.052 Y132.048 E10.18653
G1 X91.961 Y131.036 E10.26077
G1 X90.952 Y130 E10.33292
G1 X89.969 Y128.887 E10.40701
G1 X89.055 Y127.74 E10.48018
G1 X88.206 Y126.558 E10.55278
G1 X87.406 Y125.318 E10.6264
G1 X86.683 Y124.065 E10.69858
G1 X86.005 Y122.743 E10.7727
G1 X85.403 Y121.407 E10.84581
G1 X84.879 Y120.068 E10.91754
G1 X84.404 Y118.658 E10.99177
G1 X84.008 Y117.249 E11.06479
G1 X83.682 Y115.819 E11.13797
G1 X83.428 Y114.379 E11.21092
G1 X83.245 Y112.922 E11.28418
G1 X83.137 Y111.46 E11.35732
G1 X83.1 Y110.005 E11.42993
G1 X83.137 Y108.54 E11.50304
G1 X83.245 Y107.078 E11.57618
G1 X83.429 Y105.614 E11.64979
G1 X83.68 Y104.19 E11.72193
G1 X84.011 Y102.74 E11.79613
G1 X84.402 Y101.349 E11.86822
G1 X84.879 Y99.931 E11.94286
G1 X85.403 Y98.593 E12.01455
G1 X86.005 Y97.257 E12.08766
G1 X86.683 Y95.935 E12.16178
G1 X87.406 Y94.682 E12.23395
G1 X88.207 Y93.441 E12.30764
G1 X89.055 Y92.26 E12.38018
G1 X89.969 Y91.113 E12.45335
G1 X90.952 Y90 E12.52743
G1 X91.961 Y88.964 E12.59958
G1 X93.058 Y87.947 E12.67421
G1 X94.167 Y87.017 E12.74642
G1 X95.343 Y86.126 E12.82003
G1 X96.537 Y85.311 E12.89215
G1 X97.805 Y84.536 E12.96629
G1 X99.084 Y83.84 E13.03894
G1 X100.404 Y83.204 E13.11204
G1 X101.759 Y82.633 E13.1854
G1 X103.147 Y82.127 E13.25911
G1 X104.523 Y81.703 E13.33094
G1 X105.97 Y81.335 E13.40543
G1 X107.381 Y81.05 E13.47725
G1 X108.86 Y80.827 E13.55187
G1 X110.308 Y80.682 E13.62447
G1 X111.762 Y80.609 E13.6971
G1 X113.238 Y80.609 E13.77074
G1 X114.692 Y80.682 E13.84337
G1 X116.141 Y80.827 E13.91602
G1 X117.62 Y81.05 E13.99064
G1 X119.031 Y81.335 E14.06246
G1 X120.478 Y81.703 E14.13695
G1 X121.854 Y82.127 E14.20878
G1 X123.242 Y82.633 E14.28249
G1 X124.597 Y83.204 E14.35585
G1 X125.917 Y83.84 E14.42895
G1 X127.207 Y84.543 E14.50224
G1 X128.457 Y85.306 E14.57531
G1 X129.658 Y86.126 E14.64786
G1 X130.834 Y87.017 E14.72147
G1 X131.943 Y87.947 E14.79367
G1 X133.039 Y88.964 E14.86827
G1 X134.049 Y90 E14.94045
G1 X135.026 Y91.106 E15.01408
G1 X135.939 Y92.252 E15.08718
G1 X136.787 Y93.433 E15.15971
G1 X137.595 Y94.683 E15.23397
G1 X138.313 Y95.925 E15.30554
G1 X138.986 Y97.239 E15.3792
G1 X139.594 Y98.585 E15.45288
G1 X140.122 Y99.931 E15.52502
G1 X140.599 Y101.349 E15.59966
G1 X140.988 Y102.73 E15.67124
G1 X141.314 Y104.161 E15.74446
G1 X141.574 Y105.634 E15.81908
G1 X141.754 Y107.068 E15.89119
G1 X141.863 Y108.52 E15.96383
G1 X141.9 Y109.985 E16.03694
G1 X141.863 Y111.47 E16.11105
G1 X141.755 Y112.922 E16.18369
G1 X141.572 Y114.379 E16.25695
G1 X141.32 Y115.811 E16.32949
G1 X140.993 Y117.249 E16.40307
G1 X140.592 Y118.669 E16.47668
G1 X140.125 Y120.062 E16.54998
G1 X139.598 Y121.406 E16.622
G1 X138.986 Y122.761 E16.69618
G1 X138.321 Y124.06 E16.76899
G1 X137.595 Y125.317 E16.84141
G1 X136.788 Y126.566 E16.9156
G1 X135.94 Y127.746 E16.98809
G1 X135.032 Y128.887 E17.06084
G1 X134.049 Y130 E17.13493
G1 X133.039 Y131.036 E17.20711
G1 X131.949 Y132.048 E17.28131
G1 X130.834 Y132.983 E17.35391
G1 X129.658 Y133.874 E17.42752
G1 X128.457 Y134.694 E17.50007
G1 X127.207 Y135.457 E17.57314
G1 X125.905 Y136.166 E17.6471
G1 X124.6 Y136.794 E17.71935
G1 X123.242 Y137.367 E17.79289
G1 X121.857 Y137.872 E17.86643
G1 X120.478 Y138.297 E17.93843
G1 X119.03 Y138.665 E18.01296
G1 X117.62 Y138.95 E18.08473
G1 X116.141 Y139.173 E18.15935
G1 X114.692 Y139.318 E18.23201
G1 X113.238 Y139.391 E18.30464
M205 X10 Y10
G0 F6000 X113.238 Y139.791
M205 X8 Y8
;TYPE:WALL-OUTER
G1 F1200 X111.762 Y139.791 E18.37828
G1 X110.268 Y139.716 E18.45291
G1 X108.8 Y139.569 E18.52651
G1 X107.321 Y139.346 E18.60113
G1 X105.871 Y139.053 E18.67493
G1 X104.424 Y138.685 E18.74942
G1 X103.01 Y138.249 E18.82325
G1 X101.612 Y137.739 E18.89749
G1 X100.246 Y137.163 E18.97145
G1 X98.91 Y136.52 E19.04542
G1 X97.596 Y135.805 E19.12005
G1 X96.328 Y135.03 E19.19419
G1 X95.101 Y134.193 E19.2683
G1 X93.925 Y133.302 E19.34191
G1 X92.785 Y132.345 E19.41616
G1 X91.689 Y131.329 E19.49072
G1 X90.652 Y130.265 E19.56485
G1 X89.669 Y129.152 E19.63893
G1 X88.742 Y127.989 E19.71313
G1 X87.875 Y126.783 E19.78723
G1 X87.07 Y125.535 E19.86133
G1 X86.327 Y124.248 E19.93547
G1 X85.649 Y122.926 E20.00959
G1 X85.038 Y121.571 E20.08374
G1 X84.5 Y120.197 E20.15736
G1 X84.023 Y118.779 E20.232
G1 X83.621 Y117.349 E20.30611
G1 X83.29 Y115.899 E20.38031
G1 X83.032 Y114.436 E20.45443
G1 X82.847 Y112.962 E20.52854
G1 X82.738 Y111.49 E20.60218
G1 X82.7 Y110.005 E20.67629
G1 X82.738 Y108.51 E20.7509
G1 X82.847 Y107.038 E20.82454
G1 X83.032 Y105.564 E20.89866
G1 X83.29 Y104.101 E20.97277
G1 X83.621 Y102.651 E21.04697
G1 X84.023 Y101.221 E21.12108
G1 X84.5 Y99.803 E21.19572
G1 X85.038 Y98.429 E21.26934
G1 X85.649 Y97.074 E21.3435
G1 X86.327 Y95.752 E21.41762
G1 X87.07 Y94.465 E21.49176
G1 X87.875 Y93.217 E21.56585
G1 X88.742 Y92.011 E21.63995
G1 X89.669 Y90.848 E21.71415
G1 X90.652 Y89.735 E21.78824
G1 X91.689 Y88.671 E21.86236
G1 X92.786 Y87.654 E21.93699
G1 X93.925 Y86.698 E22.01118
G1 X95.101 Y85.807 E22.08479
G1 X96.328 Y84.97 E22.15889
G1 X97.596 Y84.195 E22.23303
G1 X98.91 Y83.48 E22.30766
G1 X100.249 Y82.835 E22.38181
G1 X101.612 Y82.261 E22.4556
G1 X103.01 Y81.751 E22.52984
G1 X104.424 Y81.315 E22.60366
G1 X105.871 Y80.947 E22.67815
G1 X107.321 Y80.654 E22.75195
G1 X108.8 Y80.431 E22.82658
G1 X110.268 Y80.284 E22.90018
G1 X111.762 Y80.209 E22.97481
G1 X113.238 Y80.209 E23.04845
G1 X114.732 Y80.284 E23.12308
G1 X116.201 Y80.431 E23.19673
G1 X117.68 Y80.654 E23.27136
G1 X119.13 Y80.947 E23.34516
G1 X120.577 Y81.315 E23.41965
G1 X121.991 Y81.751 E23.49347
G1 X123.389 Y82.261 E23.56771
G1 X124.752 Y82.835 E23.6415
G1 X126.091 Y83.48 E23.71565
G1 X127.404 Y84.195 E23.79023
G1 X128.673 Y84.97 E23.86442
G1 X129.9 Y85.807 E23.93852
G1 X131.076 Y86.698 E24.01213
G1 X132.215 Y87.654 E24.08632
G1 X133.311 Y88.671 E24.16091
G1 X134.349 Y89.735 E24.23507
G1 X135.326 Y90.841 E24.30869
G1 X136.252 Y92.003 E24.38282
G1 X137.119 Y93.209 E24.45693
G1 X137.931 Y94.466 E24.53158
G1 X138.669 Y95.743 E24.60517
G1 X139.351 Y97.074 E24.67978
G1 X139.959 Y98.42 E24.75347
G1 X140.501 Y99.803 E24.82757
G1 X140.978 Y101.221 E24.90221
G1 X141.378 Y102.641 E24.97581
G1 X141.708 Y104.091 E25.05001
G1 X141.968 Y105.564 E25.12463
G1 X142.152 Y107.028 E25.19824
G1 X142.263 Y108.51 E25.27239
G1 X142.3 Y109.995 E25.3465
G1 X142.263 Y111.49 E25.42111
G1 X142.153 Y112.962 E25.49475
G1 X141.968 Y114.436 E25.56886
G1 X141.71 Y115.9 E25.64303
G1 X141.378 Y117.358 E25.71763
G1 X140.977 Y118.779 E25.79129
G1 X140.501 Y120.197 E25.86592
G1 X139.963 Y121.571 E25.93953
G1 X139.351 Y122.926 E26.01371
G1 X138.674 Y124.248 E26.08781
G1 X137.931 Y125.534 E26.16191
G1 X137.119 Y126.791 E26.23657
G1 X136.258 Y127.989 E26.31017
G1 X135.332 Y129.152 E26.38434
G1 X134.349 Y130.265 E26.45842
G1 X133.311 Y131.329 E26.53258
G1 X132.216 Y132.345 E26.60711
G1 X131.076 Y133.302 E26.68136
G1 X129.9 Y134.193 E26.75497
G1 X128.673 Y135.03 E26.82907
G1 X127.404 Y135.805 E26.90326
G1 X126.091 Y136.52 E26.97785
G1 X124.755 Y137.163 E27.05182
G1 X123.389 Y137.739 E27.12578
G1 X121.991 Y138.249 E27.20002
G1 X120.577 Y138.685 E27.27384
G1 X119.13 Y139.053 E27.34833
G1 X117.68 Y139.346 E27.42214
G1 X116.201 Y139.569 E27.49676
G1 X114.732 Y139.716 E27.57041
G1 X113.238 Y139.791 E27.64504
M205 X10 Y10
G0 F6000 X113.038 Y139.791
G0 X113.038 Y139.351
G0 X113.218 Y138.601
M205 X8 Y8
;TYPE:SKIN
G1 F1200 X111.782 Y138.601 E27.71668
G1 X110.368 Y138.53 E27.78732
G1 X108.976 Y138.391 E27.85711
G1 X107.499 Y138.168 E27.93163
G1 X106.161 Y137.897 E27.99974
G1 X104.727 Y137.533 E28.07355
G1 X103.403 Y137.126 E28.14266
G1 X102.057 Y136.634 E28.21416
G1 X100.714 Y136.069 E28.28685
G1 X99.469 Y135.469 E28.3558
G1 X98.195 Y134.776 E28.42815
G1 X96.963 Y134.024 E28.50016
G1 X95.804 Y133.232 E28.5702
G1 X94.652 Y132.359 E28.64231
G1 X93.577 Y131.458 E28.71229
G1 X92.519 Y130.476 E28.7843
G1 X91.525 Y129.455 E28.85539
G1 X90.567 Y128.371 E28.92757
G1 X89.678 Y127.254 E28.99879
G1 X88.859 Y126.113 E29.06886
G1 X88.07 Y124.89 E29.14147
G1 X87.375 Y123.683 E29.21096
G1 X86.708 Y122.382 E29.2839
G1 X86.123 Y121.083 E29.35498
G1 X85.623 Y119.802 E29.42358
G1 X85.153 Y118.405 E29.49712
G1 X84.773 Y117.049 E29.56737
G1 X84.453 Y115.648 E29.63907
G1 X84.21 Y114.263 E29.70922
G1 X84.028 Y112.823 E29.78164
G1 X83.927 Y111.43 E29.85132
G1 X83.89 Y110.015 E29.92194
G1 X83.927 Y108.56 E29.99455
G1 X84.029 Y107.177 E30.06374
G1 X84.212 Y105.723 E30.13685
G1 X84.45 Y104.366 E30.20558
G1 X84.777 Y102.934 E30.27886
G1 X85.151 Y101.602 E30.34789
G1 X85.625 Y100.192 E30.4221
G1 X86.123 Y98.917 E30.49039
G1 X86.708 Y97.618 E30.56147
G1 X87.377 Y96.313 E30.63463
G1 X88.07 Y95.11 E30.70389
G1 X88.865 Y93.878 E30.77705
G1 X89.679 Y92.744 E30.84669
G1 X90.568 Y91.628 E30.91787
G1 X91.525 Y90.545 E30.98997
G1 X92.52 Y89.523 E31.06114
G1 X93.583 Y88.537 E31.13347
G1 X94.652 Y87.641 E31.20306
G1 X95.805 Y86.767 E31.27524
G1 X96.965 Y85.975 E31.34532
G1 X98.201 Y85.22 E31.41758
G1 X99.445 Y84.543 E31.48823
G1 X100.729 Y83.924 E31.55935
G1 X102.052 Y83.367 E31.63096
G1 X103.404 Y82.874 E31.70276
G1 X104.727 Y82.467 E31.77182
G1 X106.159 Y82.103 E31.84553
G1 X107.499 Y81.832 E31.91374
G1 X108.976 Y81.609 E31.98826
G1 X110.368 Y81.47 E32.05805
G1 X111.782 Y81.399 E32.12869
G1 X113.218 Y81.399 E32.20033
G1 X114.632 Y81.47 E32.27096
G1 X116.025 Y81.609 E32.34081
G1 X117.502 Y81.832 E32.41533
G1 X118.842 Y82.103 E32.48354
G1 X120.274 Y82.467 E32.55725
G1 X121.597 Y82.873 E32.62629
G1 X122.949 Y83.367 E32.69811
G1 X124.272 Y83.924 E32.76972
G1 X125.556 Y84.543 E32.84084
G1 X126.823 Y85.234 E32.91284
G1 X128.02 Y85.964 E32.98279
G1 X129.196 Y86.767 E33.05383
G1 X130.349 Y87.641 E33.12601
G1 X131.418 Y88.537 E33.1956
G1 X132.495 Y89.537 E33.26892
G1 X133.47 Y90.538 E33.33864
G1 X134.421 Y91.614 E33.41028
G1 X135.309 Y92.728 E33.48136
G1 X136.123 Y93.862 E33.551
G1 X136.931 Y95.112 E33.62525
G1 X137.61 Y96.285 E33.69287
G1 X138.274 Y97.582 E33.76557
G1 X138.866 Y98.892 E33.83729
G1 X139.373 Y100.184 E33.90653
G1 X139.844 Y101.583 E33.98018
G1 X140.222 Y102.925 E34.04973
G1 X140.536 Y104.299 E34.12005
G1 X140.794 Y105.763 E34.19422
G1 X140.97 Y107.157 E34.26431
G1 X141.074 Y108.56 E34.3345
G1 X141.11 Y109.985 E34.40562
G1 X141.073 Y111.44 E34.47823
G1 X140.97 Y112.833 E34.54792
G1 X140.79 Y114.263 E34.61983
G1 X140.55 Y115.636 E34.68936
G1 X140.229 Y117.048 E34.76161
G1 X139.837 Y118.435 E34.83351
