;FLAVOR:Marlin
;TIME:592
;Filament used: 0.34281m
;Layer height: 0.2
;MINX:79.199
;MINY:99.206
;MINZ:0.3
;MAXX:145.799
;MAXY:120.794
;MAXZ:2.575
;Generated with Cura_SteamEngine 4.13.1
M140 S60
M105
M190 S60
M104 S200
M105
M109 S200
M82 ;absolute extrusion mode
G21                                        ; metric values
G90                                        ; absolute positioning
M82                                        ; set extruder to absolute mode
M107                                       ; start with the fan off
M190 S60                                   ; preheat and wait for bed
M109 S210                                  ; preheat and wait for hotend
M300 S1000 P500                            ; BEEP heating done
G28 X0 Y10 Z0                              ; move X/Y to min endstops
M420 S1                                    ; enable mesh leveling
G0 Z0.15                                   ; lift nozzle a bit
G0 X2                                      ; move away from clips
G92 E0                                     ; zero the extruded length
G1 Y50 E25 F500                            ; Extrude 25mm of filament in a 5cm line.
G92 E0                                     ; zero the extruded length again
G1 E-2 F500                                ; Retract a little
G1 Y120 F4000                              ; Quickly wipe away from the filament line
G92 E0
G92 E0
G1 F1500 E-6
;LAYER_COUNT:12
;LAYER:0
M106 S76.5
M205 X10 Y10
G1 F600 Z0.375
;MESH:wimp-griff-unten.stl
G0 F6000 X96.428 Y111.508 Z0.375
M205 X8 Y8
;TYPE:WALL-INNER
G1 F600 Z0.3
G1 F1500 E0
G1 F1200 X97.194 Y111.602 E0.0385
G1 X97.915 Y111.328 E0.07698
G1 X98.429 Y110.751 E0.11554
G1 X98.612 Y110 E0.1541
G1 X98.429 Y109.249 E0.19266
G1 X97.915 Y108.672 E0.23122
G1 X97.194 Y108.398 E0.2697
G1 X96.428 Y108.492 E0.3082
G1 X95.792 Y108.929 E0.3467
G1 X95.432 Y109.614 E0.3853
G1 X95.432 Y110.386 E0.42382
G1 X95.792 Y111.071 E0.46243
G1 X96.428 Y111.508 E0.50092
M205 X10 Y10
G0 F6000 X96.574 Y111.123
M205 X8 Y8
;TYPE:WALL-OUTER
G1 F1200 X97.144 Y111.193 E0.52958
G1 X97.681 Y110.989 E0.55823
G1 X98.064 Y110.559 E0.58696
G1 X98.2 Y110 E0.61567
G1 X98.064 Y109.441 E0.64437
G1 X97.681 Y109.011 E0.6731
G1 X97.144 Y108.807 E0.70176
G1 X96.574 Y108.877 E0.73041
G1 X96.1 Y109.203 E0.75911
G1 X95.832 Y109.713 E0.78785
G1 X95.832 Y110.287 E0.81649
G1 X96.1 Y110.797 E0.84523
G1 X96.574 Y111.123 E0.87393
M205 X10 Y10
G0 F6000 X96.772 Y111.147
G0 X96.718 Y111.583
G1 F1500 E-5.12607
G1 F600 Z0.375
G0 F6000 X133.079 Y119.408 Z0.375
M205 X8 Y8
;TYPE:WALL-INNER
G1 F600 Z0.3
G1 F1500 E0.87393
G1 F1200 X134.613 Y119.594 E0.95102
G1 X136.156 Y119.531 E1.02807
G1 X137.671 Y119.223 E1.1052
G1 X139.116 Y118.675 E1.1823
G1 X140.454 Y117.902 E1.25939
G1 X141.651 Y116.925 E1.33648
G1 X142.675 Y115.769 E1.41352
G1 X143.501 Y114.462 E1.49066
G1 X144.107 Y113.041 E1.56773
G1 X144.477 Y111.54 E1.64486
G1 X144.601 Y110 E1.72194
G1 X144.477 Y108.46 E1.79902
G1 X144.107 Y106.959 E1.87615
G1 X143.501 Y105.538 E1.95322
G1 X142.675 Y104.231 E2.03035
G1 X141.651 Y103.075 E2.1074
G1 X140.454 Y102.098 E2.18449
G1 X139.116 Y101.325 E2.26158
G1 X137.671 Y100.777 E2.33868
G1 X136.156 Y100.469 E2.41581
G1 X134.613 Y100.406 E2.49285
G1 X133.079 Y100.592 E2.56995
G1 X131.595 Y101.022 E2.64703
G1 X130.198 Y101.684 E2.72415
G1 X128.926 Y102.563 E2.80129
G1 X127.813 Y103.633 E2.87832
G1 X126.884 Y104.868 E2.95542
G1 X126.165 Y106.236 E3.03252
G1 X125.676 Y107.702 E3.10962
G1 X125.428 Y109.228 E3.18675
G1 X125.428 Y110.772 E3.26378
G1 X125.676 Y112.298 E3.34092
G1 X126.165 Y113.764 E3.41802
G1 X126.884 Y115.132 E3.49512
G1 X127.813 Y116.367 E3.57222
G1 X128.926 Y117.437 E3.64924
G1 X130.198 Y118.316 E3.72638
G1 X131.595 Y118.978 E3.80351
G1 X133.079 Y119.408 E3.88059
M205 X10 Y10
G0 F6000 X133.159 Y119.015
M205 X8 Y8
;TYPE:WALL-OUTER
G1 F1200 X134.629 Y119.193 E3.95447
G1 X136.108 Y119.133 E4.02831
G1 X137.559 Y118.838 E4.10219
G1 X138.944 Y118.312 E4.1761
G1 X140.226 Y117.572 E4.24995
G1 X141.373 Y116.636 E4.32381
G1 X142.354 Y115.528 E4.39764
G1 X143.146 Y114.276 E4.47155
G1 X143.726 Y112.914 E4.54541
G1 X144.081 Y111.476 E4.6193
G1 X144.2 Y110 E4.69318
G1 X144.081 Y108.524 E4.76706
G1 X143.726 Y107.086 E4.84095
G1 X143.146 Y105.724 E4.91481
G1 X142.354 Y104.472 E4.98872
G1 X141.373 Y103.364 E5.06255
G1 X140.226 Y102.428 E5.13641
G1 X138.944 Y101.688 E5.21026
G1 X137.559 Y101.162 E5.28417
G1 X136.108 Y100.867 E5.35804
G1 X134.629 Y100.807 E5.43189
G1 X133.159 Y100.985 E5.50577
G1 X131.737 Y101.397 E5.57963
G1 X130.399 Y102.032 E5.65352
G1 X129.18 Y102.874 E5.72743
G1 X128.113 Y103.899 E5.80125
G1 X127.223 Y105.083 E5.87514
G1 X126.534 Y106.393 E5.94899
G1 X126.066 Y107.798 E6.02287
G1 X125.828 Y109.26 E6.09677
G1 X125.828 Y110.74 E6.17061
G1 X126.066 Y112.202 E6.24451
G1 X126.534 Y113.607 E6.31839
G1 X127.223 Y114.917 E6.39223
G1 X128.113 Y116.101 E6.46613
G1 X129.18 Y117.126 E6.53995
G1 X130.399 Y117.968 E6.61386
G1 X131.737 Y118.603 E6.68775
G1 X133.159 Y119.015 E6.76161
M205 X10 Y10
G0 F6000 X133.357 Y119.039
G0 X133.305 Y119.475
G1 F1500 E0.76161
G1 F600 Z0.375
G0 F6000 X95.743 Y108.49 Z0.375
M205 X8 Y8
;TYPE:WALL-INNER
G1 F600 Z0.3
G1 F1500 E6.76161
G1 F1200 X95.492 Y108.662 E6.77679
G1 X95.042 Y109.518 E6.82504
G1 X95.042 Y110.482 E6.87313
G1 X95.492 Y111.338 E6.92138
G1 X95.743 Y111.51 E6.93656
G1 X79.989 Y111.51 E7.72253
G1 X79.989 Y108.49 E7.8732
G1 X95.743 Y108.49 E8.65917
M205 X10 Y10
G1 F1500 E2.65917
G1 F600 Z0.375
G0 F6000 X125.847 Y113.997 Z0.375
M205 X8 Y8
G1 F600 Z0.3
G1 F1500 E8.65917
G1 F1200 X126.519 Y115.277 E8.7313
G1 X126.321 Y114.983 E8.74898
G1 X125.847 Y113.997 E8.76832
M205 X10 Y10
G1 F1500 E2.76832
G1 F600 Z0.375
G0 F6000 X126.647 Y115.465 Z0.375
M205 X8 Y8
G1 F600 Z0.3
G1 F1500 E8.76832
G1 F1200 X127.164 Y116.153 E8.81126
G1 X127.446 Y116.528 E8.83466
G1 X127.129 Y116.18 E8.83601
G1 X126.647 Y115.465 E8.83843
M205 X10 Y10
G1 F1500 E2.83843
G1 F600 Z0.375
G0 F6000 X127.645 Y116.747 Z0.375
M205 X8 Y8
G1 F600 Z0.3
G1 F1500 E8.83843
G1 F1200 X128.146 Y117.229 E8.87311
G1 X128.558 Y117.625 E8.90162
G1 X128.115 Y117.262 E8.90325
G1 X127.645 Y116.747 E8.90529
M205 X10 Y10
G1 F1500 E2.90529
G1 F600 Z0.375
G0 F6000 X128.813 Y117.833 Z0.375
M205 X8 Y8
G1 F600 Z0.3
G1 F1500 E8.90529
G1 F1200 X129.266 Y118.146 E8.93276
G1 X129.848 Y118.549 E8.96808
G1 X129.241 Y118.184 E8.97009
G1 X128.813 Y117.833 E8.97172
M205 X10 Y10
G1 F1500 E2.97172
G1 F600 Z0.375
G0 F6000 X130.111 Y118.706 Z0.375
M205 X8 Y8
G1 F600 Z0.3
G1 F1500 E8.97172
G1 F1200 X130.501 Y118.891 E8.99325
G1 X131.317 Y119.278 E9.03831
G1 X130.483 Y118.931 E9.04076
G1 X130.111 Y118.706 E9.042
M205 X10 Y10
G1 F1500 E3.042
G1 F600 Z0.375
G0 F6000 X131.518 Y119.362 Z0.375
M205 X8 Y8
G1 F600 Z0.3
G1 F1500 E9.042
G1 F1200 X132.954 Y119.777 E9.11658
G1 X131.828 Y119.491
G1 X131.518 Y119.362 E9.13333
M205 X10 Y10
G1 F1500 E3.13333
G1 F600 Z0.375
G0 F6000 X133.013 Y119.793 Z0.375
M205 X8 Y8
G1 F600 Z0.3
G1 F1500 E9.13333
G1 F1200 X134.597 Y119.985 E9.21293
G1 X136.203 Y119.919 E9.29312
G1 X137.778 Y119.599 E9.37331
G1 X137.574 Y119.67 E9.38408
G1 X136.147 Y119.941 E9.39112
G1 X134.687 Y120.002 E9.39122
G1 X133.243 Y119.851 E9.39999
G1 X133.013 Y119.793 E9.41183
M205 X10 Y10
G1 F1500 E3.41183
G1 F600 Z0.375
G0 F6000 X137.788 Y119.596 Z0.375
M205 X8 Y8
G1 F600 Z0.3
G1 F1500 E9.41183
G1 F1200 X139.23 Y119.048 E9.48879
G1 X138.952 Y119.193 E9.50443
G1 X137.788 Y119.596
M205 X10 Y10
G1 F1500 E3.50443
G1 F600 Z0.375
G0 F6000 X139.412 Y118.954 Z0.375
M205 X8 Y8
G1 F600 Z0.3
G1 F1500 E9.50443
G1 F1200 X140.218 Y118.489 E9.55086
G1 X140.578 Y118.281 E9.5716
G1 X140.239 Y118.524 E9.57271
G1 X139.412 Y118.954 E9.57509
M205 X10 Y10
G1 F1500 E3.57509
G1 F600 Z0.375
G0 F6000 X140.82 Y118.106 Z0.375
M205 X8 Y8
G1 F600 Z0.3
G1 F1500 E9.57509
G1 F1200 X141.402 Y117.631 E9.61257
G1 X141.818 Y117.292 E9.63934
G1 X141.431 Y117.666 E9.64093
G1 X140.82 Y118.106 E9.64307
M205 X10 Y10
G1 F1500 E3.64307
G1 F600 Z0.375
G0 F6000 X142.021 Y117.096 Z0.375
M205 X8 Y8
G1 F600 Z0.3
G1 F1500 E9.64307
G1 F1200 X142.429 Y116.635 E9.67378
G1 X142.877 Y116.129 E9.7075
G1 X142.465 Y116.666 E9.70951
G1 X142.021 Y117.096 E9.71142
M205 X10 Y10
G1 F1500 E3.71142
G1 F600 Z0.375
G0 F6000 X143.055 Y115.897 Z0.375
M205 X8 Y8
G1 F600 Z0.3
G1 F1500 E9.71142
G1 F1200 X143.318 Y115.48 E9.73602
G1 X143.766 Y114.772 E9.77782
G1 X143.358 Y115.504 E9.78025
G1 X143.055 Y115.897 E9.78177
M205 X10 Y10
G1 F1500 E3.78177
G1 F600 Z0.375
G0 F6000 X143.878 Y114.572 Z0.375
M205 X8 Y8
G1 F600 Z0.3
G1 F1500 E9.78177
G1 F1200 X144.436 Y113.264 E9.85272
G1 X144.067 Y114.233
G1 X143.878 Y114.572 E9.87208
M205 X10 Y10
G1 F1500 E3.87208
G1 F600 Z0.375
G0 F6000 X144.486 Y106.869 Z0.375
M205 X8 Y8
G1 F600 Z0.3
G1 F1500 E9.87208
G1 F1200 X144.586 Y107.13 E9.88603
G1 X144.901 Y108.548 E9.9585
G1 X145.007 Y110 E10.03113
G1 X144.901 Y111.452 E10.10376
G1 X144.586 Y112.87 E10.17623
G1 X144.486 Y113.131 E10.19018
G1 X144.863 Y111.603 E10.21929
G1 X144.992 Y110 E10.24241
G1 X144.863 Y108.397 E10.26553
G1 X144.486 Y106.869 E10.29464
M205 X10 Y10
G1 F1500 E4.29464
G1 F600 Z0.375
G0 F6000 X143.878 Y105.428 Z0.375
M205 X8 Y8
G1 F600 Z0.3
G1 F1500 E10.29464
G1 F1200 X144.067 Y105.767 E10.314
G1 X144.436 Y106.736 E10.36573
G1 X143.878 Y105.428 E10.37843
M205 X10 Y10
G1 F1500 E4.37843
G1 F600 Z0.375
G0 F6000 X143.055 Y104.103 Z0.375
M205 X8 Y8
G1 F600 Z0.3
G1 F1500 E10.37843
G1 F1200 X143.358 Y104.496 E10.40319
G1 X143.766 Y105.228 E10.445
G1 X143.319 Y104.521 E10.44738
G1 X143.055 Y104.103 E10.44878
M205 X10 Y10
G1 F1500 E4.44878
G1 F600 Z0.375
G0 F6000 X142.021 Y102.904 Z0.375
M205 X8 Y8
G1 F600 Z0.3
G1 F1500 E10.44878
G1 F1200 X142.465 Y103.334 E10.47962
G1 X142.877 Y103.871 E10.51339
G1 X142.43 Y103.366 E10.51532
G1 X142.021 Y102.904 E10.51713
M205 X10 Y10
G1 F1500 E4.51713
G1 F600 Z0.375
G0 F6000 X140.82 Y101.894 Z0.375
M205 X8 Y8
G1 F600 Z0.3
G1 F1500 E10.51713
G1 F1200 X141.431 Y102.334 E10.5547
G1 X141.818 Y102.708 E10.58155
G1 X141.403 Y102.37 E10.58301
G1 X140.82 Y101.894 E10.58512
M205 X10 Y10
G1 F1500 E4.58512
G1 F600 Z0.375
G0 F6000 X139.412 Y101.046 Z0.375
M205 X8 Y8
G1 F600 Z0.3
G1 F1500 E10.58512
G1 F1200 X140.239 Y101.476 E10.63163
G1 X140.578 Y101.719 E10.65244
G1 X140.219 Y101.512 E10.65345
G1 X139.412 Y101.046 E10.65582
M205 X10 Y10
G1 F1500 E4.65582
G1 F600 Z0.375
G0 F6000 X137.788 Y100.404 Z0.375
M205 X8 Y8
G1 F600 Z0.3
G1 F1500 E10.65582
G1 F1200 X138.952 Y100.807 E10.71727
G1 X139.23 Y100.952 E10.73291
G1 X137.788 Y100.404 E10.74386
M205 X10 Y10
G1 F1500 E4.74386
G1 F600 Z0.375
G0 F6000 X133.013 Y100.207 Z0.375
M205 X8 Y8
G1 F600 Z0.3
G1 F1500 E10.74386
G1 F1200 X133.243 Y100.149 E10.75569
G1 X134.687 Y99.998 E10.82813
G1 X136.147 Y100.059 E10.90103
G1 X137.574 Y100.33 E10.9735
G1 X137.778 Y100.401 E10.98427
G1 X136.203 Y100.081 E10.99922
G1 X134.597 Y100.015 E11.00545
G1 X133.013 Y100.207 E11.03792
M205 X10 Y10
G1 F1500 E5.03792
G1 F600 Z0.375
G0 F6000 X131.518 Y100.638 Z0.375
M205 X8 Y8
G1 F600 Z0.3
G1 F1500 E11.03792
G1 F1200 X131.828 Y100.509 E11.05467
G1 X132.954 Y100.223 E11.11263
G1 X131.518 Y100.638 E11.14874
M205 X10 Y10
G1 F1500 E5.14874
G1 F600 Z0.375
G0 F6000 X130.111 Y101.294 Z0.375
M205 X8 Y8
G1 F600 Z0.3
G1 F1500 E11.14874
G1 F1200 X130.483 Y101.069 E11.17043
G1 X131.317 Y100.722 E11.2155
G1 X130.502 Y101.108 E11.21788
G1 X130.111 Y101.294 E11.21899
M205 X10 Y10
G1 F1500 E5.21899
G1 F600 Z0.375
G0 F6000 X128.813 Y102.167 Z0.375
M205 X8 Y8
G1 F600 Z0.3
G1 F1500 E11.21899
G1 F1200 X129.241 Y101.816 E11.24661
G1 X129.848 Y101.451 E11.28194
G1 X129.267 Y101.853 E11.28388
G1 X128.813 Y102.167 E11.28544
M205 X10 Y10
G1 F1500 E5.28544
G1 F600 Z0.375
G0 F6000 X127.645 Y103.253 Z0.375
M205 X8 Y8
G1 F600 Z0.3
G1 F1500 E11.28544
G1 F1200 X128.115 Y102.738 E11.32022
G1 X128.558 Y102.375 E11.3488
G1 X128.147 Y102.77 E11.35038
G1 X127.645 Y103.253 E11.35231
M205 X10 Y10
G1 F1500 E5.35231
G1 F600 Z0.375
G0 F6000 X126.647 Y104.535 Z0.375
M205 X8 Y8
G1 F600 Z0.3
G1 F1500 E11.35231
G1 F1200 X127.129 Y103.82 E11.39533
G1 X127.446 Y103.472 E11.41882
G1 X127.165 Y103.846 E11.42003
G1 X126.647 Y104.535 E11.42243
M205 X10 Y10
G1 F1500 E5.42243
G1 F600 Z0.375
G0 F6000 X125.847 Y106.003 Z0.375
M205 X8 Y8
G1 F600 Z0.3
G1 F1500 E11.42243
G1 F1200 X126.321 Y105.017 E11.47701
G1 X126.519 Y104.723 E11.49469
G1 X125.847 Y106.003 E11.50647
M205 X10 Y10
G1 F1500 E5.50647
G1 F600 Z0.375
G0 F6000 X125.296 Y107.608 Z0.375
M205 X8 Y8
G1 F600 Z0.3
G1 F1500 E11.50647
G1 F1200 X125.15 Y108.511 E11.55211
G1 X125.038 Y109.197 E11.58678
G1 X125.038 Y110.803 E11.66691
G1 X125.149 Y111.488 E11.70153
G1 X125.296 Y112.392 E11.74722
G1 X125.797 Y113.893 E11.82617
G1 X125.684 Y113.658 E11.83918
G1 X125.298 Y112.416 E11.85602
G1 X125.015 Y111.51 E11.86511
G1 X98.276 Y111.51 E13.19913
G1 X98.785 Y110.938 E13.23733
G1 X99.013 Y110 E13.28549
G1 X98.785 Y109.062 E13.33365
G1 X98.276 Y108.49 E13.37185
G1 X125.015 Y108.49 E14.70586
G1 X125.297 Y107.585 E14.71602
G1 X125.684 Y106.342 E14.78097
G1 X125.797 Y106.107 E14.79398
G1 X125.296 Y107.608 E14.80602
M205 X10 Y10
G0 F6000 X124.728 Y108.1
M205 X8 Y8
G1 F1200 X124.918 Y107.491 E14.83785
G1 X125.322 Y106.194 E14.90452
G1 X125.495 Y105.834 E14.92445
G1 X125.979 Y104.827 E14.97887
G1 X126.323 Y104.317 E15.00956
G1 X126.823 Y103.577 E15.05412
G1 X127.157 Y103.21 E15.07887
G1 X127.846 Y102.454 E15.1299
G1 X128.311 Y102.074 E15.15986
G1 X129.014 Y101.498 E15.20521
G1 X129.647 Y101.118 E15.24204
G1 X130.308 Y100.72 E15.28053
G1 X131.166 Y100.362 E15.32692
G1 X131.704 Y100.138 E15.35599
G1 X133.175 Y99.764 E15.43171
G1 X134.676 Y99.607 E15.50597
G1 X136.189 Y99.67 E15.58152
G1 X137.679 Y99.953 E15.65718
G1 X139.103 Y100.446 E15.73104
G1 X139.591 Y100.699 E15.75846
G1 X140.447 Y101.144 E15.80659
G1 X141.048 Y101.576 E15.84352
G1 X141.678 Y102.03 E15.88226
G1 X142.291 Y102.624 E15.92484
G1 X142.758 Y103.076 E15.95727
G1 X143.364 Y103.864 E16.00686
G1 X143.686 Y104.283 E16.03323
G1 X144.218 Y105.237 E16.08772
G1 X144.419 Y105.597 E16.10829
G1 X144.799 Y106.597 E16.16166
G1 X144.962 Y107.023 E16.18442
G1 X145.288 Y108.489 E16.25811
G1 X145.398 Y110 E16.3337
G1 X145.288 Y111.511 E16.40928
G1 X144.962 Y112.977 E16.48314
G1 X144.8 Y113.402 E16.50583
G1 X144.419 Y114.403 E16.55926
G1 X144.108 Y114.962 E16.59118
G1 X143.686 Y115.717 E16.63433
G1 X143.187 Y116.366 E16.67517
G1 X142.758 Y116.924 E16.71029
G1 X142.09 Y117.571 E16.75668
G1 X141.678 Y117.97 E16.7853
G1 X140.806 Y118.597 E16.83888
G1 X140.447 Y118.856 E16.86096
G1 X139.592 Y119.3 E16.90903
G1 X139.103 Y119.554 E16.93652
G1 X137.679 Y120.047 E17.01029
G1 X136.189 Y120.33 E17.08596
G1 X134.676 Y120.393 E17.16151
G1 X133.175 Y120.236 E17.23585
G1 X131.704 Y119.862 E17.31024
G1 X131.167 Y119.639 E17.33925
G1 X130.308 Y119.28 E17.3857
G1 X129.91 Y119.041 E17.40886
G1 X129.014 Y118.502 E17.46102
G1 X128.566 Y118.136 E17.48989
G1 X127.846 Y117.546 E17.53633
G1 X127.358 Y117.01 E17.57249
G1 X126.823 Y116.423 E17.61211
G1 X126.324 Y115.684 E17.6566
G1 X125.979 Y115.173 E17.68736
G1 X125.496 Y114.167 E17.74304
G1 X125.322 Y113.806 E17.76303
G1 X124.919 Y112.51 E17.83074
G1 X124.728 Y111.9 E17.86263
G1 X98.276 Y111.9 E19.18233
G1 X97.194 Y111.9 E19.23631
G1 X96.428 Y111.9 E19.26935
G1 X95.743 Y111.9 E19.30352
G1 X79.599 Y111.9 E20.10895
G1 X79.599 Y108.1 E20.29853
G1 X95.743 Y108.1 E21.10396
G1 X96.428 Y108.1 E21.13813
G1 X97.194 Y108.1 E21.17117
G1 X98.276 Y108.1 E21.22515
G1 X124.728 Y108.1 E22.54485
M205 X10 Y10
G0 F6000 X124.434 Y107.7
M205 X8 Y8
;TYPE:WALL-OUTER
G1 F1200 X124.949 Y106.046 E22.63127
G1 X125.629 Y104.631 E22.7096
G1 X126.509 Y103.328 E22.78804
G1 X127.567 Y102.166 E22.86644
G1 X128.787 Y101.167 E22.94511
G1 X130.125 Y100.363 E23.02299
G1 X131.581 Y99.756 E23.10169
G1 X133.102 Y99.369 E23.17999
G1 X134.665 Y99.206 E23.25839
G1 X136.233 Y99.271 E23.33668
G1 X137.782 Y99.565 E23.41534
G1 X139.26 Y100.077 E23.49338
G1 X140.661 Y100.804 E23.57213
G1 X141.931 Y101.718 E23.65019
G1 X143.059 Y102.812 E23.72859
G1 X144.02 Y104.061 E23.80721
G1 X144.784 Y105.431 E23.88547
G1 X145.345 Y106.902 E23.96401
