;FLAVOR:Marlin
;TIME:417
;Filament used: 0.246205m
;Layer height: 0.2
;MINX:102.2
;MINY:95.258
;MINZ:0.3
;MAXX:126.551
;MAXY:124.742
;MAXZ:6.175
;Generated with Cura_SteamEngine 4.13.1
M140 S60
M105
M190 S60
M104 S200
M105
M109 S200
M82 ;absolute extrusion mode
G21                                        ; metric values
G90                                        ; absolute positioning
M82                                        ; set extruder to absolute mode
M107                                       ; start with the fan off
M190 S60                                   ; preheat and wait for bed
M109 S210                                  ; preheat and wait for hotend
M300 S1000 P500                            ; BEEP heating done
G28 X0 Y10 Z0                              ; move X/Y to min endstops
M420 S1                                    ; enable mesh leveling
G0 Z0.15                                   ; lift nozzle a bit
G0 X2                                      ; move away from clips
G92 E0                                     ; zero the extruded length
G1 Y50 E25 F500                            ; Extrude 25mm of filament in a 5cm line.
G92 E0                                     ; zero the extruded length again
G1 E-2 F500                                ; Retract a little
G1 Y120 F4000                              ; Quickly wipe away from the filament line
G92 E0
G92 E0
G1 F1500 E-6
;LAYER_COUNT:30
;LAYER:0
M106 S76.5
M205 X10 Y10
G1 F600 Z0.375
G0 F6000 X125.331 Y109.731 Z0.375
M205 X8 Y8
;TYPE:SKIRT
G1 F600 Z0.3
G1 F1500 E0
G1 F1200 X125.564 Y109.654 E0.01224
G1 X125.709 Y109.853 E0.02453
G1 X125.564 Y110.052 E0.03681
G1 X125.331 Y109.975 E0.04905
G1 X125.331 Y109.731 E0.06123
M205 X10 Y10
G0 F6000 X124.991 Y109.483
M205 X8 Y8
G1 F1200 X125.306 Y109.254 E0.08066
G1 X125.694 Y109.254 E0.10001
G1 X126.009 Y109.483 E0.11944
G1 X126.129 Y109.853 E0.13885
G1 X126.009 Y110.223 E0.15826
G1 X125.694 Y110.452 E0.17768
G1 X125.306 Y110.452 E0.19704
G1 X124.991 Y110.223 E0.21647
G1 X124.871 Y109.853 E0.23588
G1 X124.991 Y109.483 E0.25528
M205 X10 Y10
G0 F6000 X124.65 Y109.237
M205 X8 Y8
G1 F1200 X125.177 Y108.854 E0.28779
G1 X125.823 Y108.854 E0.32001
G1 X126.35 Y109.237 E0.35252
G1 X126.551 Y109.853 E0.38484
G1 X126.35 Y110.469 E0.41717
G1 X125.823 Y110.852 E0.44967
G1 X125.177 Y110.852 E0.4819
G1 X124.65 Y110.469 E0.5144
G1 X124.449 Y109.853 E0.54673
G1 X124.65 Y109.237 E0.57906
M205 X10 Y10
G1 F1500 E-5.42094
G1 F600 Z0.375
;MESH:wimp-vorderteil-unten.stl
G0 F6000 X114.457 Y113.871 Z0.375
M205 X8 Y8
;TYPE:WALL-INNER
G1 F600 Z0.3
G1 F1500 E0.57906
G1 F1200 X114.083 Y115.012 E0.63896
G1 X113.561 Y116.204 E0.70388
G1 X112.908 Y117.378 E0.77091
G1 X112.151 Y118.48 E0.83761
G1 X111.305 Y119.49 E0.90334
G1 X110.351 Y120.433 E0.97026
G1 X109.33 Y121.264 E1.03594
G1 X108.219 Y122.007 E1.10262
G1 X107.051 Y122.635 E1.16878
G1 X105.831 Y123.15 E1.23485
G1 X104.554 Y123.55 E1.30161
G1 X103.246 Y123.827 E1.36831
G1 X102.99 Y123.836 E1.38109
G1 X103.372 Y123.789 E1.38692
G1 X104.647 Y123.508 E1.40327
G1 X105.891 Y123.109 E1.41383
G1 X107.091 Y122.594 E1.42372
G1 X108.239 Y121.973 E1.42859
G1 X109.323 Y121.246 E1.43188
G1 X110.335 Y120.421 E1.4347
G1 X111.266 Y119.505 E1.43974
G1 X112.108 Y118.506 E1.44876
G1 X112.853 Y117.434 E1.4611
G1 X113.495 Y116.297 E1.47253
G1 X114.027 Y115.104 E1.48156
G1 X114.445 Y113.868 E1.48945
G1 X114.654 Y112.99 E1.53448
G1 X114.748 Y112.596 E1.55469
G1 X114.93 Y111.304 E1.61978
G1 X114.99 Y110 E1.68491
G1 X114.93 Y108.696 E1.75003
G1 X114.748 Y107.404 E1.81513
G1 X114.655 Y107.011 E1.83528
G1 X114.445 Y106.132 E1.88036
G1 X114.027 Y104.896 E1.94546
G1 X113.495 Y103.703 E2.01063
G1 X112.853 Y102.566 E2.07577
G1 X112.108 Y101.494 E2.1409
G1 X111.266 Y100.495 E2.20608
G1 X110.335 Y99.579 E2.27124
G1 X109.323 Y98.754 E2.33638
G1 X108.239 Y98.027 E2.4015
G1 X107.091 Y97.406 E2.46662
G1 X105.891 Y96.891 E2.53176
G1 X104.647 Y96.492 E2.59694
G1 X103.372 Y96.211 E2.66208
G1 X102.99 Y96.143 E2.68144
G1 X103.246 Y96.173
G1 X104.554 Y96.45 E2.69079
G1 X105.831 Y96.85 E2.699
G1 X107.051 Y97.365 E2.70583
G1 X108.219 Y97.993 E2.71191
G1 X109.33 Y98.736 E2.71675
G1 X110.351 Y99.567 E2.72003
G1 X111.305 Y100.51 E2.72682
G1 X112.151 Y101.52 E2.73639
G1 X112.908 Y102.622 E2.75028
G1 X113.561 Y103.796 E2.77069
G1 X114.083 Y104.988 E2.79253
G1 X114.456 Y106.128 E2.79912
G1 X114.739 Y106.99 E2.80473
G1 X122.01 Y106.99 E3.16748
G1 X122.01 Y113.01 E3.46782
G1 X114.739 Y113.01 E3.83058
G1 X114.457 Y113.871 E3.83631
M205 X10 Y10
G0 F6000 X115.022 Y113.4
M205 X8 Y8
G1 F1200 X114.45 Y115.145 E3.92793
G1 X113.909 Y116.38 E3.9952
G1 X113.241 Y117.582 E4.0638
G1 X112.462 Y118.716 E4.13244
G1 X111.593 Y119.753 E4.19994
G1 X110.612 Y120.722 E4.26873
G1 X109.558 Y121.581 E4.33657
G1 X108.422 Y122.34 E4.40473
G1 X107.222 Y122.986 E4.47272
G1 X105.96 Y123.518 E4.54105
G1 X104.648 Y123.929 E4.60964
G1 X103.318 Y124.211 E4.67747
G1 X102.6 Y124.294 E4.71353
G1 X102.6 Y123.491 E4.75359
G1 X103.306 Y123.404 E4.78868
G1 X104.545 Y123.131 E4.85198
G1 X105.754 Y122.743 E4.91533
G1 X106.921 Y122.243 E4.97867
G1 X108.037 Y121.639 E5.04198
G1 X109.091 Y120.932 E5.1053
G1 X110.075 Y120.13 E5.16863
G1 X110.98 Y119.24 E5.23195
G1 X111.798 Y118.269 E5.2953
G1 X112.522 Y117.226 E5.35864
G1 X113.146 Y116.121 E5.42195
G1 X113.663 Y114.962 E5.48526
G1 X114.07 Y113.76 E5.54858
G1 X114.364 Y112.524 E5.61196
G1 X114.541 Y111.268 E5.67524
G1 X114.6 Y110 E5.73857
G1 X114.541 Y108.732 E5.8019
G1 X114.364 Y107.476 E5.86518
G1 X114.07 Y106.24 E5.92857
G1 X113.663 Y105.038 E5.99188
G1 X113.146 Y103.879 E6.0552
G1 X112.522 Y102.774 E6.11851
G1 X111.798 Y101.731 E6.18185
G1 X110.98 Y100.76 E6.24519
G1 X110.075 Y99.87 E6.30852
G1 X109.091 Y99.068 E6.37185
G1 X108.037 Y98.361 E6.43517
G1 X106.921 Y97.757 E6.49848
G1 X105.754 Y97.257 E6.56182
G1 X104.545 Y96.869 E6.62517
G1 X103.306 Y96.596 E6.68846
G1 X102.6 Y96.509 E6.72395
G1 X102.6 Y95.706 E6.76401
G1 X103.318 Y95.789 E6.80007
G1 X104.648 Y96.071 E6.8679
G1 X105.96 Y96.482 E6.93649
G1 X107.222 Y97.014 E7.00482
G1 X108.422 Y97.66 E7.07281
G1 X109.558 Y98.419 E7.14097
G1 X110.612 Y99.278 E7.20881
G1 X111.593 Y100.247 E7.2776
G1 X112.462 Y101.284 E7.3451
G1 X113.241 Y102.418 E7.41374
G1 X113.909 Y103.62 E7.48235
G1 X114.45 Y104.855 E7.54962
G1 X115.022 Y106.6 E7.64123
G1 X122.4 Y106.6 E8.00932
G1 X122.4 Y113.4 E8.34857
G1 X115.022 Y113.4 E8.71666
M205 X10 Y10
G0 F6000 X115.312 Y113.8
M205 X8 Y8
;TYPE:WALL-OUTER
G1 F1200 X114.826 Y115.282 E8.79448
G1 X114.264 Y116.565 E8.86436
G1 X113.58 Y117.796 E8.93462
G1 X112.782 Y118.957 E9.0049
G1 X111.889 Y120.023 E9.07428
G1 X110.88 Y121.019 E9.14501
G1 X109.795 Y121.904 E9.21487
G1 X108.63 Y122.682 E9.28476
G1 X107.389 Y123.35 E9.35507
G1 X106.1 Y123.894 E9.42487
G1 X104.757 Y124.315 E9.49509
G1 X103.383 Y124.606 E9.56516
G1 X102.2 Y124.742 E9.62457
G1 X102.2 Y123.137 E9.70464
G1 X103.238 Y123.009 E9.75682
G1 X104.441 Y122.744 E9.81828
G1 X105.614 Y122.368 E9.87973
G1 X106.747 Y121.883 E9.94122
G1 X107.83 Y121.296 E10.00268
G1 X108.853 Y120.61 E10.06413
G1 X109.808 Y119.832 E10.12558
G1 X110.686 Y118.968 E10.18704
G1 X111.48 Y118.026 E10.2485
G1 X112.183 Y117.013 E10.31002
G1 X112.788 Y115.941 E10.37143
G1 X113.29 Y114.816 E10.43289
G1 X113.685 Y113.649 E10.49436
G1 X113.971 Y112.45 E10.55585
G1 X114.142 Y111.231 E10.61726
G1 X114.2 Y110 E10.67875
G1 X114.142 Y108.769 E10.74023
G1 X113.971 Y107.55 E10.80164
G1 X113.685 Y106.351 E10.86314
G1 X113.29 Y105.184 E10.9246
G1 X112.788 Y104.059 E10.98607
G1 X112.183 Y102.987 E11.04748
G1 X111.48 Y101.974 E11.10899
G1 X110.686 Y101.032 E11.17046
G1 X109.808 Y100.168 E11.23191
G1 X108.853 Y99.39 E11.29337
G1 X107.83 Y98.704 E11.35482
G1 X106.747 Y98.117 E11.41628
G1 X105.614 Y97.632 E11.47776
G1 X104.441 Y97.256 E11.53922
G1 X103.238 Y96.991 E11.60067
G1 X102.2 Y96.863 E11.65285
G1 X102.2 Y95.258 E11.73293
G1 X103.383 Y95.394 E11.79233
G1 X104.757 Y95.685 E11.8624
G1 X106.1 Y96.106 E11.93262
G1 X107.389 Y96.65 E12.00242
G1 X108.63 Y97.318 E12.07274
G1 X109.795 Y98.096 E12.14263
G1 X110.88 Y98.981 E12.21248
G1 X111.889 Y99.977 E12.28321
G1 X112.782 Y101.043 E12.35259
G1 X113.58 Y102.204 E12.42288
G1 X114.264 Y103.435 E12.49314
G1 X114.826 Y104.718 E12.56302
G1 X115.312 Y106.2 E12.64083
G1 X122.8 Y106.2 E13.01441
G1 X122.8 Y113.8 E13.39357
G1 X115.312 Y113.8 E13.76715
M205 X10 Y10
G0 F6000 X115.25 Y113.99
G0 X114.832 Y113.852
G0 X115.139 Y112.62
M205 X8 Y8
;TYPE:SKIN
G1 F1200 X115.318 Y111.341 E13.83158
G1 X115.38 Y110 E13.89856
G1 X115.318 Y108.659 E13.96553
G1 X115.139 Y107.38 E14.02996
G1 X121.62 Y107.38 E14.3533
G1 X121.62 Y112.62 E14.61472
G1 X115.139 Y112.62 E14.93806
M205 X10 Y10
G0 F6000 X115.404 Y112.01
M205 X8 Y8
G1 F1200 X115.834 Y112.44 E14.9684
M205 X10 Y10
G0 F6000 X116.4 Y112.44
M205 X8 Y8
G1 F1200 X115.474 Y111.514 E15.03374
M205 X10 Y10
G0 F6000 X115.513 Y110.988
M205 X8 Y8
G1 F1200 X116.966 Y112.44 E15.13622
M205 X10 Y10
G0 F6000 X117.531 Y112.44
M205 X8 Y8
G1 F1200 X115.538 Y110.447 E15.27683
M205 X10 Y10
G0 F6000 X115.554 Y109.897
M205 X8 Y8
G1 F1200 X118.097 Y112.44 E15.45626
M205 X10 Y10
G0 F6000 X118.663 Y112.44
M205 X8 Y8
G1 F1200 X115.526 Y109.303 E15.67759
M205 X10 Y10
G0 F6000 X115.498 Y108.71
M205 X8 Y8
G1 F1200 X119.228 Y112.44 E15.94076
M205 X10 Y10
G0 F6000 X119.794 Y112.44
M205 X8 Y8
G1 F1200 X115.414 Y108.06 E16.24979
M205 X10 Y10
G0 F6000 X115.479 Y107.56
M205 X8 Y8
G1 F1200 X120.36 Y112.44 E16.59414
M205 X10 Y10
G0 F6000 X120.925 Y112.44
M205 X8 Y8
G1 F1200 X116.045 Y107.56 E16.93845
M205 X10 Y10
G0 F6000 X116.611 Y107.56
M205 X8 Y8
G1 F1200 X121.439 Y112.388 E17.27909
M205 X10 Y10
G0 F6000 X121.439 Y111.822
M205 X8 Y8
G1 F1200 X117.176 Y107.56 E17.57983
M205 X10 Y10
G0 F6000 X117.742 Y107.56
M205 X8 Y8
G1 F1200 X121.439 Y111.256 E17.84064
M205 X10 Y10
G0 F6000 X121.439 Y110.691
M205 X8 Y8
G1 F1200 X118.308 Y107.56 E18.06155
M205 X10 Y10
G0 F6000 X118.873 Y107.56
M205 X8 Y8
G1 F1200 X121.439 Y110.125 E18.24256
M205 X10 Y10
G0 F6000 X121.439 Y109.559
M205 X8 Y8
G1 F1200 X119.439 Y107.56 E18.38364
M205 X10 Y10
G0 F6000 X120.005 Y107.56
M205 X8 Y8
G1 F1200 X121.439 Y108.994 E18.48481
M205 X10 Y10
G0 F6000 X121.439 Y108.428
M205 X8 Y8
G1 F1200 X120.57 Y107.56 E18.54609
M205 X10 Y10
G0 F6000 X121.136 Y107.56
M205 X8 Y8
G1 F1200 X121.439 Y107.862 E18.56743
M205 X10 Y10
G1 F1500 E12.56743
G1 F600 Z0.375
;MESH:NONMESH
G0 F6000 X124.664 Y109.247 Z0.375
;TIME_ELAPSED:24.122327
;LAYER:1
M106 S127.5
G0 X124.664 Y109.247 Z0.575
M205 X8 Y8
;TYPE:SUPPORT
G1 F600 Z0.5
G1 F1500 E18.56743
G1 F1350 X125.182 Y108.87 E18.58874
G1 X125.818 Y108.87 E18.60989
G1 X126.336 Y109.247 E18.6312
G1 X126.534 Y109.853 E18.65241
G1 X126.336 Y110.459 E18.67361
G1 X125.818 Y110.836 E18.69492
G1 X125.182 Y110.836 E18.71607
G1 X124.664 Y110.459 E18.73738
G1 X124.466 Y109.853 E18.75859
G1 X124.664 Y109.247 E18.77979
M205 X10 Y10
G1 F1500 E12.77979
G1 F600 Z0.575
;MESH:wimp-vorderteil-unten.stl
G0 F6000 X114.457 Y113.871 Z0.575
M205 X8 Y8
;TYPE:WALL-INNER
G1 F600 Z0.5
G1 F1500 E18.77979
G1 F1350 X114.083 Y115.012 E18.81973
G1 X113.561 Y116.204 E18.86301
G1 X112.908 Y117.378 E18.90769
G1 X112.151 Y118.48 E18.95216
G1 X111.305 Y119.49 E18.99598
G1 X110.351 Y120.433 E19.04059
G1 X109.33 Y121.264 E19.08438
G1 X108.219 Y122.007 E19.12883
G1 X107.051 Y122.635 E19.17294
G1 X105.831 Y123.15 E19.21698
G1 X104.554 Y123.55 E19.26149
G1 X103.246 Y123.827 E19.30596
G1 X102.99 Y123.836 E19.31448
G1 X103.372 Y123.789 E19.31836
G1 X104.647 Y123.508 E19.32927
G1 X105.891 Y123.109 E19.33631
G1 X107.091 Y122.594 E19.3429
G1 X108.239 Y121.973 E19.34615
G1 X109.323 Y121.246 E19.34834
G1 X110.335 Y120.421 E19.35022
G1 X111.266 Y119.505 E19.35358
G1 X112.108 Y118.506 E19.35959
G1 X112.853 Y117.434 E19.36782
G1 X113.495 Y116.297 E19.37544
G1 X114.027 Y115.104 E19.38146
G1 X114.445 Y113.868 E19.38672
G1 X114.654 Y112.99 E19.41674
G1 X114.748 Y112.596 E19.43021
G1 X114.93 Y111.304 E19.47361
G1 X114.99 Y110 E19.51702
G1 X114.93 Y108.696 E19.56044
G1 X114.748 Y107.404 E19.60384
G1 X114.655 Y107.011 E19.61727
G1 X114.445 Y106.132 E19.64733
G1 X114.027 Y104.896 E19.69072
G1 X113.495 Y103.703 E19.73417
G1 X112.853 Y102.566 E19.7776
G1 X112.108 Y101.494 E19.82102
G1 X111.266 Y100.495 E19.86447
G1 X110.335 Y99.579 E19.90791
G1 X109.323 Y98.754 E19.95134
G1 X108.239 Y98.027 E19.99475
G1 X107.091 Y97.406 E20.03816
G1 X105.891 Y96.891 E20.0816
G1 X104.647 Y96.492 E20.12505
G1 X103.372 Y96.211 E20.16847
G1 X102.99 Y96.143 E20.18138
G1 X103.246 Y96.173
G1 X104.554 Y96.45 E20.18761
G1 X105.831 Y96.85 E20.19308
G1 X107.051 Y97.365 E20.19764
G1 X108.219 Y97.993 E20.20169
G1 X109.33 Y98.736 E20.20492
G1 X110.351 Y99.567 E20.20711
G1 X111.305 Y100.51 E20.21163
G1 X112.151 Y101.52 E20.21801
G1 X112.908 Y102.622 E20.22727
G1 X113.561 Y103.796 E20.24088
G1 X114.083 Y104.988 E20.25544
G1 X114.456 Y106.128 E20.25983
G1 X114.739 Y106.99 E20.26357
G1 X122.01 Y106.99 E20.50541
G1 X122.01 Y113.01 E20.70563
G1 X114.739 Y113.01 E20.94747
G1 X114.457 Y113.871 E20.95129
M205 X10 Y10
G0 F6000 X115.022 Y113.4
M205 X8 Y8
G1 F1350 X114.45 Y115.145 E21.01237
G1 X113.909 Y116.38 E21.05722
G1 X113.241 Y117.582 E21.10295
G1 X112.462 Y118.716 E21.14871
G1 X111.593 Y119.753 E21.19371
G1 X110.612 Y120.722 E21.23958
G1 X109.558 Y121.581 E21.2848
G1 X108.422 Y122.34 E21.33024
G1 X107.222 Y122.986 E21.37557
G1 X105.96 Y123.518 E21.42112
G1 X104.648 Y123.929 E21.46685
G1 X103.318 Y124.211 E21.51207
G1 X102.6 Y124.294 E21.53611
G1 X102.6 Y123.491 E21.56282
G1 X103.306 Y123.404 E21.58621
G1 X104.545 Y123.131 E21.62841
G1 X105.754 Y122.743 E21.67064
G1 X106.921 Y122.243 E21.71286
G1 X108.037 Y121.639 E21.75507
G1 X109.091 Y120.932 E21.79728
G1 X110.075 Y120.13 E21.8395
G1 X110.98 Y119.24 E21.88172
G1 X111.798 Y118.269 E21.92395
G1 X112.522 Y117.226 E21.96618
G1 X113.146 Y116.121 E22.00839
G1 X113.663 Y114.962 E22.0506
G1 X114.07 Y113.76 E22.0928
G1 X114.364 Y112.524 E22.13506
G1 X114.541 Y111.268 E22.17725
G1 X114.6 Y110 E22.21947
G1 X114.541 Y108.732 E22.26169
G1 X114.364 Y107.476 E22.30387
G1 X114.07 Y106.24 E22.34613
G1 X113.663 Y105.038 E22.38834
G1 X113.146 Y103.879 E22.43055
G1 X112.522 Y102.774 E22.47276
G1 X111.798 Y101.731 E22.51499
G1 X110.98 Y100.76 E22.55721
G1 X110.075 Y99.87 E22.59943
G1 X109.091 Y99.068 E22.64165
G1 X108.037 Y98.361 E22.68386
G1 X106.921 Y97.757 E22.72607
G1 X105.754 Y97.257 E22.7683
G1 X104.545 Y96.869 E22.81053
G1 X103.306 Y96.596 E22.85273
G1 X102.6 Y96.509 E22.87639
G1 X102.6 Y95.706 E22.90309
G1 X103.318 Y95.789 E22.92713
G1 X104.648 Y96.071 E22.97235
G1 X105.96 Y96.482 E23.01808
G1 X107.222 Y97.014 E23.06363
G1 X108.422 Y97.66 E23.10896
G1 X109.558 Y98.419 E23.1544
G1 X110.612 Y99.278 E23.19963
G1 X111.593 Y100.247 E23.24549
G1 X112.462 Y101.284 E23.29049
G1 X113.241 Y102.418 E23.33625
G1 X113.909 Y103.62 E23.38198
G1 X114.45 Y104.855 E23.42683
G1 X115.022 Y106.6 E23.48791
G1 X122.4 Y106.6 E23.7333
G1 X122.4 Y113.4 E23.95947
G1 X115.022 Y113.4 E24.20486
M205 X10 Y10
G0 F6000 X115.312 Y113.8
M205 X8 Y8
;TYPE:WALL-OUTER
G1 F1350 X114.826 Y115.282 E24.25674
G1 X114.264 Y116.565 E24.30332
G1 X113.58 Y117.796 E24.35016
G1 X112.782 Y118.957 E24.39702
G1 X111.889 Y120.023 E24.44327
G1 X110.88 Y121.019 E24.49043
G1 X109.795 Y121.904 E24.537
G1 X108.63 Y122.682 E24.58359
G1 X107.389 Y123.35 E24.63047
G1 X106.1 Y123.894 E24.677
G1 X104.757 Y124.315 E24.72381
G1 X103.383 Y124.606 E24.77052
G1 X102.2 Y124.742 E24.81013
G1 X102.2 Y123.137 E24.86351
G1 X103.238 Y123.009 E24.8983
G1 X104.441 Y122.744 E24.93927
G1 X105.614 Y122.368 E24.98024
G1 X106.747 Y121.883 E25.02123
G1 X107.83 Y121.296 E25.0622
G1 X108.853 Y120.61 E25.10317
G1 X109.808 Y119.832 E25.14414
G1 X110.686 Y118.968 E25.18511
G1 X111.48 Y118.026 E25.22609
G1 X112.183 Y117.013 E25.2671
G1 X112.788 Y115.941 E25.30804
G1 X113.29 Y114.816 E25.34901
G1 X113.685 Y113.649 E25.38999
G1 X113.971 Y112.45 E25.43099
G1 X114.142 Y111.231 E25.47193
G1 X114.2 Y110 E25.51292
G1 X114.142 Y108.769 E25.55391
G1 X113.971 Y107.55 E25.59485
G1 X113.685 Y106.351 E25.63584
G1 X113.29 Y105.184 E25.67682
