;FLAVOR:Marlin
;TIME:1666
;Filament used: 1.32257m
;Layer height: 0.2
;MINX:85.7
;MINY:100.2
;MINZ:0.3
;MAXX:140.694
;MAXY:119.8
;MAXZ:4.175
;Generated with Cura_SteamEngine 4.13.1
M140 S60
M105
M190 S60
M104 S200
M105
M109 S200
M82 ;absolute extrusion mode
G21                                        ; metric values
G90                                        ; absolute positioning
M82                                        ; set extruder to absolute mode
M107                                       ; start with the fan off
M190 S60                                   ; preheat and wait for bed
M109 S210                                  ; preheat and wait for hotend
M300 S1000 P500                            ; BEEP heating done
G28 X0 Y10 Z0                              ; move X/Y to min endstops
M420 S1                                    ; enable mesh leveling
G0 Z0.15                                   ; lift nozzle a bit
G0 X2                                      ; move away from clips
G92 E0                                     ; zero the extruded length
G1 Y50 E25 F500                            ; Extrude 25mm of filament in a 5cm line.
G92 E0                                     ; zero the extruded length again
G1 E-2 F500                                ; Retract a little
G1 Y120 F4000                              ; Quickly wipe away from the filament line
G92 E0
G92 E0
G1 F1500 E-6
;LAYER_COUNT:20
;LAYER:0
M106 S76.5
M205 X10 Y10
G1 F600 Z0.375
G0 F6000 X139.758 Y112.46 Z0.375
M205 X8 Y8
;TYPE:SKIRT
G1 F600 Z0.3
G1 F1500 E0
G1 F1200 X139.816 Y112.441 E0.00304
G1 X139.816 Y112.541 E0.00803
G1 X139.758 Y112.46 E0.013
M205 X10 Y10
G0 F6000 X139.418 Y112.213
M205 X8 Y8
G1 F1200 X139.654 Y112.041 E0.02757
G1 X139.946 Y112.041 E0.04214
G1 X140.182 Y112.213 E0.05671
G1 X140.272 Y112.491 E0.07129
G1 X140.182 Y112.769 E0.08587
G1 X139.946 Y112.941 E0.10044
G1 X139.654 Y112.941 E0.115
G1 X139.418 Y112.769 E0.12957
G1 X139.328 Y112.491 E0.14415
G1 X139.418 Y112.213 E0.15873
M205 X10 Y10
G0 F6000 X139.077 Y111.967
M205 X8 Y8
G1 F1200 X139.525 Y111.641 E0.18637
G1 X140.075 Y111.641 E0.21381
G1 X140.523 Y111.967 E0.24145
G1 X140.694 Y112.491 E0.26895
G1 X140.523 Y113.015 E0.29645
G1 X140.075 Y113.341 E0.32409
G1 X139.525 Y113.341 E0.35153
G1 X139.077 Y113.015 E0.37918
G1 X138.906 Y112.491 E0.40668
G1 X139.077 Y111.967 E0.43417
M205 X10 Y10
G1 F1500 E-5.56583
G1 F600 Z0.375
;MESH:paper-cutter-lineal-links.stl
G0 F6000 X138.137 Y118.533 Z0.375
M205 X8 Y8
;TYPE:WALL-INNER
G1 F600 Z0.3
G1 F1500 E0.43417
G1 F1200 X138.5 Y118.009 E0.46598
G1 X138.5 Y119 E0.496
G1 X137.903 Y119 E0.52578
G1 X137.022 Y119 E0.56974
G1 X86.5 Y119 E3.09029
G1 X86.5 Y101 E3.98831
G1 X138.5 Y101 E6.5826
G1 X138.5 Y106.353 E6.84967
G1 X138.5 Y106.991 E6.8815
G1 X138.137 Y106.467 E6.89811
G1 X137.903 Y106.129 E6.91862
G1 X136.5 Y106.569 E6.99198
G1 X136.5 Y118.431 E7.58377
G1 X137.063 Y118.608 E7.61322
G1 X137.903 Y118.871 E7.64244
G1 X138.137 Y118.533 E7.65538
M205 X10 Y10
G0 F6000 X137.742 Y118.401
M205 X8 Y8
G1 F1200 X138.537 Y117.253 E7.72505
G1 X138.9 Y116.729 E7.75685
G1 X138.9 Y117.367 E7.7735
G1 X138.9 Y119.4 E7.87493
G1 X86.1 Y119.4 E10.50913
G1 X86.1 Y100.6 E11.44706
G1 X138.9 Y100.6 E14.08127
G1 X138.9 Y107.633 E14.43214
G1 X138.9 Y108.271 E14.46397
G1 X138.537 Y107.747 E14.48059
G1 X137.742 Y106.599 E14.55025
G1 X136.9 Y106.863 E14.59428
G1 X136.9 Y118.137 E15.15674
G1 X137.742 Y118.401 E15.20076
M205 X10 Y10
G0 F6000 X137.581 Y117.931
M205 X8 Y8
;TYPE:WALL-OUTER
G1 F1200 X139.3 Y115.449 E15.35139
G1 X139.3 Y119.8 E15.56846
G1 X85.7 Y119.8 E18.24258
G1 X85.7 Y100.2 E19.22043
G1 X139.3 Y100.2 E21.89454
G1 X139.3 Y109.551 E22.36106
G1 X137.581 Y107.069 E22.51169
G1 X137.3 Y107.157 E22.52638
G1 X137.3 Y117.843 E23.05951
G1 X137.581 Y117.931 E23.0742
M205 X10 Y10
G0 F6000 X137.694 Y117.767
G0 X138.055 Y118.018
G1 F1500 E17.0742
G1 F600 Z0.375
G0 F6000 X136.11 Y118.61 Z0.375
M205 X8 Y8
;TYPE:SKIN
G1 F600 Z0.3
G1 F1500 E23.0742
G1 F1200 X86.89 Y118.61 E25.52979
G1 X86.89 Y101.39 E26.3889
G1 X138.11 Y101.39 E28.94428
G1 X138.11 Y105.742 E29.1614
G1 X138.061 Y105.671 E29.1657
G1 X136.11 Y106.282 E29.2677
G1 X136.11 Y118.61 E29.88275
M205 X10 Y10
G1 F1500 E23.88275
G1 F600 Z0.375
G0 F6000 X137.929 Y101.725 Z0.375
M205 X8 Y8
G1 F600 Z0.3
G1 F1500 E29.88275
G1 F1200 X137.774 Y101.57 E29.89368
M205 X10 Y10
G0 F6000 X137.208 Y101.57
M205 X8 Y8
G1 F1200 X137.929 Y102.291 E29.94455
M205 X10 Y10
G0 F6000 X137.929 Y102.857
M205 X8 Y8
G1 F1200 X136.642 Y101.57 E30.03536
M205 X10 Y10
G0 F6000 X136.077 Y101.57
M205 X8 Y8
G1 F1200 X137.929 Y103.422 E30.16603
M205 X10 Y10
G0 F6000 X137.929 Y103.988
M205 X8 Y8
G1 F1200 X135.511 Y101.57 E30.33663
M205 X10 Y10
G0 F6000 X134.945 Y101.57
M205 X8 Y8
G1 F1200 X137.929 Y104.554 E30.54717
M205 X10 Y10
G0 F6000 X137.929 Y105.119
M205 X8 Y8
G1 F1200 X134.379 Y101.57 E30.79761
M205 X10 Y10
G0 F6000 X133.814 Y101.57
M205 X8 Y8
G1 F1200 X137.805 Y105.561 E31.07919
M205 X10 Y10
G0 F6000 X137.375 Y105.696
M205 X8 Y8
G1 F1200 X133.248 Y101.57 E31.37034
M205 X10 Y10
G0 F6000 X132.682 Y101.57
M205 X8 Y8
G1 F1200 X136.944 Y105.831 E31.67101
M205 X10 Y10
G0 F6000 X136.513 Y105.966
M205 X8 Y8
G1 F1200 X132.117 Y101.57 E31.98117
M205 X10 Y10
G0 F6000 X131.551 Y101.57
M205 X8 Y8
G1 F1200 X136.082 Y106.101 E32.30086
M205 X10 Y10
G0 F6000 X135.929 Y106.513
M205 X8 Y8
G1 F1200 X130.985 Y101.57 E32.64965
M205 X10 Y10
G0 F6000 X130.42 Y101.57
M205 X8 Y8
G1 F1200 X135.929 Y107.079 E33.03834
M205 X10 Y10
G0 F6000 X135.929 Y107.644
M205 X8 Y8
G1 F1200 X129.854 Y101.57 E33.46693
M205 X10 Y10
G0 F6000 X129.288 Y101.57
M205 X8 Y8
G1 F1200 X135.929 Y108.21 E33.93545
M205 X10 Y10
G0 F6000 X135.929 Y108.776
M205 X8 Y8
G1 F1200 X128.723 Y101.57 E34.44387
M205 X10 Y10
G0 F6000 X128.157 Y101.57
M205 X8 Y8
G1 F1200 X135.929 Y109.342 E34.99223
M205 X10 Y10
G0 F6000 X135.929 Y109.907
M205 X8 Y8
G1 F1200 X127.591 Y101.57 E35.58049
M205 X10 Y10
G0 F6000 X127.026 Y101.57
M205 X8 Y8
G1 F1200 X135.929 Y110.473 E36.20864
M205 X10 Y10
G0 F6000 X135.929 Y111.039
M205 X8 Y8
G1 F1200 X126.46 Y101.57 E36.87673
M205 X10 Y10
G0 F6000 X125.894 Y101.57
M205 X8 Y8
G1 F1200 X135.929 Y111.604 E37.58472
M205 X10 Y10
G0 F6000 X135.929 Y112.17
M205 X8 Y8
G1 F1200 X125.329 Y101.57 E38.3326
M205 X10 Y10
G0 F6000 X124.763 Y101.57
M205 X8 Y8
G1 F1200 X135.929 Y112.736 E39.12043
M205 X10 Y10
G0 F6000 X135.929 Y113.301
M205 X8 Y8
G1 F1200 X124.197 Y101.57 E39.94815
M205 X10 Y10
G0 F6000 X123.631 Y101.57
M205 X8 Y8
G1 F1200 X135.929 Y113.867 E40.8158
M205 X10 Y10
G0 F6000 X135.929 Y114.433
M205 X8 Y8
G1 F1200 X123.066 Y101.57 E41.72336
M205 X10 Y10
G0 F6000 X122.5 Y101.57
M205 X8 Y8
G1 F1200 X135.929 Y114.998 E42.67081
M205 X10 Y10
G0 F6000 X135.929 Y115.564
M205 X8 Y8
G1 F1200 X121.934 Y101.57 E43.6582
M205 X10 Y10
G0 F6000 X121.369 Y101.57
M205 X8 Y8
G1 F1200 X135.929 Y116.13 E44.68548
M205 X10 Y10
G0 F6000 X135.929 Y116.695
M205 X8 Y8
G1 F1200 X120.803 Y101.57 E45.75267
M205 X10 Y10
G0 F6000 X120.237 Y101.57
M205 X8 Y8
G1 F1200 X135.929 Y117.261 E46.85979
M205 X10 Y10
G0 F6000 X135.929 Y117.827
M205 X8 Y8
G1 F1200 X119.672 Y101.57 E48.00681
M205 X10 Y10
G0 F6000 X119.106 Y101.57
M205 X8 Y8
G1 F1200 X135.929 Y118.393 E49.19376
M205 X10 Y10
G0 F6000 X135.399 Y118.429
M205 X8 Y8
G1 F1200 X118.54 Y101.57 E50.38326
M205 X10 Y10
G0 F6000 X117.975 Y101.57
M205 X8 Y8
G1 F1200 X134.833 Y118.429 E51.57271
M205 X10 Y10
G0 F6000 X134.268 Y118.429
M205 X8 Y8
G1 F1200 X117.409 Y101.57 E52.76221
M205 X10 Y10
G0 F6000 X116.843 Y101.57
M205 X8 Y8
G1 F1200 X133.702 Y118.429 E53.9517
M205 X10 Y10
G0 F6000 X133.136 Y118.429
M205 X8 Y8
G1 F1200 X116.278 Y101.57 E55.14116
M205 X10 Y10
G0 F6000 X115.712 Y101.57
M205 X8 Y8
G1 F1200 X132.571 Y118.429 E56.33065
M205 X10 Y10
G0 F6000 X132.005 Y118.429
M205 X8 Y8
G1 F1200 X115.146 Y101.57 E57.52015
M205 X10 Y10
G0 F6000 X114.58 Y101.57
M205 X8 Y8
G1 F1200 X131.439 Y118.429 E58.70964
M205 X10 Y10
G0 F6000 X130.874 Y118.429
M205 X8 Y8
G1 F1200 X114.015 Y101.57 E59.89913
M205 X10 Y10
G0 F6000 X113.449 Y101.57
M205 X8 Y8
G1 F1200 X130.308 Y118.429 E61.08863
M205 X10 Y10
G0 F6000 X129.742 Y118.429
M205 X8 Y8
G1 F1200 X112.883 Y101.57 E62.27812
M205 X10 Y10
G0 F6000 X112.318 Y101.57
M205 X8 Y8
G1 F1200 X129.177 Y118.429 E63.46761
M205 X10 Y10
G0 F6000 X128.611 Y118.429
M205 X8 Y8
G1 F1200 X111.752 Y101.57 E64.65711
M205 X10 Y10
G0 F6000 X111.186 Y101.57
M205 X8 Y8
G1 F1200 X128.045 Y118.429 E65.8466
M205 X10 Y10
G0 F6000 X127.48 Y118.429
M205 X8 Y8
G1 F1200 X110.621 Y101.57 E67.03609
M205 X10 Y10
G0 F6000 X110.055 Y101.57
M205 X8 Y8
G1 F1200 X126.914 Y118.429 E68.22559
M205 X10 Y10
G0 F6000 X126.348 Y118.429
M205 X8 Y8
G1 F1200 X109.489 Y101.57 E69.41508
M205 X10 Y10
G0 F6000 X108.924 Y101.57
M205 X8 Y8
G1 F1200 X125.782 Y118.429 E70.60454
M205 X10 Y10
G0 F6000 X125.217 Y118.429
M205 X8 Y8
G1 F1200 X108.358 Y101.57 E71.79403
M205 X10 Y10
G0 F6000 X107.792 Y101.57
M205 X8 Y8
G1 F1200 X124.651 Y118.429 E72.98353
M205 X10 Y10
G0 F6000 X124.085 Y118.429
M205 X8 Y8
G1 F1200 X107.227 Y101.57 E74.17298
M205 X10 Y10
G0 F6000 X106.661 Y101.57
M205 X8 Y8
G1 F1200 X123.52 Y118.429 E75.36248
M205 X10 Y10
G0 F6000 X122.954 Y118.429
M205 X8 Y8
G1 F1200 X106.095 Y101.57 E76.55197
M205 X10 Y10
G0 F6000 X105.53 Y101.57
M205 X8 Y8
G1 F1200 X122.388 Y118.429 E77.74143
M205 X10 Y10
G0 F6000 X121.823 Y118.429
M205 X8 Y8
G1 F1200 X104.964 Y101.57 E78.93092
M205 X10 Y10
G0 F6000 X104.398 Y101.57
M205 X8 Y8
G1 F1200 X121.257 Y118.429 E80.12042
M205 X10 Y10
G0 F6000 X120.691 Y118.429
M205 X8 Y8
G1 F1200 X103.832 Y101.57 E81.30991
M205 X10 Y10
G0 F6000 X103.267 Y101.57
M205 X8 Y8
G1 F1200 X120.126 Y118.429 E82.4994
M205 X10 Y10
G0 F6000 X119.56 Y118.429
M205 X8 Y8
G1 F1200 X102.701 Y101.57 E83.6889
M205 X10 Y10
G0 F6000 X102.135 Y101.57
M205 X8 Y8
G1 F1200 X118.994 Y118.429 E84.87839
M205 X10 Y10
G0 F6000 X118.429 Y118.429
M205 X8 Y8
G1 F1200 X101.57 Y101.57 E86.06788
M205 X10 Y10
G0 F6000 X101.004 Y101.57
M205 X8 Y8
G1 F1200 X117.863 Y118.429 E87.25738
M205 X10 Y10
G0 F6000 X117.297 Y118.429
M205 X8 Y8
G1 F1200 X100.438 Y101.57 E88.44687
M205 X10 Y10
G0 F6000 X99.873 Y101.57
M205 X8 Y8
G1 F1200 X116.732 Y118.429 E89.63636
M205 X10 Y10
G0 F6000 X116.166 Y118.429
M205 X8 Y8
G1 F1200 X99.307 Y101.57 E90.82586
M205 X10 Y10
G0 F6000 X98.741 Y101.57
M205 X8 Y8
G1 F1200 X115.6 Y118.429 E92.01535
M205 X10 Y10
G0 F6000 X115.034 Y118.429
M205 X8 Y8
G1 F1200 X98.176 Y101.57 E93.20481
M205 X10 Y10
G0 F6000 X97.61 Y101.57
M205 X8 Y8
G1 F1200 X114.469 Y118.429 E94.3943
M205 X10 Y10
G0 F6000 X113.903 Y118.429
M205 X8 Y8
G1 F1200 X97.044 Y101.57 E95.5838
M205 X10 Y10
G0 F6000 X96.479 Y101.57
M205 X8 Y8
G1 F1200 X113.337 Y118.429 E96.77326
M205 X10 Y10
G0 F6000 X112.772 Y118.429
M205 X8 Y8
G1 F1200 X95.913 Y101.57 E97.96275
M205 X10 Y10
G0 F6000 X95.347 Y101.57
M205 X8 Y8
G1 F1200 X112.206 Y118.429 E99.15224
M205 X10 Y10
G0 F6000 X111.64 Y118.429
M205 X8 Y8
G1 F1200 X94.782 Y101.57 E100.3417
M205 X10 Y10
G0 F6000 X94.216 Y101.57
M205 X8 Y8
G1 F1200 X111.075 Y118.429 E101.53119
M205 X10 Y10
G0 F6000 X110.509 Y118.429
M205 X8 Y8
G1 F1200 X93.65 Y101.57 E102.72069
M205 X10 Y10
G0 F6000 X93.084 Y101.57
M205 X8 Y8
G1 F1200 X109.943 Y118.429 E103.91018
M205 X10 Y10
G0 F6000 X109.378 Y118.429
M205 X8 Y8
G1 F1200 X92.519 Y101.57 E105.09967
M205 X10 Y10
G0 F6000 X91.953 Y101.57
M205 X8 Y8
G1 F1200 X108.812 Y118.429 E106.28917
M205 X10 Y10
G0 F6000 X108.246 Y118.429
M205 X8 Y8
G1 F1200 X91.387 Y101.57 E107.47866
M205 X10 Y10
G0 F6000 X90.822 Y101.57
M205 X8 Y8
G1 F1200 X107.681 Y118.429 E108.66815
M205 X10 Y10
G0 F6000 X107.115 Y118.429
M205 X8 Y8
G1 F1200 X90.256 Y101.57 E109.85765
M205 X10 Y10
G0 F6000 X89.69 Y101.57
M205 X8 Y8
G1 F1200 X106.549 Y118.429 E111.04714
M205 X10 Y10
G0 F6000 X105.983 Y118.429
M205 X8 Y8
G1 F1200 X89.125 Y101.57 E112.2366
M205 X10 Y10
G0 F6000 X88.559 Y101.57
M205 X8 Y8
G1 F1200 X105.418 Y118.429 E113.42609
M205 X10 Y10
G0 F6000 X104.852 Y118.429
M205 X8 Y8
G1 F1200 X87.993 Y101.57 E114.61559
M205 X10 Y10
G0 F6000 X87.428 Y101.57
M205 X8 Y8
G1 F1200 X104.286 Y118.429 E115.80505
M205 X10 Y10
G0 F6000 X103.721 Y118.429
M205 X8 Y8
G1 F1200 X87.069 Y101.777 E116.97993
M205 X10 Y10
G0 F6000 X87.069 Y102.343
M205 X8 Y8
G1 F1200 X103.155 Y118.429 E118.11489
M205 X10 Y10
G0 F6000 X102.589 Y118.429
M205 X8 Y8
G1 F1200 X87.069 Y102.908 E119.20994
M205 X10 Y10
G0 F6000 X87.069 Y103.474
M205 X8 Y8
G1 F1200 X102.024 Y118.429 E120.2651
M205 X10 Y10
G0 F6000 X101.458 Y118.429
M205 X8 Y8
G1 F1200 X87.069 Y104.04 E121.28032
M205 X10 Y10
G0 F6000 X87.069 Y104.605
M205 X8 Y8
G1 F1200 X100.892 Y118.429 E122.25564
M205 X10 Y10
G0 F6000 X100.327 Y118.429
M205 X8 Y8
G1 F1200 X87.069 Y105.171 E123.19107
M205 X10 Y10
G0 F6000 X87.069 Y105.737
M205 X8 Y8
G1 F1200 X99.761 Y118.429 E124.08656
M205 X10 Y10
G0 F6000 X99.195 Y118.429
M205 X8 Y8
G1 F1200 X87.069 Y106.302 E124.94215
M205 X10 Y10
G0 F6000 X87.069 Y106.868
M205 X8 Y8
G1 F1200 X98.63 Y118.429 E125.75784
M205 X10 Y10
G0 F6000 X98.064 Y118.429
M205 X8 Y8
G1 F1200 X87.069 Y107.434 E126.53359
M205 X10 Y10
G0 F6000 X87.069 Y107.999
M205 X8 Y8
G1 F1200 X97.498 Y118.429 E127.26945
M205 X10 Y10
G0 F6000 X96.933 Y118.429
M205 X8 Y8
G1 F1200 X87.069 Y108.565 E127.96541
M205 X10 Y10
G0 F6000 X87.069 Y109.131
M205 X8 Y8
G1 F1200 X96.367 Y118.429 E128.62143
M205 X10 Y10
G0 F6000 X95.801 Y118.429
M205 X8 Y8
G1 F1200 X87.069 Y109.697 E129.23752
M205 X10 Y10
G0 F6000 X87.069 Y110.262
M205 X8 Y8
G1 F1200 X95.235 Y118.429 E129.81371
M205 X10 Y10
G0 F6000 X94.67 Y118.429
M205 X8 Y8
G1 F1200 X87.069 Y110.828 E130.35001
M205 X10 Y10
G0 F6000 X87.069 Y111.394
M205 X8 Y8
G1 F1200 X94.104 Y118.429 E130.84636
M205 X10 Y10
G0 F6000 X93.538 Y118.429
M205 X8 Y8
G1 F1200 X87.069 Y111.959 E131.30282
M205 X10 Y10
G0 F6000 X87.069 Y112.525
M205 X8 Y8
G1 F1200 X92.973 Y118.429 E131.71938
M205 X10 Y10
G0 F6000 X92.407 Y118.429
M205 X8 Y8
G1 F1200 X87.069 Y113.091 E132.09601
M205 X10 Y10
G0 F6000 X87.069 Y113.656
M205 X8 Y8
G1 F1200 X91.841 Y118.429 E132.43273
M205 X10 Y10
G0 F6000 X91.276 Y118.429
M205 X8 Y8
G1 F1200 X87.069 Y114.222 E132.72956
M205 X10 Y10
G0 F6000 X87.069 Y114.788
M205 X8 Y8
G1 F1200 X90.71 Y118.429 E132.98645
M205 X10 Y10
G0 F6000 X90.144 Y118.429
M205 X8 Y8
G1 F1200 X87.069 Y115.353 E133.20344
M205 X10 Y10
G0 F6000 X87.069 Y115.919
M205 X8 Y8
G1 F1200 X89.579 Y118.429 E133.38054
M205 X10 Y10
G0 F6000 X89.013 Y118.429
M205 X8 Y8
G1 F1200 X87.069 Y116.485 E133.5177
M205 X10 Y10
G0 F6000 X87.069 Y117.05
M205 X8 Y8
G1 F1200 X88.447 Y118.429 E133.61496
M205 X10 Y10
G0 F6000 X87.882 Y118.429
M205 X8 Y8
G1 F1200 X87.069 Y117.616 E133.67232
M205 X10 Y10
G0 F6000 X87.069 Y118.182
M205 X8 Y8
G1 F1200 X87.316 Y118.429 E133.68975
M205 X10 Y10
G1 F1500 E127.68975
G1 F600 Z0.375
;MESH:NONMESH
G0 F6000 X139.091 Y111.946 Z0.375
;TIME_ELAPSED:142.199165
;LAYER:1
M106 S127.5
G0 X139.091 Y111.946 Z0.575
M205 X8 Y8
;TYPE:SUPPORT
G1 F600 Z0.5
G1 F1500 E133.68975
G1 F1350 X139.531 Y111.626 E133.70784
G1 X140.069 Y111.626 E133.72574
G1 X140.506 Y111.943 E133.74369
G1 X140.677 Y112.521 E133.76374
G1 X140.509 Y113.036 E133.78176
G1 X140.069 Y113.356 E133.79985
G1 X139.531 Y113.356 E133.81775
G1 X139.094 Y113.039 E133.8357
G1 X138.923 Y112.461 E133.85575
G1 X139.091 Y111.946 E133.87377
M205 X10 Y10
G1 F1500 E127.87377
G1 F600 Z0.575
;MESH:paper-cutter-lineal-links.stl
G0 F6000 X138.137 Y118.533 Z0.575
M205 X8 Y8
;TYPE:WALL-INNER
G1 F600 Z0.5
G1 F1500 E133.87377
G1 F1350 X138.5 Y118.009 E133.89497
G1 X138.5 Y119 E133.91498
G1 X137.903 Y119 E133.93484
G1 X137.022 Y119 E133.96414
G1 X86.5 Y119 E135.64451
G1 X86.5 Y101 E136.24319
G1 X138.5 Y101 E137.97272
G1 X138.5 Y106.353 E138.15076
G1 X138.5 Y106.991 E138.17198
G1 X138.137 Y106.467 E138.18306
G1 X137.903 Y106.129 E138.19673
G1 X136.5 Y106.569 E138.24563
G1 X136.5 Y118.431 E138.64017
G1 X137.063 Y118.608 E138.6598
G1 X137.903 Y118.871 E138.67928
G1 X138.137 Y118.533 E138.6879
M205 X10 Y10
G0 F6000 X137.742 Y118.401
M205 X8 Y8
G1 F1350 X138.537 Y117.253 E138.73435
G1 X138.9 Y116.729 E138.75555
G1 X138.9 Y117.367 E138.76665
