;FLAVOR:Marlin
;TIME:838
;Filament used: 0.572369m
;Layer height: 0.2
;MINX:97.7
;MINY:105.2
;MINZ:0.3
;MAXX:127.3
;MAXY:114.8
;MAXZ:8.175
;Generated with Cura_SteamEngine 4.13.1
M140 S60
M105
M190 S60
M104 S200
M105
M109 S200
M82 ;absolute extrusion mode
G21                                        ; metric values
G90                                        ; absolute positioning
M82                                        ; set extruder to absolute mode
M107                                       ; start with the fan off
M190 S60                                   ; preheat and wait for bed
M109 S210                                  ; preheat and wait for hotend
M300 S1000 P500                            ; BEEP heating done
G28 X0 Y10 Z0                              ; move X/Y to min endstops
M420 S1                                    ; enable mesh leveling
G0 Z0.15                                   ; lift nozzle a bit
G0 X2                                      ; move away from clips
G92 E0                                     ; zero the extruded length
G1 Y50 E25 F500                            ; Extrude 25mm of filament in a 5cm line.
G92 E0                                     ; zero the extruded length again
G1 E-2 F500                                ; Retract a little
G1 Y120 F4000                              ; Quickly wipe away from the filament line
G92 E0
G92 E0
G1 F1500 E-6
;LAYER_COUNT:40
;LAYER:0
M106 S76.5
M205 X10 Y10
G1 F600 Z0.375
;MESH:paper-cutter-cutter-teil.stl
G0 F6000 X126.5 Y114 Z0.375
M205 X8 Y8
;TYPE:WALL-INNER
G1 F600 Z0.3
G1 F1500 E0
G1 F1200 X98.5 Y114 E1.39693
G1 X98.5 Y106 E1.79605
G1 X126.5 Y106 E3.19297
G1 X126.5 Y114 E3.59209
M205 X10 Y10
G0 F6000 X126.9 Y114.4
M205 X8 Y8
G1 F1200 X98.1 Y114.4 E5.02893
G1 X98.1 Y105.6 E5.46797
G1 X126.9 Y105.6 E6.9048
G1 X126.9 Y114.4 E7.34384
M205 X10 Y10
G0 F6000 X127.3 Y114.8
M205 X8 Y8
;TYPE:WALL-OUTER
G1 F1200 X97.7 Y114.8 E8.82059
G1 X97.7 Y105.2 E9.29953
G1 X127.3 Y105.2 E10.77628
G1 X127.3 Y114.8 E11.25523
M205 X10 Y10
G0 F6000 X127.1 Y114.8
G0 X126.86 Y114.36
G0 X126.11 Y113.61
M205 X8 Y8
;TYPE:SKIN
G1 F1200 X98.89 Y113.61 E12.61324
G1 X98.89 Y106.39 E12.97345
G1 X126.11 Y106.39 E14.33146
G1 X126.11 Y113.61 E14.69167
M205 X10 Y10
G1 F1500 E8.69167
G1 F600 Z0.375
G0 F6000 X125.929 Y106.696 Z0.375
M205 X8 Y8
G1 F600 Z0.3
G1 F1500 E14.69167
G1 F1200 X125.803 Y106.57 E14.70056
M205 X10 Y10
G0 F6000 X125.237 Y106.57
M205 X8 Y8
G1 F1200 X125.929 Y107.261 E14.74935
M205 X10 Y10
G0 F6000 X125.929 Y107.827
M205 X8 Y8
G1 F1200 X124.672 Y106.57 E14.83803
M205 X10 Y10
G0 F6000 X124.106 Y106.57
M205 X8 Y8
G1 F1200 X125.929 Y108.393 E14.96666
M205 X10 Y10
G0 F6000 X125.929 Y108.958
M205 X8 Y8
G1 F1200 X123.54 Y106.57 E15.13518
M205 X10 Y10
G0 F6000 X122.975 Y106.57
M205 X8 Y8
G1 F1200 X125.929 Y109.524 E15.3436
M205 X10 Y10
G0 F6000 X125.929 Y110.09
M205 X8 Y8
G1 F1200 X122.409 Y106.57 E15.59195
M205 X10 Y10
G0 F6000 X121.843 Y106.57
M205 X8 Y8
G1 F1200 X125.929 Y110.655 E15.88021
M205 X10 Y10
G0 F6000 X125.929 Y111.221
M205 X8 Y8
G1 F1200 X121.278 Y106.57 E16.20836
M205 X10 Y10
G0 F6000 X120.712 Y106.57
M205 X8 Y8
G1 F1200 X125.929 Y111.787 E16.57645
M205 X10 Y10
G0 F6000 X125.929 Y112.352
M205 X8 Y8
G1 F1200 X120.146 Y106.57 E16.98444
M205 X10 Y10
G0 F6000 X119.58 Y106.57
M205 X8 Y8
G1 F1200 X125.929 Y112.918 E17.43236
M205 X10 Y10
G0 F6000 X125.874 Y113.429
M205 X8 Y8
G1 F1200 X119.015 Y106.57 E17.9163
M205 X10 Y10
G0 F6000 X118.449 Y106.57
M205 X8 Y8
G1 F1200 X125.309 Y113.429 E18.40027
M205 X10 Y10
G0 F6000 X124.743 Y113.429
M205 X8 Y8
G1 F1200 X117.883 Y106.57 E18.88425
M205 X10 Y10
G0 F6000 X117.318 Y106.57
M205 X8 Y8
G1 F1200 X124.177 Y113.429 E19.36818
M205 X10 Y10
G0 F6000 X123.612 Y113.429
M205 X8 Y8
G1 F1200 X116.752 Y106.57 E19.85216
M205 X10 Y10
G0 F6000 X116.186 Y106.57
M205 X8 Y8
G1 F1200 X123.046 Y113.429 E20.33613
M205 X10 Y10
G0 F6000 X122.48 Y113.429
M205 X8 Y8
G1 F1200 X115.621 Y106.57 E20.82007
M205 X10 Y10
G0 F6000 X115.055 Y106.57
M205 X8 Y8
G1 F1200 X121.915 Y113.429 E21.30405
M205 X10 Y10
G0 F6000 X121.349 Y113.429
M205 X8 Y8
G1 F1200 X114.489 Y106.57 E21.78802
M205 X10 Y10
G0 F6000 X113.924 Y106.57
M205 X8 Y8
G1 F1200 X120.783 Y113.429 E22.27196
M205 X10 Y10
G0 F6000 X120.218 Y113.429
M205 X8 Y8
G1 F1200 X113.358 Y106.57 E22.75594
M205 X10 Y10
G0 F6000 X112.792 Y106.57
M205 X8 Y8
G1 F1200 X119.652 Y113.429 E23.23991
M205 X10 Y10
G0 F6000 X119.086 Y113.429
M205 X8 Y8
G1 F1200 X112.227 Y106.57 E23.72385
M205 X10 Y10
G0 F6000 X111.661 Y106.57
M205 X8 Y8
G1 F1200 X118.52 Y113.429 E24.20779
M205 X10 Y10
G0 F6000 X117.955 Y113.429
M205 X8 Y8
G1 F1200 X111.095 Y106.57 E24.69177
M205 X10 Y10
G0 F6000 X110.529 Y106.57
M205 X8 Y8
G1 F1200 X117.389 Y113.429 E25.17574
M205 X10 Y10
G0 F6000 X116.823 Y113.429
M205 X8 Y8
G1 F1200 X109.964 Y106.57 E25.65968
M205 X10 Y10
G0 F6000 X109.398 Y106.57
M205 X8 Y8
G1 F1200 X116.258 Y113.429 E26.14366
M205 X10 Y10
G0 F6000 X115.692 Y113.429
M205 X8 Y8
G1 F1200 X108.832 Y106.57 E26.62763
M205 X10 Y10
G0 F6000 X108.267 Y106.57
M205 X8 Y8
G1 F1200 X115.126 Y113.429 E27.11157
M205 X10 Y10
G0 F6000 X114.561 Y113.429
M205 X8 Y8
G1 F1200 X107.701 Y106.57 E27.59554
M205 X10 Y10
G0 F6000 X107.135 Y106.57
M205 X8 Y8
G1 F1200 X113.995 Y113.429 E28.07952
M205 X10 Y10
G0 F6000 X113.429 Y113.429
M205 X8 Y8
G1 F1200 X106.57 Y106.57 E28.56346
M205 X10 Y10
G0 F6000 X106.004 Y106.57
M205 X8 Y8
G1 F1200 X112.864 Y113.429 E29.04743
M205 X10 Y10
G0 F6000 X112.298 Y113.429
M205 X8 Y8
G1 F1200 X105.438 Y106.57 E29.53141
M205 X10 Y10
G0 F6000 X104.873 Y106.57
M205 X8 Y8
G1 F1200 X111.732 Y113.429 E30.01535
M205 X10 Y10
G0 F6000 X111.167 Y113.429
M205 X8 Y8
G1 F1200 X104.307 Y106.57 E30.49932
M205 X10 Y10
G0 F6000 X103.741 Y106.57
M205 X8 Y8
G1 F1200 X110.601 Y113.429 E30.9833
M205 X10 Y10
G0 F6000 X110.035 Y113.429
M205 X8 Y8
G1 F1200 X103.176 Y106.57 E31.46724
M205 X10 Y10
G0 F6000 X102.61 Y106.57
M205 X8 Y8
G1 F1200 X109.47 Y113.429 E31.95121
M205 X10 Y10
G0 F6000 X108.904 Y113.429
M205 X8 Y8
G1 F1200 X102.044 Y106.57 E32.43519
M205 X10 Y10
G0 F6000 X101.479 Y106.57
M205 X8 Y8
G1 F1200 X108.338 Y113.429 E32.91913
M205 X10 Y10
G0 F6000 X107.772 Y113.429
M205 X8 Y8
G1 F1200 X100.913 Y106.57 E33.40307
M205 X10 Y10
G0 F6000 X100.347 Y106.57
M205 X8 Y8
G1 F1200 X107.207 Y113.429 E33.88704
M205 X10 Y10
G0 F6000 X106.641 Y113.429
M205 X8 Y8
G1 F1200 X99.781 Y106.57 E34.37101
M205 X10 Y10
G0 F6000 X99.216 Y106.57
M205 X8 Y8
G1 F1200 X106.075 Y113.429 E34.85495
M205 X10 Y10
G0 F6000 X105.51 Y113.429
M205 X8 Y8
G1 F1200 X99.069 Y106.989 E35.30937
M205 X10 Y10
G0 F6000 X99.069 Y107.555
M205 X8 Y8
G1 F1200 X104.944 Y113.429 E35.72384
M205 X10 Y10
G0 F6000 X104.378 Y113.429
M205 X8 Y8
G1 F1200 X99.069 Y108.12 E36.09842
M205 X10 Y10
G0 F6000 X99.069 Y108.686
M205 X8 Y8
G1 F1200 X103.813 Y113.429 E36.4331
M205 X10 Y10
G0 F6000 X103.247 Y113.429
M205 X8 Y8
G1 F1200 X99.069 Y109.252 E36.72785
M205 X10 Y10
G0 F6000 X99.069 Y109.817
M205 X8 Y8
G1 F1200 X102.681 Y113.429 E36.98269
M205 X10 Y10
G0 F6000 X102.116 Y113.429
M205 X8 Y8
G1 F1200 X99.069 Y110.383 E37.19764
M205 X10 Y10
G0 F6000 X99.069 Y110.949
M205 X8 Y8
G1 F1200 X101.55 Y113.429 E37.37265
M205 X10 Y10
G0 F6000 X100.984 Y113.429
M205 X8 Y8
G1 F1200 X99.069 Y111.514 E37.50777
M205 X10 Y10
G0 F6000 X99.069 Y112.08
M205 X8 Y8
G1 F1200 X100.419 Y113.429 E37.60298
M205 X10 Y10
G0 F6000 X99.853 Y113.429
M205 X8 Y8
G1 F1200 X99.069 Y112.646 E37.65826
M205 X10 Y10
G0 F6000 X99.069 Y113.212
M205 X8 Y8
G1 F1200 X99.287 Y113.429 E37.67361
M205 X10 Y10
G1 F1500 E31.67361
G1 F600 Z0.375
;MESH:NONMESH
G0 F6000 X126.5 Y114 Z0.375
;TIME_ELAPSED:43.016264
;LAYER:1
M106 S127.5
;MESH:paper-cutter-cutter-teil.stl
G0 X126.5 Y114 Z0.575
M205 X8 Y8
;TYPE:WALL-INNER
G1 F600 Z0.5
G1 F1500 E37.67361
G1 F1350 X98.5 Y114 E38.60489
G1 X98.5 Y106 E38.87097
G1 X126.5 Y106 E39.80226
G1 X126.5 Y114 E40.06834
M205 X10 Y10
G0 F6000 X126.9 Y114.4
M205 X8 Y8
G1 F1350 X98.1 Y114.4 E41.02623
G1 X98.1 Y105.6 E41.31892
G1 X126.9 Y105.6 E42.27681
G1 X126.9 Y114.4 E42.5695
M205 X10 Y10
G0 F6000 X127.3 Y114.8
M205 X8 Y8
;TYPE:WALL-OUTER
G1 F1350 X97.7 Y114.8 E43.554
G1 X97.7 Y105.2 E43.8733
G1 X127.3 Y105.2 E44.8578
G1 X127.3 Y114.8 E45.17709
M205 X10 Y10
G0 F6000 X127.1 Y114.8
G0 X126.86 Y114.36
G0 X126.11 Y113.61
M205 X8 Y8
;TYPE:SKIN
G1 F1350 X98.89 Y113.61 E46.08243
G1 X98.89 Y106.39 E46.32257
G1 X126.11 Y106.39 E47.22791
G1 X126.11 Y113.61 E47.46805
M205 X10 Y10
G0 F6000 X125.929 Y113.355
M205 X8 Y8
G1 F1350 X125.854 Y113.43 E47.47158
M205 X10 Y10
G0 F6000 X125.288 Y113.43
M205 X8 Y8
G1 F1350 X125.929 Y112.789 E47.50173
M205 X10 Y10
G0 F6000 X125.929 Y112.224
M205 X8 Y8
G1 F1350 X124.723 Y113.43 E47.55846
M205 X10 Y10
G0 F6000 X124.157 Y113.43
M205 X8 Y8
G1 F1350 X125.929 Y111.658 E47.64181
M205 X10 Y10
G0 F6000 X125.929 Y111.092
M205 X8 Y8
G1 F1350 X123.591 Y113.43 E47.75178
M205 X10 Y10
G0 F6000 X123.025 Y113.43
M205 X8 Y8
G1 F1350 X125.929 Y110.527 E47.88835
M205 X10 Y10
G0 F6000 X125.929 Y109.961
M205 X8 Y8
G1 F1350 X122.46 Y113.43 E48.05152
M205 X10 Y10
G0 F6000 X121.894 Y113.43
M205 X8 Y8
G1 F1350 X125.929 Y109.395 E48.24132
M205 X10 Y10
G0 F6000 X125.929 Y108.83
M205 X8 Y8
G1 F1350 X121.328 Y113.43 E48.45771
M205 X10 Y10
G0 F6000 X120.763 Y113.43
M205 X8 Y8
G1 F1350 X125.929 Y108.264 E48.7007
M205 X10 Y10
G0 F6000 X125.929 Y107.698
M205 X8 Y8
G1 F1350 X120.197 Y113.43 E48.97032
M205 X10 Y10
G0 F6000 X119.631 Y113.43
M205 X8 Y8
G1 F1350 X125.929 Y107.133 E49.26653
M205 X10 Y10
G0 F6000 X125.927 Y106.569
M205 X8 Y8
G1 F1350 X119.066 Y113.43 E49.58925
M205 X10 Y10
G0 F6000 X118.5 Y113.43
M205 X8 Y8
G1 F1350 X125.361 Y106.569 E49.91197
M205 X10 Y10
G0 F6000 X124.795 Y106.569
M205 X8 Y8
G1 F1350 X117.934 Y113.43 E50.23469
M205 X10 Y10
G0 F6000 X117.369 Y113.43
M205 X8 Y8
G1 F1350 X124.23 Y106.569 E50.55741
M205 X10 Y10
G0 F6000 X123.664 Y106.569
M205 X8 Y8
G1 F1350 X116.803 Y113.43 E50.88013
M205 X10 Y10
G0 F6000 X116.237 Y113.43
M205 X8 Y8
G1 F1350 X123.098 Y106.569 E51.20285
M205 X10 Y10
G0 F6000 X122.533 Y106.569
M205 X8 Y8
G1 F1350 X115.672 Y113.43 E51.52558
M205 X10 Y10
G0 F6000 X115.106 Y113.43
M205 X8 Y8
G1 F1350 X121.967 Y106.569 E51.8483
M205 X10 Y10
G0 F6000 X121.401 Y106.569
M205 X8 Y8
G1 F1350 X114.54 Y113.43 E52.17102
M205 X10 Y10
G0 F6000 X113.975 Y113.43
M205 X8 Y8
G1 F1350 X120.836 Y106.569 E52.49374
M205 X10 Y10
G0 F6000 X120.27 Y106.569
M205 X8 Y8
G1 F1350 X113.409 Y113.43 E52.81646
M205 X10 Y10
G0 F6000 X112.843 Y113.43
M205 X8 Y8
G1 F1350 X119.704 Y106.569 E53.13918
M205 X10 Y10
G0 F6000 X119.139 Y106.569
M205 X8 Y8
G1 F1350 X112.277 Y113.43 E53.46192
M205 X10 Y10
G0 F6000 X111.712 Y113.43
M205 X8 Y8
G1 F1350 X118.573 Y106.569 E53.78464
M205 X10 Y10
G0 F6000 X118.007 Y106.569
M205 X8 Y8
G1 F1350 X111.146 Y113.43 E54.10736
M205 X10 Y10
G0 F6000 X110.58 Y113.43
M205 X8 Y8
G1 F1350 X117.441 Y106.569 E54.43008
M205 X10 Y10
G0 F6000 X116.876 Y106.569
M205 X8 Y8
G1 F1350 X110.015 Y113.43 E54.7528
M205 X10 Y10
G0 F6000 X109.449 Y113.43
M205 X8 Y8
G1 F1350 X116.31 Y106.569 E55.07552
M205 X10 Y10
G0 F6000 X115.744 Y106.569
M205 X8 Y8
G1 F1350 X108.883 Y113.43 E55.39824
M205 X10 Y10
G0 F6000 X108.318 Y113.43
M205 X8 Y8
G1 F1350 X115.179 Y106.569 E55.72096
M205 X10 Y10
G0 F6000 X114.613 Y106.569
M205 X8 Y8
G1 F1350 X107.752 Y113.43 E56.04368
M205 X10 Y10
G0 F6000 X107.186 Y113.43
M205 X8 Y8
G1 F1350 X114.047 Y106.569 E56.3664
M205 X10 Y10
G0 F6000 X113.482 Y106.569
M205 X8 Y8
G1 F1350 X106.621 Y113.43 E56.68913
M205 X10 Y10
G0 F6000 X106.055 Y113.43
M205 X8 Y8
G1 F1350 X112.916 Y106.569 E57.01185
M205 X10 Y10
G0 F6000 X112.35 Y106.569
M205 X8 Y8
G1 F1350 X105.489 Y113.43 E57.33457
M205 X10 Y10
G0 F6000 X104.924 Y113.43
M205 X8 Y8
G1 F1350 X111.785 Y106.569 E57.65729
M205 X10 Y10
G0 F6000 X111.219 Y106.569
M205 X8 Y8
G1 F1350 X104.358 Y113.43 E57.98001
M205 X10 Y10
G0 F6000 X103.792 Y113.43
M205 X8 Y8
G1 F1350 X110.653 Y106.569 E58.30273
M205 X10 Y10
G0 F6000 X110.088 Y106.569
M205 X8 Y8
G1 F1350 X103.226 Y113.43 E58.62547
M205 X10 Y10
G0 F6000 X102.661 Y113.43
M205 X8 Y8
G1 F1350 X109.522 Y106.569 E58.94819
M205 X10 Y10
G0 F6000 X108.956 Y106.569
M205 X8 Y8
G1 F1350 X102.095 Y113.43 E59.27091
M205 X10 Y10
G0 F6000 X101.529 Y113.43
M205 X8 Y8
G1 F1350 X108.39 Y106.569 E59.59363
M205 X10 Y10
G0 F6000 X107.825 Y106.569
M205 X8 Y8
G1 F1350 X100.964 Y113.43 E59.91635
M205 X10 Y10
G0 F6000 X100.398 Y113.43
M205 X8 Y8
G1 F1350 X107.259 Y106.569 E60.23907
M205 X10 Y10
G0 F6000 X106.693 Y106.569
M205 X8 Y8
G1 F1350 X99.832 Y113.43 E60.56179
M205 X10 Y10
G0 F6000 X99.267 Y113.43
M205 X8 Y8
G1 F1350 X106.128 Y106.569 E60.88451
M205 X10 Y10
G0 F6000 X105.562 Y106.569
M205 X8 Y8
G1 F1350 X99.069 Y113.062 E61.18992
M205 X10 Y10
G0 F6000 X99.069 Y112.496
M205 X8 Y8
G1 F1350 X104.996 Y106.569 E61.46871
M205 X10 Y10
G0 F6000 X104.431 Y106.569
M205 X8 Y8
G1 F1350 X99.069 Y111.93 E61.7209
M205 X10 Y10
G0 F6000 X99.069 Y111.365
M205 X8 Y8
G1 F1350 X103.865 Y106.569 E61.94649
M205 X10 Y10
G0 F6000 X103.299 Y106.569
M205 X8 Y8
G1 F1350 X99.069 Y110.799 E62.14546
M205 X10 Y10
G0 F6000 X99.069 Y110.233
M205 X8 Y8
G1 F1350 X102.734 Y106.569 E62.31782
M205 X10 Y10
G0 F6000 X102.168 Y106.569
M205 X8 Y8
G1 F1350 X99.069 Y109.668 E62.46359
M205 X10 Y10
G0 F6000 X99.069 Y109.102
M205 X8 Y8
G1 F1350 X101.602 Y106.569 E62.58274
M205 X10 Y10
G0 F6000 X101.037 Y106.569
M205 X8 Y8
G1 F1350 X99.069 Y108.536 E62.67528
M205 X10 Y10
G0 F6000 X99.069 Y107.97
M205 X8 Y8
G1 F1350 X100.471 Y106.569 E62.7412
M205 X10 Y10
G0 F6000 X99.905 Y106.569
M205 X8 Y8
G1 F1350 X99.069 Y107.405 E62.78053
M205 X10 Y10
G0 F6000 X99.069 Y106.839
M205 X8 Y8
G1 F1350 X99.34 Y106.569 E62.79325
M205 X10 Y10
G1 F1500 E56.79325
G1 F600 Z0.575
;MESH:NONMESH
G0 F6000 X126.5 Y114 Z0.575
;TIME_ELAPSED:79.024707
;LAYER:2
M106 S178.5
;MESH:paper-cutter-cutter-teil.stl
G0 X126.5 Y114 Z0.775
M205 X8 Y8
;TYPE:WALL-INNER
G1 F600 Z0.7
G1 F1500 E62.79325
G1 X98.5 Y114 E63.72453
G1 X98.5 Y106 E63.99061
G1 X126.5 Y106 E64.9219
G1 X126.5 Y114 E65.18798
M205 X10 Y10
G0 F6000 X126.9 Y114.4
M205 X8 Y8
G1 F1500 X98.1 Y114.4 E66.14587
G1 X98.1 Y105.6 E66.43856
G1 X126.9 Y105.6 E67.39645
G1 X126.9 Y114.4 E67.68914
M205 X10 Y10
G0 F6000 X127.3 Y114.8
M205 X8 Y8
;TYPE:WALL-OUTER
G1 F1500 X97.7 Y114.8 E68.67364
G1 X97.7 Y105.2 E68.99294
G1 X127.3 Y105.2 E69.97744
G1 X127.3 Y114.8 E70.29674
M205 X10 Y10
G0 F6000 X127.1 Y114.8
G0 X126.86 Y114.36
G0 X126.11 Y113.61
M205 X8 Y8
;TYPE:SKIN
G1 F1500 X98.89 Y113.61 E71.20208
G1 X98.89 Y106.39 E71.44221
G1 X126.11 Y106.39 E72.34756
G1 X126.11 Y113.61 E72.58769
M205 X10 Y10
G1 F1500 E66.58769
G1 F600 Z0.775
G0 F6000 X125.929 Y106.696 Z0.775
M205 X8 Y8
G1 F600 Z0.7
G1 F1500 E72.58769
G1 X125.803 Y106.57 E72.59362
M205 X10 Y10
G0 F6000 X125.237 Y106.57
M205 X8 Y8
G1 F1500 X125.929 Y107.261 E72.62615
M205 X10 Y10
G0 F6000 X125.929 Y107.827
M205 X8 Y8
G1 F1500 X124.672 Y106.57 E72.68527
M205 X10 Y10
G0 F6000 X124.106 Y106.57
M205 X8 Y8
G1 F1500 X125.929 Y108.393 E72.77102
M205 X10 Y10
G0 F6000 X125.929 Y108.958
M205 X8 Y8
G1 F1500 X123.54 Y106.57 E72.88337
M205 X10 Y10
G0 F6000 X122.975 Y106.57
M205 X8 Y8
G1 F1500 X125.929 Y109.524 E73.02232
M205 X10 Y10
G0 F6000 X125.929 Y110.09
M205 X8 Y8
G1 F1500 X122.409 Y106.57 E73.18789
M205 X10 Y10
G0 F6000 X121.843 Y106.57
M205 X8 Y8
G1 F1500 X125.929 Y110.655 E73.38005
M205 X10 Y10
G0 F6000 X125.929 Y111.221
M205 X8 Y8
G1 F1500 X121.278 Y106.57 E73.59882
M205 X10 Y10
G0 F6000 X120.712 Y106.57
M205 X8 Y8
G1 F1500 X125.929 Y111.787 E73.84422
M205 X10 Y10
G0 F6000 X125.929 Y112.352
M205 X8 Y8
G1 F1500 X120.146 Y106.57 E74.11621
M205 X10 Y10
G0 F6000 X119.58 Y106.57
M205 X8 Y8
G1 F1500 X125.929 Y112.918 E74.41482
M205 X10 Y10
G0 F6000 X125.874 Y113.429
M205 X8 Y8
G1 F1500 X119.015 Y106.57 E74.73745
M205 X10 Y10
G0 F6000 X118.449 Y106.57
M205 X8 Y8
G1 F1500 X125.309 Y113.429 E75.0601
M205 X10 Y10
G0 F6000 X124.743 Y113.429
M205 X8 Y8
G1 F1500 X117.883 Y106.57 E75.38275
M205 X10 Y10
G0 F6000 X117.318 Y106.57
M205 X8 Y8
G1 F1500 X124.177 Y113.429 E75.70537
M205 X10 Y10
G0 F6000 X123.612 Y113.429
M205 X8 Y8
