;FLAVOR:Marlin
;TIME:593
;Filament used: 0.234279m
;Layer height: 0.2
;MINX:94.356
;MINY:95.042
;MINZ:0.3
;MAXX:125.955
;MAXY:123.455
;MAXZ:21.7
;Generated with Cura_SteamEngine 4.13.1
M140 S60
M105
M190 S60
M104 S200
M105
M109 S200
M82 ;absolute extrusion mode
G21                                        ; metric values
G90                                        ; absolute positioning
M82                                        ; set extruder to absolute mode
M107                                       ; start with the fan off
M190 S60                                   ; preheat and wait for bed
M109 S210                                  ; preheat and wait for hotend
M300 S1000 P500                            ; BEEP heating done
G28 X0 Y10 Z0                              ; move X/Y to min endstops
M420 S1                                    ; enable mesh leveling
G0 Z0.15                                   ; lift nozzle a bit
G0 X2                                      ; move away from clips
G92 E0                                     ; zero the extruded length
G1 Y50 E25 F500                            ; Extrude 25mm of filament in a 5cm line.
G92 E0                                     ; zero the extruded length again
G1 E-2 F500                                ; Retract a little
G1 Y120 F4000                              ; Quickly wipe away from the filament line
G92 E0
G92 E0
G1 F1500 E-6
;LAYER_COUNT:93
;LAYER:0
M107
M205 X10 Y10
G1 F600 Z0.375
G0 F6000 X101.498 Y99.674 Z0.375
M205 X8 Y8
;TYPE:SKIRT
G1 F600 Z0.3
G1 F1500 E0
G1 F1200 X102.053 Y99.112 E0.03941
G1 X102.751 Y98.543 E0.08433
G1 X104.328 Y97.402 E0.18144
G1 X104.99 Y96.972 E0.22083
G1 X105.713 Y96.602 E0.26135
G1 X107.364 Y95.863 E0.35159
G1 X108.101 Y95.577 E0.39103
G1 X108.862 Y95.367 E0.43042
G1 X109.911 Y95.208 E0.48335
G1 X111.623 Y95.067 E0.56905
G1 X112.412 Y95.042 E0.60843
G1 X113.2 Y95.097 E0.64784
G1 X113.978 Y95.232 E0.68724
G1 X114.739 Y95.444 E0.72665
G1 X115.474 Y95.732 E0.76603
G1 X116.176 Y96.094 E0.80544
G1 X116.854 Y96.535 E0.84579
G1 X117.869 Y97.274 E0.90843
G1 X118.483 Y97.771 E0.94784
G1 X119.044 Y98.327 E0.98724
G1 X119.545 Y98.937 E1.02663
G1 X119.983 Y99.594 E1.06602
G1 X120.351 Y100.293 E1.10543
G1 X120.696 Y101.168 E1.15236
G1 X121.083 Y102.358 E1.21479
G1 X121.289 Y103.12 E1.25417
G1 X121.416 Y103.899 E1.29354
G1 X121.465 Y104.688 E1.33298
G1 X121.433 Y105.477 E1.37238
G1 X121.374 Y105.889 E1.39314
G1 X121.681 Y106.61 E1.43224
G1 X121.963 Y107.46 E1.47692
G1 X122.174 Y108.514 E1.53055
G1 X122.235 Y108.987 E1.55434
G1 X122.299 Y109.985 E1.60423
G1 X122.299 Y110.01 E1.60548
G1 X122.238 Y110.987 E1.65432
G1 X122.178 Y111.462 E1.6782
G1 X121.964 Y112.537 E1.73289
G1 X121.684 Y113.382 E1.7773
G1 X121.506 Y113.831 E1.8014
G1 X121.281 Y114.344 E1.82934
G1 X120.904 Y115.039 E1.86879
G1 X120.539 Y115.585 E1.90156
G1 X120.258 Y115.969 E1.9253
G1 X119.627 Y116.726 E1.97446
G1 X118.885 Y117.418 E2.02508
G1 X118.517 Y117.719 E2.0488
G1 X117.84 Y118.214 E2.09064
G1 X117.817 Y118.229 E2.09201
G1 X116.871 Y118.757 E2.14606
G1 X116.445 Y118.957 E2.16954
G1 X115.714 Y119.256 E2.20894
G1 X115.29 Y119.391 E2.23114
G1 X114.611 Y119.557 E2.26602
G1 X114.143 Y119.649 E2.28981
G1 X113.361 Y119.761 E2.32922
G1 X112.939 Y119.789 E2.35032
G1 X112.138 Y119.781 E2.39029
G1 X111.664 Y119.752 E2.41398
G1 X110.879 Y119.664 E2.45339
G1 X110.421 Y119.575 E2.47667
G1 X109.721 Y119.385 E2.51285
G1 X109.271 Y119.24 E2.53644
G1 X108.442 Y118.92 E2.58077
G1 X107.669 Y118.503 E2.62459
G1 X106.735 Y118.503 E2.67119
G1 X105.946 Y118.463 E2.7106
G1 X105.166 Y118.344 E2.74997
G1 X104.401 Y118.146 E2.78939
G1 X103.661 Y117.872 E2.82876
G1 X102.952 Y117.524 E2.86816
G1 X102.144 Y117.009 E2.91597
G1 X101.129 Y116.27 E2.9786
G1 X100.515 Y115.773 E3.01802
G1 X99.954 Y115.217 E3.05742
G1 X99.453 Y114.607 E3.0968
G1 X99.015 Y113.95 E3.1362
G1 X98.647 Y113.251 E3.17561
G1 X98.302 Y112.376 E3.22253
G1 X97.915 Y111.186 E3.28496
G1 X97.709 Y110.424 E3.32434
G1 X97.582 Y109.645 E3.36372
G1 X97.533 Y108.856 E3.40316
G1 X97.565 Y108.067 E3.44256
G1 X97.676 Y107.286 E3.48191
G1 X97.87 Y106.504 E3.52211
G1 X98.394 Y104.781 E3.61196
G1 X98.662 Y104.039 E3.65132
G1 X99.004 Y103.327 E3.69072
G1 X99.502 Y102.528 E3.73769
G1 X100.357 Y101.327 E3.81124
G1 X100.574 Y100.952 E3.83286
G1 X101.003 Y100.29 E3.87222
G1 X101.498 Y99.674 E3.91164
M205 X10 Y10
G0 F6000 X101.824 Y99.911
M205 X8 Y8
G1 F1200 X102.367 Y99.367 E3.94999
G1 X102.985 Y98.867 E3.98965
G1 X104.562 Y97.726 E4.08676
G1 X105.208 Y97.308 E4.12515
G1 X105.877 Y96.967 E4.16261
G1 X107.528 Y96.228 E4.25285
G1 X108.245 Y95.95 E4.29122
G1 X108.987 Y95.749 E4.32957
G1 X109.944 Y95.607 E4.37784
G1 X111.656 Y95.466 E4.46354
G1 X112.424 Y95.443 E4.50187
G1 X113.191 Y95.499 E4.54024
G1 X113.948 Y95.636 E4.57862
G1 X114.687 Y95.849 E4.61699
G1 X115.4 Y96.139 E4.65539
G1 X116.079 Y96.501 E4.69378
G1 X116.619 Y96.859 E4.7261
G1 X117.634 Y97.598 E4.78874
G1 X118.231 Y98.082 E4.82709
G1 X118.775 Y98.626 E4.86547
G1 X119.26 Y99.223 E4.90384
G1 X119.679 Y99.868 E4.94221
G1 X120.03 Y100.552 E4.98057
G1 X120.315 Y101.291 E5.02009
G1 X120.702 Y102.481 E5.08252
G1 X120.902 Y103.224 E5.1209
G1 X121.023 Y103.984 E5.1593
G1 X121.065 Y104.752 E5.19767
G1 X121.027 Y105.52 E5.23603
G1 X120.961 Y105.947 E5.25759
G1 X121.309 Y106.758 E5.30162
G1 X121.577 Y107.565 E5.34404
G1 X121.777 Y108.566 E5.39497
G1 X121.838 Y109.039 E5.41876
G1 X121.899 Y109.985 E5.46606
G1 X121.899 Y110.01 E5.4673
G1 X121.841 Y110.937 E5.51364
G1 X121.781 Y111.412 E5.53753
G1 X121.578 Y112.432 E5.58941
G1 X121.312 Y113.234 E5.63157
G1 X121.134 Y113.683 E5.65567
G1 X120.92 Y114.172 E5.6823
G1 X120.552 Y114.847 E5.72065
G1 X120.216 Y115.349 E5.75079
G1 X119.935 Y115.733 E5.77453
G1 X119.336 Y116.452 E5.82122
G1 X118.632 Y117.108 E5.86922
G1 X118.264 Y117.409 E5.89294
G1 X117.598 Y117.894 E5.93405
G1 X116.701 Y118.395 E5.98531
G1 X116.275 Y118.595 E6.00878
G1 X115.202 Y119 E6.066
G1 X114.533 Y119.164 E6.10037
G1 X114.065 Y119.256 E6.12416
G1 X112.946 Y119.389 E6.18038
G1 X112.162 Y119.382 E6.2195
G1 X111.688 Y119.353 E6.24319
G1 X110.924 Y119.266 E6.28155
G1 X110.508 Y119.185 E6.3027
G1 X109.843 Y119.004 E6.33708
G1 X109.393 Y118.859 E6.36067
G1 X108.606 Y118.555 E6.40276
G1 X107.767 Y118.103 E6.45031
G1 X106.735 Y118.103 E6.50179
G1 X105.967 Y118.063 E6.54016
G1 X105.207 Y117.944 E6.57854
G1 X104.464 Y117.746 E6.6169
G1 X103.745 Y117.472 E6.65529
G1 X103.059 Y117.125 E6.69364
G1 X102.379 Y116.685 E6.73405
G1 X101.364 Y115.946 E6.79669
G1 X100.767 Y115.462 E6.83503
G1 X100.223 Y114.918 E6.87341
G1 X99.738 Y114.321 E6.91179
G1 X99.319 Y113.676 E6.95016
G1 X98.968 Y112.992 E6.98852
G1 X98.683 Y112.253 E7.02803
G1 X98.296 Y111.063 E7.09046
G1 X98.096 Y110.32 E7.12885
G1 X97.975 Y109.56 E7.16724
G1 X97.933 Y108.792 E7.20562
G1 X97.971 Y108.024 E7.24398
G1 X98.089 Y107.264 E7.28235
G1 X98.253 Y106.621 E7.31546
G1 X98.777 Y104.898 E7.40531
G1 X99.039 Y104.175 E7.44367
G1 X99.374 Y103.482 E7.48207
G1 X99.828 Y102.76 E7.52462
G1 X100.694 Y101.543 E7.59914
G1 X100.92 Y101.153 E7.62163
G1 X101.339 Y100.508 E7.66
G1 X101.824 Y99.911 E7.69838
M205 X10 Y10
G0 F6000 X102.148 Y100.148
M205 X8 Y8
G1 F1200 X102.681 Y99.623 E7.7357
G1 X103.22 Y99.191 E7.77016
G1 X104.797 Y98.05 E7.86728
G1 X105.425 Y97.644 E7.90458
G1 X106.04 Y97.332 E7.93899
G1 X107.691 Y96.593 E8.02923
G1 X108.389 Y96.324 E8.06655
G1 X109.112 Y96.131 E8.10389
G1 X109.976 Y96.006 E8.14744
G1 X111.688 Y95.865 E8.23314
G1 X112.436 Y95.843 E8.27048
G1 X113.182 Y95.902 E8.30781
G1 X113.917 Y96.039 E8.34511
G1 X114.634 Y96.255 E8.38247
G1 X115.323 Y96.545 E8.41976
G1 X115.977 Y96.908 E8.45708
G1 X116.383 Y97.182 E8.48152
G1 X117.398 Y97.921 E8.54416
G1 X117.979 Y98.393 E8.5815
G1 X118.505 Y98.924 E8.61879
G1 X118.972 Y99.509 E8.65614
G1 X119.374 Y100.14 E8.69346
G1 X119.707 Y100.81 E8.73079
G1 X119.935 Y101.415 E8.76305
G1 X120.322 Y102.605 E8.82548
G1 X120.515 Y103.328 E8.86281
G1 X120.63 Y104.067 E8.90012
G1 X120.665 Y104.814 E8.93743
G1 X120.62 Y105.561 E8.97477
G1 X120.546 Y106.003 E8.99713
G1 X120.763 Y106.468 E9.02273
G1 X120.937 Y106.906 E9.04624
G1 X121.191 Y107.67 E9.08641
G1 X121.381 Y108.617 E9.13459
G1 X121.442 Y109.09 E9.15839
G1 X121.499 Y109.985 E9.20313
G1 X121.499 Y110.01 E9.20438
G1 X121.444 Y110.887 E9.24822
G1 X121.384 Y111.362 E9.2721
G1 X121.192 Y112.327 E9.32119
G1 X120.94 Y113.087 E9.36114
G1 X120.57 Y113.976 E9.40918
G1 X120.201 Y114.656 E9.44778
G1 X119.893 Y115.113 E9.47527
G1 X119.612 Y115.497 E9.49901
G1 X119.044 Y116.178 E9.54325
G1 X118.379 Y116.798 E9.58861
G1 X118.011 Y117.099 E9.61233
G1 X117.403 Y117.544 E9.64992
G1 X117.38 Y117.559 E9.65129
G1 X116.531 Y118.032 E9.69978
G1 X116.105 Y118.232 E9.72326
G1 X115.09 Y118.616 E9.7774
G1 X114.456 Y118.772 E9.80997
G1 X113.988 Y118.864 E9.83377
G1 X112.929 Y118.989 E9.88697
G1 X112.187 Y118.983 E9.92399
G1 X111.713 Y118.954 E9.94768
G1 X110.621 Y118.8 E10.0027
G1 X109.966 Y118.624 E10.03654
G1 X109.516 Y118.479 E10.06012
G1 X108.77 Y118.19 E10.10004
G1 X107.87 Y117.703 E10.15109
G1 X106.735 Y117.703 E10.20771
G1 X105.988 Y117.663 E10.24504
G1 X105.25 Y117.544 E10.28233
G1 X104.528 Y117.346 E10.31968
G1 X103.832 Y117.073 E10.35698
G1 X103.169 Y116.726 E10.39431
G1 X102.615 Y116.362 E10.42739
G1 X101.6 Y115.623 E10.49002
G1 X101.019 Y115.151 E10.52737
G1 X100.493 Y114.62 E10.56466
G1 X100.026 Y114.035 E10.602
G1 X99.624 Y113.404 E10.63933
G1 X99.291 Y112.734 E10.67666
G1 X99.063 Y112.129 E10.70891
G1 X98.676 Y110.939 E10.77134
G1 X98.483 Y110.216 E10.80868
G1 X98.368 Y109.477 E10.84599
G1 X98.333 Y108.73 E10.8833
G1 X98.378 Y107.983 E10.92063
G1 X98.502 Y107.245 E10.95797
G1 X98.636 Y106.737 E10.98418
G1 X99.16 Y105.014 E11.07403
G1 X99.415 Y104.311 E11.11134
G1 X99.745 Y103.639 E11.14869
G1 X100.154 Y102.992 E11.18688
G1 X101.029 Y101.762 E11.26218
G1 X101.266 Y101.353 E11.28577
G1 X101.675 Y100.727 E11.32307
G1 X102.148 Y100.148 E11.36037
M205 X10 Y10
G0 F6000 X102.473 Y100.386
M205 X8 Y8
G1 F1200 X102.994 Y99.88 E11.39661
G1 X103.454 Y99.515 E11.4259
G1 X105.031 Y98.374 E11.52301
G1 X105.642 Y97.981 E11.55926
G1 X106.204 Y97.697 E11.59067
G1 X107.855 Y96.958 E11.68092
G1 X108.533 Y96.698 E11.71714
G1 X109.236 Y96.514 E11.7534
G1 X110.009 Y96.404 E11.79235
G1 X111.721 Y96.263 E11.87805
G1 X112.447 Y96.244 E11.91429
G1 X113.171 Y96.304 E11.95053
G1 X113.884 Y96.443 E11.98677
G1 X114.577 Y96.66 E12.023
G1 X115.242 Y96.952 E12.05924
G1 X116.148 Y97.505 E12.11219
G1 X117.163 Y98.244 E12.17483
G1 X117.726 Y98.704 E12.2111
G1 X118.234 Y99.222 E12.2473
G1 X118.683 Y99.793 E12.28354
G1 X119.067 Y100.41 E12.31979
G1 X119.38 Y101.065 E12.35601
G1 X119.554 Y101.539 E12.3812
G1 X119.941 Y102.729 E12.44363
G1 X120.128 Y103.431 E12.47988
G1 X120.236 Y104.149 E12.5161
G1 X120.264 Y104.875 E12.55235
G1 X120.213 Y105.6 E12.58861
G1 X120.13 Y106.055 E12.61168
G1 X120.392 Y106.615 E12.64253
G1 X120.566 Y107.053 E12.66604
G1 X120.805 Y107.775 E12.70398
G1 X120.984 Y108.668 E12.74942
G1 X121.045 Y109.141 E12.77322
G1 X121.099 Y109.985 E12.81541
G1 X121.099 Y110.01 E12.81666
G1 X121.047 Y110.837 E12.858
G1 X120.987 Y111.312 E12.88188
G1 X120.806 Y112.222 E12.92817
G1 X120.568 Y112.939 E12.96586
G1 X120.209 Y113.804 E13.01259
G1 X119.849 Y114.464 E13.05009
G1 X119.289 Y115.261 E13.09869
G1 X118.753 Y115.903 E13.14042
G1 X118.126 Y116.489 E13.18323
G1 X117.758 Y116.79 E13.20695
G1 X117.161 Y117.224 E13.24377
G1 X116.361 Y117.67 E13.28947
G1 X115.935 Y117.87 E13.31295
G1 X114.978 Y118.232 E13.364
G1 X114.379 Y118.379 E13.39477
G1 X113.911 Y118.471 E13.41856
G1 X112.913 Y118.589 E13.4687
G1 X112.211 Y118.584 E13.50372
G1 X111.737 Y118.555 E13.52742
G1 X110.708 Y118.41 E13.57926
G1 X110.089 Y118.243 E13.61125
G1 X109.639 Y118.098 E13.63483
G1 X108.935 Y117.826 E13.67249
G1 X108.101 Y117.376 E13.71976
G1 X107.986 Y117.303 E13.72656
G1 X106.735 Y117.303 E13.78897
G1 X106.01 Y117.263 E13.8252
G1 X105.293 Y117.144 E13.86146
G1 X104.594 Y116.946 E13.8977
G1 X103.921 Y116.673 E13.93394
G1 X103.282 Y116.328 E13.97017
G1 X102.85 Y116.039 E13.9961
G1 X101.835 Y115.3 E14.05874
G1 X101.272 Y114.84 E14.09501
G1 X100.764 Y114.322 E14.1312
G1 X100.315 Y113.751 E14.16744
G1 X99.931 Y113.134 E14.2037
G1 X99.618 Y112.479 E14.23992
G1 X99.444 Y112.005 E14.26511
G1 X99.057 Y110.815 E14.32754
G1 X98.87 Y110.113 E14.36378
G1 X98.762 Y109.395 E14.40001
G1 X98.734 Y108.669 E14.43626
G1 X98.785 Y107.944 E14.47252
G1 X98.916 Y107.23 E14.50873
G1 X99.019 Y106.854 E14.52818
G1 X99.543 Y105.131 E14.61803
G1 X99.792 Y104.448 E14.6543
G1 X100.115 Y103.798 E14.69051
G1 X100.48 Y103.224 E14.72445
G1 X101.365 Y101.981 E14.80057
G1 X101.612 Y101.554 E14.82518
G1 X102.01 Y100.946 E14.86144
G1 X102.473 Y100.386 E14.89769
M205 X10 Y10
G0 F6000 X102.796 Y100.626
M205 X8 Y8
G1 F1200 X103.305 Y100.14 E14.9328
G1 X103.689 Y99.839 E14.95714
G1 X105.266 Y98.698 E15.05425
G1 X105.859 Y98.318 E15.08939
G1 X106.367 Y98.062 E15.11777
G1 X108.018 Y97.323 E15.20801
G1 X108.676 Y97.072 E15.24315
G1 X109.358 Y96.898 E15.27826
G1 X110.042 Y96.803 E15.31272
G1 X111.754 Y96.662 E15.39842
G1 X112.458 Y96.644 E15.43355
G1 X113.159 Y96.706 E15.46866
G1 X113.849 Y96.847 E15.5038
G1 X114.518 Y97.066 E15.53892
G1 X115.158 Y97.359 E15.57403
G1 X115.912 Y97.829 E15.61836
G1 X116.927 Y98.568 E15.681
G1 X117.472 Y99.014 E15.71613
G1 X117.963 Y99.519 E15.75127
G1 X118.393 Y100.076 E15.78638
G1 X118.757 Y100.678 E15.82148
G1 X119.051 Y101.318 E15.85661
G1 X119.174 Y101.663 E15.87489
G1 X119.561 Y102.853 E15.93732
G1 X119.74 Y103.533 E15.9724
G1 X119.841 Y104.23 E16.00753
G1 X119.863 Y104.934 E16.04267
G1 X119.804 Y105.635 E16.07777
G1 X119.711 Y106.102 E16.10153
G1 X120.02 Y106.763 E16.13793
G1 X120.194 Y107.201 E16.16144
G1 X120.42 Y107.881 E16.19719
G1 X120.587 Y108.719 E16.23982
G1 X120.648 Y109.192 E16.26362
G1 X120.699 Y109.985 E16.30326
G1 X120.699 Y110.01 E16.30451
G1 X120.65 Y110.787 E16.34335
G1 X120.59 Y111.262 E16.36724
G1 X120.421 Y112.116 E16.41067
G1 X120.197 Y112.792 E16.4462
G1 X119.848 Y113.631 E16.49153
G1 X119.498 Y114.271 E16.52793
G1 X118.966 Y115.024 E16.57392
G1 X118.462 Y115.629 E16.61321
G1 X117.872 Y116.179 E16.65345
G1 X117.504 Y116.48 E16.67717
G1 X116.966 Y116.874 E16.71044
G1 X116.943 Y116.889 E16.71181
G1 X116.191 Y117.308 E16.75475
G1 X115.765 Y117.508 E16.77823
G1 X114.866 Y117.848 E16.82619
G1 X114.302 Y117.987 E16.85517
G1 X113.834 Y118.079 E16.87896
G1 X112.896 Y118.19 E16.92608
G1 X112.235 Y118.184 E16.95906
G1 X111.761 Y118.155 E16.98276
G1 X110.795 Y118.019 E17.03142
G1 X110.211 Y117.862 E17.0616
G1 X109.761 Y117.717 E17.08518
G1 X109.099 Y117.461 E17.12059
G1 X108.315 Y117.038 E17.16504
G1 X107.987 Y116.903 E17.18273
G1 X106.735 Y116.903 E17.2452
G1 X106.032 Y116.863 E17.28033
G1 X105.338 Y116.744 E17.31545
G1 X104.663 Y116.546 E17.35055
G1 X104.014 Y116.274 E17.38566
G1 X103.4 Y115.929 E17.42079
G1 X103.086 Y115.715 E17.43975
G1 X102.071 Y114.976 E17.50239
G1 X101.526 Y114.53 E17.53752
G1 X101.035 Y114.025 E17.57266
G1 X100.605 Y113.468 E17.60777
G1 X100.241 Y112.866 E17.64287
G1 X99.947 Y112.226 E17.678
G1 X99.824 Y111.881 E17.69628
G1 X99.437 Y110.691 E17.75871
G1 X99.258 Y110.011 E17.79379
G1 X99.157 Y109.314 E17.82893
G1 X99.135 Y108.61 E17.86407
G1 X99.194 Y107.909 E17.89916
G1 X99.401 Y106.97 E17.94713
G1 X99.925 Y105.247 E18.03698
G1 X100.168 Y104.586 E18.07212
G1 X100.484 Y103.957 E18.10724
G1 X100.806 Y103.456 E18.13695
G1 X101.699 Y102.202 E18.21375
G1 X101.958 Y101.754 E18.23957
G1 X102.345 Y101.166 E18.27469
G1 X102.796 Y100.626 E18.30979
M205 X10 Y10
G0 F6000 X103.119 Y100.866
M205 X8 Y8
G1 F1200 X103.616 Y100.401 E18.34375
G1 X103.923 Y100.163 E18.36313
G1 X105.5 Y99.022 E18.46024
G1 X106.074 Y98.656 E18.4942
G1 X106.53 Y98.427 E18.51966
G1 X108.181 Y97.688 E18.6099
G1 X108.818 Y97.447 E18.64388
G1 X109.479 Y97.282 E18.67787
G1 X110.075 Y97.202 E18.70787
G1 X111.787 Y97.061 E18.79357
G1 X112.468 Y97.045 E18.82756
G1 X113.145 Y97.109 E18.86148
G1 X113.811 Y97.251 E18.89546
G1 X114.456 Y97.471 E18.92946
G1 X115.07 Y97.765 E18.96342
G1 X115.677 Y98.152 E18.99933
