;FLAVOR:Marlin
;TIME:572
;Filament used: 0.317206m
;Layer height: 0.2
;MINX:105.2
;MINY:106.7
;MINZ:0.3
;MAXX:119.8
;MAXY:113.3
;MAXZ:10.175
;Generated with Cura_SteamEngine 4.13.1
M140 S60
M105
M190 S60
M104 S200
M105
M109 S200
M82 ;absolute extrusion mode
G21                                        ; metric values
G90                                        ; absolute positioning
M82                                        ; set extruder to absolute mode
M107                                       ; start with the fan off
M190 S60                                   ; preheat and wait for bed
M109 S210                                  ; preheat and wait for hotend
M300 S1000 P500                            ; BEEP heating done
G28 X0 Y10 Z0                              ; move X/Y to min endstops
M420 S1                                    ; enable mesh leveling
G0 Z0.15                                   ; lift nozzle a bit
G0 X2                                      ; move away from clips
G92 E0                                     ; zero the extruded length
G1 Y50 E25 F500                            ; Extrude 25mm of filament in a 5cm line.
G92 E0                                     ; zero the extruded length again
G1 E-2 F500                                ; Retract a little
G1 Y120 F4000                              ; Quickly wipe away from the filament line
G92 E0
G92 E0
G1 F1500 E-6
;LAYER_COUNT:50
;LAYER:0
M106 S76.5
M205 X10 Y10
G1 F600 Z0.375
;MESH:osram-halostar-fassungsstecker.stl
G0 F6000 X107.935 Y112.377 Z0.375
M205 X8 Y8
;TYPE:WALL-INNER
G1 F600 Z0.3
G1 F1500 E0
G1 F1200 X108.702 Y112.588 E0.03969
G1 X109.497 Y112.557 E0.07938
G1 X110.244 Y112.289 E0.11897
G1 X110.877 Y111.807 E0.15867
G1 X111.335 Y111.156 E0.19838
G1 X111.575 Y110.397 E0.23809
G1 X111.575 Y109.602 E0.27776
G1 X111.335 Y108.844 E0.31742
G1 X110.873 Y108.19 E0.35737
G1 X110.244 Y107.711 E0.39682
G1 X109.511 Y107.448 E0.43567
G1 X109.085 Y107.398 E0.45707
G1 X108.309 Y107.488 E0.49604
G1 X107.581 Y107.817 E0.5359
G1 X106.99 Y108.343 E0.57537
G1 X106.582 Y109.03 E0.61523
G1 X106.402 Y109.801 E0.65473
G1 X106.464 Y110.594 E0.69442
G1 X106.763 Y111.336 E0.73433
G1 X107.266 Y111.945 E0.77373
G1 X107.935 Y112.377 E0.81346
M205 X10 Y10
G0 F6000 X108.1 Y112.008
M205 X8 Y8
;TYPE:WALL-OUTER
G1 F1200 X108.748 Y112.186 E0.84699
G1 X109.42 Y112.16 E0.88054
G1 X110.051 Y111.933 E0.914
G1 X110.585 Y111.526 E0.9475
G1 X110.972 Y110.976 E0.98105
G1 X111.175 Y110.335 E1.01459
G1 X111.175 Y109.664 E1.04807
G1 X110.972 Y109.024 E1.08157
G1 X110.582 Y108.471 E1.11533
G1 X110.051 Y108.067 E1.14861
G1 X109.419 Y107.84 E1.18212
G1 X109.085 Y107.801 E1.19889
G1 X108.417 Y107.878 E1.23244
G1 X107.801 Y108.156 E1.26616
G1 X107.302 Y108.6 E1.29948
G1 X106.958 Y109.181 E1.33317
G1 X106.806 Y109.832 E1.36652
G1 X106.858 Y110.502 E1.40005
G1 X107.111 Y111.129 E1.43378
G1 X107.535 Y111.643 E1.46702
G1 X108.1 Y112.008 E1.50058
M205 X10 Y10
G0 F6000 X108.292 Y112.06
G0 X108.175 Y112.484
G1 F1500 E-4.49942
G1 F600 Z0.375
G0 F6000 X114.935 Y112.377 Z0.375
M205 X8 Y8
;TYPE:WALL-INNER
G1 F600 Z0.3
G1 F1500 E1.50058
G1 F1200 X115.702 Y112.588 E1.54027
G1 X116.497 Y112.557 E1.57996
G1 X117.244 Y112.289 E1.61955
G1 X117.877 Y111.807 E1.65925
G1 X118.335 Y111.156 E1.69896
G1 X118.575 Y110.397 E1.73867
G1 X118.575 Y109.602 E1.77833
G1 X118.335 Y108.844 E1.818
G1 X117.873 Y108.19 E1.85795
G1 X117.244 Y107.711 E1.89739
G1 X116.511 Y107.448 E1.93625
G1 X116.085 Y107.398 E1.95765
G1 X115.309 Y107.488 E1.99662
G1 X114.581 Y107.817 E2.03648
G1 X113.99 Y108.343 E2.07595
G1 X113.582 Y109.03 E2.11581
G1 X113.402 Y109.801 E2.15531
G1 X113.464 Y110.594 E2.195
G1 X113.763 Y111.336 E2.23491
G1 X114.266 Y111.945 E2.27431
G1 X114.935 Y112.377 E2.31404
M205 X10 Y10
G0 F6000 X115.1 Y112.008
M205 X8 Y8
;TYPE:WALL-OUTER
G1 F1200 X115.748 Y112.186 E2.34757
G1 X116.42 Y112.16 E2.38112
G1 X117.051 Y111.933 E2.41458
G1 X117.585 Y111.526 E2.44807
G1 X117.972 Y110.976 E2.48163
G1 X118.175 Y110.335 E2.51517
G1 X118.175 Y109.664 E2.54865
G1 X117.972 Y109.024 E2.58214
G1 X117.582 Y108.471 E2.6159
G1 X117.051 Y108.067 E2.64919
G1 X116.419 Y107.84 E2.68269
G1 X116.085 Y107.801 E2.69947
G1 X115.417 Y107.878 E2.73302
G1 X114.801 Y108.156 E2.76674
G1 X114.302 Y108.6 E2.80006
G1 X113.958 Y109.181 E2.83375
G1 X113.806 Y109.832 E2.8671
G1 X113.858 Y110.502 E2.90062
G1 X114.111 Y111.129 E2.93436
G1 X114.535 Y111.643 E2.9676
G1 X115.1 Y112.008 E3.00116
M205 X10 Y10
G0 F6000 X115.292 Y112.06
G0 X115.175 Y112.484
G1 F1500 E-2.99884
G1 F600 Z0.375
G0 F6000 X107.336 Y107.5 Z0.375
M205 X8 Y8
;TYPE:WALL-INNER
G1 F600 Z0.3
G1 F1500 E3.00116
G1 F1200 X106.678 Y108.085 E3.04508
G1 X106.207 Y108.879 E3.09114
G1 X106 Y109.761 E3.13634
G1 X106 Y108.879 E3.14753
G1 X106 Y107.5 E3.21633
G1 X106.812 Y107.5 E3.25684
G1 X107.336 Y107.5 E3.26655
M205 X10 Y10
G1 F1500 E-2.73345
G1 F600 Z0.375
G0 F6000 X107.389 Y112.5 Z0.375
M205 X8 Y8
G1 F600 Z0.3
G1 F1500 E3.26655
G1 F1200 X106 Y112.5 E3.33584
G1 X106 Y111.535 E3.38399
G1 X106 Y110.686 E3.42634
G1 X106 Y109.795 E3.4708
G1 X106.07 Y110.686 E3.47478
G1 X106.415 Y111.543 E3.50428
G1 X106.997 Y112.247 E3.54985
G1 X107.389 Y112.5 E3.57313
M205 X10 Y10
G1 F1500 E-2.42687
G1 F600 Z0.375
G0 F6000 X114.389 Y112.5 Z0.375
M205 X8 Y8
G1 F600 Z0.3
G1 F1500 E3.57313
G1 F1200 X111.219 Y112.5 E3.73128
G1 X110.628 Y112.5 E3.76077
G1 X111.169 Y112.088 E3.77968
G1 X111.698 Y111.336 E3.82555
G1 X111.975 Y110.459 E3.87143
G1 X111.975 Y109.54 E3.91728
G1 X111.698 Y108.664 E3.96312
G1 X111.164 Y107.909 E4.00925
G1 X110.627 Y107.5 E4.04293
G1 X111.218 Y107.5 E4.05746
G1 X113.812 Y107.5 E4.18688
G1 X114.336 Y107.5 E4.21302
G1 X113.678 Y108.085 E4.2405
G1 X113.207 Y108.879 E4.28655
G1 X112.998 Y109.77 E4.33221
G1 X113.07 Y110.686 E4.37805
G1 X113.415 Y111.543 E4.42414
G1 X113.997 Y112.247 E4.46971
G1 X114.389 Y112.5 E4.49299
M205 X10 Y10
G1 F1500 E-1.50701
G1 F600 Z0.375
G0 F6000 X119 Y112.5 Z0.375
M205 X8 Y8
G1 F600 Z0.3
G1 F1500 E4.49299
G1 F1200 X118.219 Y112.5 E4.53196
G1 X117.628 Y112.5 E4.56144
G1 X118.169 Y112.088 E4.58035
G1 X118.698 Y111.336 E4.62622
G1 X118.975 Y110.459 E4.6721
G1 X118.975 Y109.54 E4.71795
G1 X118.698 Y108.664 E4.76379
G1 X118.164 Y107.909 E4.80993
G1 X117.627 Y107.5 E4.8436
G1 X118.218 Y107.5 E4.85813
G1 X119 Y107.5 E4.89715
G1 X119 Y108.664 E4.95522
G1 X119 Y109.54 E4.97282
G1 X119 Y110.459 E4.97569
G1 X119 Y111.336 E4.99331
G1 X119 Y112.5 E5.05138
M205 X10 Y10
G0 F6000 X119.4 Y112.9
M205 X8 Y8
G1 F1200 X116.497 Y112.9 E5.19622
G1 X115.702 Y112.9 E5.22877
G1 X109.497 Y112.9 E5.53834
G1 X108.702 Y112.9 E5.5709
G1 X105.6 Y112.9 E5.72565
G1 X105.6 Y107.1 E6.01502
G1 X108.309 Y107.1 E6.15017
G1 X109.085 Y107.1 E6.18344
G1 X109.511 Y107.1 E6.20064
G1 X115.309 Y107.1 E6.48991
G1 X116.085 Y107.1 E6.52318
G1 X116.511 Y107.1 E6.54038
G1 X119.4 Y107.1 E6.68452
G1 X119.4 Y112.9 E6.97388
M205 X10 Y10
G0 F6000 X119.8 Y113.3
M205 X8 Y8
;TYPE:WALL-OUTER
G1 F1200 X105.2 Y113.3 E7.70228
G1 X105.2 Y106.7 E8.03155
G1 X119.8 Y106.7 E8.75995
G1 X119.8 Y113.3 E9.08922
M205 X10 Y10
G0 F6000 X119.6 Y113.3
G0 X119.36 Y112.86
G0 X118.356 Y112.133
M205 X8 Y8
;TYPE:SKIN
G1 F1200 X118.542 Y112.319 E9.10235
M205 X10 Y10
G0 F6000 X118.819 Y112.031
M205 X8 Y8
G1 F1200 X118.589 Y111.801 E9.11857
M205 X10 Y10
G1 F1500 E3.11857
G1 F600 Z0.375
G0 F6000 X118.819 Y108.071 Z0.375
M205 X8 Y8
G1 F600 Z0.3
G1 F1500 E9.11857
G1 F1200 X118.428 Y107.68 E9.14616
M205 X10 Y10
G1 F1500 E3.14616
G1 F600 Z0.375
G0 F6000 X113.341 Y107.89 Z0.375
M205 X8 Y8
G1 F600 Z0.3
G1 F1500 E9.14616
G1 F1200 X112.841 Y108.731 E9.19497
G1 X112.604 Y109.74 E9.24668
G1 X112.686 Y110.776 E9.29853
G1 X113.076 Y111.744 E9.3506
G1 X113.379 Y112.11 E9.3743
G1 X111.63 Y112.11 E9.46156
G1 X112.051 Y111.511 E9.49809
G1 X112.365 Y110.519 E9.55
G1 X112.365 Y109.48 E9.60183
G1 X112.051 Y108.489 E9.6537
G1 X111.628 Y107.89 E9.69028
G1 X113.341 Y107.89 E9.77574
M205 X10 Y10
G0 F6000 X112.864 Y108.338
M205 X8 Y8
G1 F1200 X112.595 Y108.069 E9.79472
M205 X10 Y10
G0 F6000 X112.029 Y108.069
M205 X8 Y8
G1 F1200 X112.661 Y108.702 E9.83935
M205 X10 Y10
G0 F6000 X112.404 Y109.01
M205 X8 Y8
G1 F1200 X112.554 Y109.16 E9.84993
M205 X10 Y10
G1 F1500 E3.84993
G1 F600 Z0.375
G0 F6000 X112.335 Y111.203 Z0.375
M205 X8 Y8
G1 F600 Z0.3
G1 F1500 E9.84993
G1 F1200 X112.885 Y111.753 E9.88874
M205 X10 Y10
G0 F6000 X112.495 Y111.93
M205 X8 Y8
G1 F1200 X112.19 Y111.624 E9.91029
M205 X10 Y10
G1 F1500 E3.91029
G1 F600 Z0.375
G0 F6000 X106.179 Y111.836 Z0.375
M205 X8 Y8
G1 F600 Z0.3
G1 F1500 E9.91029
G1 F1200 X106.662 Y112.318 E9.94434
M205 X10 Y10
G1 F1500 E3.94434
G1 F600 Z0.375
G0 F6000 X106.438 Y108.135 Z0.375
M205 X8 Y8
G1 F600 Z0.3
G1 F1500 E9.94434
G1 F1200 X106.179 Y107.876 E9.96261
M205 X10 Y10
G0 F6000 X106.548 Y107.679
M205 X8 Y8
G1 F1200 X106.695 Y107.826 E9.97298
M205 X10 Y10
G1 F1500 E3.97298
G1 F600 Z0.375
;MESH:NONMESH
G0 F6000 X107.935 Y112.377 Z0.375
;TIME_ELAPSED:16.943200
;LAYER:1
M106 S127.5
;MESH:osram-halostar-fassungsstecker.stl
G0 X107.935 Y112.377 Z0.575
M205 X8 Y8
;TYPE:WALL-INNER
G1 F600 Z0.5
G1 F1500 E9.97298
G1 F1350 X108.702 Y112.588 E9.99944
G1 X109.497 Y112.557 E10.0259
G1 X110.244 Y112.289 E10.0523
G1 X110.877 Y111.807 E10.07876
G1 X111.335 Y111.156 E10.10523
G1 X111.575 Y110.398 E10.13168
G1 X111.575 Y109.602 E10.15815
G1 X111.335 Y108.844 E10.1846
G1 X110.877 Y108.193 E10.21107
G1 X110.244 Y107.711 E10.23754
G1 X109.511 Y107.448 E10.26344
G1 X109.085 Y107.398 E10.2777
G1 X108.309 Y107.488 E10.30369
G1 X107.573 Y107.821 E10.33055
G1 X106.99 Y108.343 E10.35658
G1 X106.584 Y109.026 E10.38301
G1 X106.402 Y109.801 E10.40949
G1 X106.464 Y110.594 E10.43594
G1 X106.761 Y111.332 E10.4624
G1 X107.266 Y111.945 E10.48882
G1 X107.935 Y112.377 E10.51531
M205 X10 Y10
G0 F6000 X108.1 Y112.008
M205 X8 Y8
;TYPE:WALL-OUTER
G1 F1350 X108.748 Y112.186 E10.53766
G1 X109.42 Y112.16 E10.56002
G1 X110.051 Y111.933 E10.58233
G1 X110.585 Y111.526 E10.60466
G1 X110.972 Y110.976 E10.62703
G1 X111.175 Y110.336 E10.64936
G1 X111.175 Y109.664 E10.67171
G1 X110.972 Y109.024 E10.69404
G1 X110.585 Y108.474 E10.71641
G1 X110.051 Y108.067 E10.73874
G1 X109.419 Y107.84 E10.76108
G1 X109.085 Y107.801 E10.77226
G1 X108.417 Y107.878 E10.79462
G1 X107.794 Y108.16 E10.81737
G1 X107.302 Y108.6 E10.83932
G1 X106.959 Y109.177 E10.86165
G1 X106.806 Y109.832 E10.88402
G1 X106.858 Y110.502 E10.90637
G1 X107.109 Y111.125 E10.92871
G1 X107.535 Y111.643 E10.95102
G1 X108.1 Y112.008 E10.97339
M205 X10 Y10
G0 F6000 X108.292 Y112.06
G0 X108.175 Y112.484
G1 F1500 E4.97339
G1 F600 Z0.575
G0 F6000 X114.935 Y112.377 Z0.575
M205 X8 Y8
;TYPE:WALL-INNER
G1 F600 Z0.5
G1 F1500 E10.97339
G1 F1350 X115.702 Y112.588 E10.99985
G1 X116.497 Y112.557 E11.02631
G1 X117.244 Y112.289 E11.05271
G1 X117.877 Y111.807 E11.07917
G1 X118.335 Y111.156 E11.10564
G1 X118.575 Y110.398 E11.13209
G1 X118.575 Y109.602 E11.15856
G1 X118.335 Y108.844 E11.18501
G1 X117.877 Y108.193 E11.21148
G1 X117.244 Y107.711 E11.23794
G1 X116.511 Y107.448 E11.26385
G1 X116.085 Y107.398 E11.27811
G1 X115.309 Y107.488 E11.30409
G1 X114.573 Y107.821 E11.33096
G1 X113.99 Y108.343 E11.35699
G1 X113.584 Y109.026 E11.38342
G1 X113.402 Y109.801 E11.4099
G1 X113.464 Y110.594 E11.43635
G1 X113.761 Y111.332 E11.46281
G1 X114.266 Y111.945 E11.48923
G1 X114.935 Y112.377 E11.51571
M205 X10 Y10
G0 F6000 X115.1 Y112.008
M205 X8 Y8
;TYPE:WALL-OUTER
G1 F1350 X115.748 Y112.186 E11.53806
G1 X116.42 Y112.16 E11.56043
G1 X117.051 Y111.933 E11.58274
G1 X117.585 Y111.526 E11.60507
G1 X117.972 Y110.976 E11.62743
G1 X118.175 Y110.336 E11.64977
G1 X118.175 Y109.664 E11.67212
G1 X117.972 Y109.024 E11.69445
G1 X117.585 Y108.474 E11.71682
G1 X117.051 Y108.067 E11.73915
G1 X116.419 Y107.84 E11.76148
G1 X116.085 Y107.801 E11.77267
G1 X115.417 Y107.878 E11.79503
G1 X114.794 Y108.16 E11.81778
G1 X114.302 Y108.6 E11.83973
G1 X113.959 Y109.177 E11.86206
G1 X113.806 Y109.832 E11.88443
G1 X113.858 Y110.502 E11.90678
G1 X114.109 Y111.125 E11.92912
G1 X114.535 Y111.643 E11.95143
G1 X115.1 Y112.008 E11.9738
M205 X10 Y10
G0 F6000 X115.292 Y112.06
G0 X115.175 Y112.484
G1 F1500 E5.9738
G1 F600 Z0.575
G0 F6000 X107.332 Y107.5 Z0.575
M205 X8 Y8
;TYPE:WALL-INNER
G1 F600 Z0.5
G1 F1500 E11.9738
G1 F1350 X106.677 Y108.086 E12.00303
G1 X106.209 Y108.875 E12.03354
G1 X106 Y109.762 E12.06385
G1 X106 Y108.875 E12.07143
G1 X106 Y107.5 E12.11716
G1 X106.81 Y107.5 E12.1441
G1 X107.332 Y107.5 E12.15054
M205 X10 Y10
G1 F1500 E6.15054
G1 F600 Z0.575
G0 F6000 X107.389 Y112.5 Z0.575
M205 X8 Y8
G1 F600 Z0.5
G1 F1500 E12.15054
G1 F1350 X106 Y112.5 E12.19674
G1 X106 Y111.536 E12.2288
G1 X106 Y110.686 E12.25707
G1 X106 Y109.795 E12.28671
G1 X106.07 Y110.686 E12.28936
G1 X106.413 Y111.539 E12.30888
G1 X106.997 Y112.247 E12.33941
G1 X107.389 Y112.5 E12.35492
M205 X10 Y10
G1 F1500 E6.35492
G1 F600 Z0.575
G0 F6000 X114.389 Y112.5 Z0.575
M205 X8 Y8
G1 F600 Z0.5
G1 F1500 E12.35492
G1 F1350 X111.219 Y112.5 E12.46036
G1 X110.628 Y112.5 E12.48002
G1 X111.169 Y112.088 E12.49262
G1 X111.698 Y111.336 E12.5232
G1 X111.975 Y110.46 E12.55376
G1 X111.975 Y109.54 E12.58436
G1 X111.698 Y108.664 E12.61492
G1 X111.169 Y107.912 E12.6455
G1 X110.628 Y107.5 E12.66811
G1 X111.219 Y107.5 E12.67776
G1 X113.81 Y107.5 E12.76394
G1 X114.332 Y107.5 E12.7813
G1 X113.677 Y108.086 E12.79959
G1 X113.209 Y108.875 E12.83011
G1 X112.998 Y109.77 E12.86069
G1 X113.07 Y110.686 E12.89125
G1 X113.413 Y111.539 E12.92183
G1 X113.997 Y112.247 E12.95235
G1 X114.389 Y112.5 E12.96787
M205 X10 Y10
G1 F1500 E6.96787
G1 F600 Z0.575
G0 F6000 X119 Y112.5 Z0.575
M205 X8 Y8
G1 F600 Z0.5
G1 F1500 E12.96787
G1 F1350 X118.219 Y112.5 E12.99385
G1 X117.628 Y112.5 E13.0135
G1 X118.169 Y112.088 E13.02611
G1 X118.698 Y111.336 E13.05669
G1 X118.975 Y110.46 E13.08725
G1 X118.975 Y109.54 E13.11785
G1 X118.698 Y108.664 E13.14841
G1 X118.169 Y107.912 E13.17899
G1 X117.628 Y107.5 E13.2016
G1 X118.219 Y107.5 E13.21125
G1 X119 Y107.5 E13.23722
G1 X119 Y108.664 E13.27594
G1 X119 Y109.54 E13.28767
G1 X119 Y110.46 E13.28959
G1 X119 Y111.336 E13.30132
G1 X119 Y112.5 E13.34004
M205 X10 Y10
G0 F6000 X119.4 Y112.9
M205 X8 Y8
G1 F1350 X116.497 Y112.9 E13.43659
G1 X115.702 Y112.9 E13.4583
G1 X109.497 Y112.9 E13.66467
G1 X108.702 Y112.9 E13.68638
G1 X105.6 Y112.9 E13.78955
G1 X105.6 Y107.1 E13.98246
G1 X108.309 Y107.1 E14.07256
G1 X109.085 Y107.1 E14.09474
G1 X109.511 Y107.1 E14.10621
G1 X115.309 Y107.1 E14.29905
G1 X116.085 Y107.1 E14.32124
G1 X116.511 Y107.1 E14.3327
G1 X119.4 Y107.1 E14.42879
G1 X119.4 Y112.9 E14.6217
M205 X10 Y10
G0 F6000 X119.8 Y113.3
M205 X8 Y8
;TYPE:WALL-OUTER
G1 F1350 X105.2 Y113.3 E15.1073
G1 X105.2 Y106.7 E15.32681
G1 X119.8 Y106.7 E15.81241
G1 X119.8 Y113.3 E16.03193
M205 X10 Y10
G0 F6000 X119.6 Y113.3
G0 X119.36 Y112.86
G0 X118.819 Y111.98
M205 X8 Y8
;TYPE:SKIN
G1 F1350 X118.479 Y112.319 E16.0479
M205 X10 Y10
G1 F1500 E10.0479
G1 F600 Z0.575
G0 F6000 X118.611 Y108.228 Z0.575
M205 X8 Y8
G1 F600 Z0.5
G1 F1500 E16.0479
G1 F1350 X118.819 Y108.02 E16.05768
M205 X10 Y10
G0 F6000 X118.594 Y107.679
M205 X8 Y8
G1 F1350 X118.377 Y107.896 E16.06789
M205 X10 Y10
G1 F1500 E10.06789
G1 F600 Z0.575
G0 F6000 X113.34 Y107.89 Z0.575
M205 X8 Y8
G1 F600 Z0.5
G1 F1500 E16.06789
G1 F1350 X112.843 Y108.727 E16.10027
G1 X112.604 Y109.74 E16.13488
G1 X112.686 Y110.776 E16.16945
G1 X113.074 Y111.74 E16.20401
G1 X113.378 Y112.11 E16.21994
G1 X111.63 Y112.11 E16.27808
G1 X112.051 Y111.511 E16.30243
G1 X112.365 Y110.52 E16.337
G1 X112.365 Y109.48 E16.3716
G1 X112.051 Y108.489 E16.40617
G1 X111.63 Y107.89 E16.43052
G1 X113.34 Y107.89 E16.4874
M205 X10 Y10
G0 F6000 X112.212 Y108.405
M205 X8 Y8
G1 F1350 X112.547 Y108.069 E16.50318
M205 X10 Y10
G0 F6000 X112.889 Y108.293
M205 X8 Y8
G1 F1350 X112.348 Y108.834 E16.52862
M205 X10 Y10
G0 F6000 X112.543 Y109.204
M205 X8 Y8
G1 F1350 X112.485 Y109.263 E16.53138
M205 X10 Y10
G1 F1500 E10.53138
G1 F600 Z0.575
G0 F6000 X112.542 Y110.903 Z0.575
M205 X8 Y8
G1 F600 Z0.5
G1 F1500 E16.53138
G1 F1350 X112.38 Y111.065 E16.539
M205 X10 Y10
G0 F6000 X112.705 Y111.306
M205 X8 Y8
G1 F1350 X112.081 Y111.93 E16.56835
M205 X10 Y10
G0 F6000 X112.647 Y111.93
