;FLAVOR:Marlin
;TIME:7284
;Filament used: 5.10669m
;Layer height: 0.2
;MINX:79.7
;MINY:77.2
;MINZ:0.3
;MAXX:145.3
;MAXY:143.757
;MAXZ:30.1
;Generated with Cura_SteamEngine 4.13.1
M140 S60
M105
M190 S60
M104 S200
M105
M109 S200
M82 ;absolute extrusion mode
G21                                        ; metric values
G90                                        ; absolute positioning
M82                                        ; set extruder to absolute mode
M107                                       ; start with the fan off
M190 S60                                   ; preheat and wait for bed
M109 S210                                  ; preheat and wait for hotend
M300 S1000 P500                            ; BEEP heating done
G28 X0 Y10 Z0                              ; move X/Y to min endstops
M420 S1                                    ; enable mesh leveling
G0 Z0.15                                   ; lift nozzle a bit
G0 X2                                      ; move away from clips
G92 E0                                     ; zero the extruded length
G1 Y50 E25 F500                            ; Extrude 25mm of filament in a 5cm line.
G92 E0                                     ; zero the extruded length again
G1 E-2 F500                                ; Retract a little
G1 Y120 F4000                              ; Quickly wipe away from the filament line
G92 E0
G92 E0
G1 F1500 E-6
;LAYER_COUNT:150
;LAYER:0
M106 S76.5
M205 X10 Y10
G1 F600 Z0.375
G0 F6000 X119.496 Y125.482 Z0.375
M205 X8 Y8
;TYPE:SKIRT
G1 F600 Z0.3
G1 F1500 E0
G1 F1200 X119.686 Y125.344 E0.01172
G1 X119.914 Y125.344 E0.02309
G1 X120.104 Y125.482 E0.03481
G1 X120.175 Y125.7 E0.04624
G1 X120.104 Y125.918 E0.05768
G1 X119.914 Y126.056 E0.0694
G1 X119.686 Y126.056 E0.08077
G1 X119.496 Y125.918 E0.09249
G1 X119.425 Y125.7 E0.10393
G1 X119.496 Y125.482 E0.11537
M205 X10 Y10
G0 F6000 X119.156 Y125.234
M205 X8 Y8
G1 F1200 X119.555 Y124.944 E0.13997
G1 X120.045 Y124.944 E0.16442
G1 X120.444 Y125.234 E0.18903
G1 X120.595 Y125.7 E0.21347
G1 X120.444 Y126.166 E0.23791
G1 X120.045 Y126.456 E0.26252
G1 X119.555 Y126.456 E0.28696
G1 X119.156 Y126.166 E0.31157
G1 X119.005 Y125.7 E0.33601
G1 X119.156 Y125.234 E0.36045
M205 X10 Y10
G0 F6000 X118.816 Y124.988
M205 X8 Y8
G1 F1200 X119.426 Y124.544 E0.39809
G1 X120.174 Y124.544 E0.43541
G1 X120.784 Y124.988 E0.47305
G1 X121.016 Y125.7 E0.51041
G1 X120.784 Y126.412 E0.54777
G1 X120.174 Y126.856 E0.58541
G1 X119.426 Y126.856 E0.62273
G1 X118.816 Y126.412 E0.66037
G1 X118.584 Y125.7 E0.69773
G1 X118.816 Y124.988 E0.73509
M205 X10 Y10
G0 F6000 X118.475 Y124.74
M205 X8 Y8
G1 F1200 X119.295 Y124.144 E0.78566
G1 X120.305 Y124.144 E0.83605
G1 X121.125 Y124.74 E0.88663
G1 X121.437 Y125.7 E0.93699
G1 X121.125 Y126.66 E0.98735
G1 X120.305 Y127.256 E1.03792
G1 X119.295 Y127.256 E1.08831
G1 X118.475 Y126.66 E1.13889
G1 X118.163 Y125.7 E1.18925
G1 X118.475 Y124.74 E1.23961
M205 X10 Y10
G0 F6000 X118.135 Y124.493
M205 X8 Y8
G1 F1200 X119.165 Y123.744 E1.30314
G1 X120.435 Y123.744 E1.3665
G1 X121.465 Y124.493 E1.43004
G1 X121.857 Y125.7 E1.49335
G1 X121.465 Y126.907 E1.55667
G1 X120.435 Y127.656 E1.62021
G1 X119.165 Y127.656 E1.68357
G1 X118.135 Y126.907 E1.7471
G1 X117.743 Y125.7 E1.81042
G1 X118.135 Y124.493 E1.87373
M205 X10 Y10
G0 F6000 X117.796 Y124.245
M205 X8 Y8
G1 F1200 X119.035 Y123.344 E1.95016
G1 X120.565 Y123.344 E2.02649
G1 X121.804 Y124.245 E2.10292
G1 X122.277 Y125.7 E2.17925
G1 X121.804 Y127.155 E2.25558
G1 X120.565 Y128.056 E2.33201
G1 X119.035 Y128.056 E2.40834
G1 X117.796 Y127.155 E2.48477
G1 X117.323 Y125.7 E2.5611
G1 X117.796 Y124.245 E2.63743
M205 X10 Y10
G0 F6000 X117.455 Y123.999
M205 X8 Y8
G1 F1200 X118.906 Y122.944 E2.72694
G1 X120.694 Y122.944 E2.81614
G1 X122.145 Y123.999 E2.90564
G1 X122.699 Y125.7 E2.99489
G1 X122.145 Y127.401 E3.08414
G1 X120.694 Y128.456 E3.17365
G1 X118.906 Y128.456 E3.26285
G1 X117.455 Y127.401 E3.35235
G1 X116.901 Y125.7 E3.4416
G1 X117.455 Y123.999 E3.53086
M205 X10 Y10
G1 F1500 E-2.46914
G1 F600 Z0.375
;MESH:flaschenhalter-quadratisch-test.stl
G0 F6000 X81.5 Y88 Z0.375
M205 X8 Y8
;TYPE:WALL-INNER
G1 F600 Z0.3
G1 F1500 E3.53086
G1 F1200 X81.5 Y107 E4.47877
G1 X110.5 Y107 E5.92558
G1 X110.5 Y88 E6.8735
G1 X81.5 Y88 E8.32031
M205 X10 Y10
G0 F6000 X81.9 Y88.4
M205 X8 Y8
G1 F1200 X81.9 Y106.6 E9.22832
G1 X110.1 Y106.6 E10.63522
G1 X110.1 Y88.4 E11.54322
G1 X81.9 Y88.4 E12.95013
M205 X10 Y10
G0 F6000 X82.3 Y88.8
M205 X8 Y8
;TYPE:WALL-OUTER
G1 F1200 X82.3 Y106.2 E13.81821
G1 X109.7 Y106.2 E15.18521
G1 X109.7 Y88.8 E16.0533
G1 X82.3 Y88.8 E17.42029
M205 X10 Y10
G0 F6000 X82.3 Y89
G0 X81.86 Y89
G1 F1500 E11.42029
G1 F600 Z0.375
G0 F6000 X81.5 Y112 Z0.375
M205 X8 Y8
;TYPE:WALL-INNER
G1 F600 Z0.3
G1 F1500 E17.42029
G1 F1200 X81.5 Y131 E18.3682
G1 X110.5 Y131 E19.81502
G1 X110.5 Y112 E20.76293
G1 X81.5 Y112 E22.20975
M205 X10 Y10
G0 F6000 X81.9 Y112.4
M205 X8 Y8
G1 F1200 X81.9 Y130.6 E23.11775
G1 X110.1 Y130.6 E24.52465
G1 X110.1 Y112.4 E25.43265
G1 X81.9 Y112.4 E26.83956
M205 X10 Y10
G0 F6000 X82.3 Y112.8
M205 X8 Y8
;TYPE:WALL-OUTER
G1 F1200 X82.3 Y130.2 E27.70765
G1 X109.7 Y130.2 E29.07464
G1 X109.7 Y112.8 E29.94273
G1 X82.3 Y112.8 E31.30972
M205 X10 Y10
G0 F6000 X82.3 Y113
G0 X81.86 Y113
G1 F1500 E25.30972
G1 F600 Z0.375
G0 F6000 X114.5 Y112 Z0.375
M205 X8 Y8
;TYPE:WALL-INNER
G1 F600 Z0.3
G1 F1500 E31.30972
G1 F1200 X114.5 Y131 E32.25763
G1 X143.5 Y131 E33.70445
G1 X143.5 Y112 E34.65236
G1 X114.5 Y112 E36.09918
M205 X10 Y10
G0 F6000 X114.9 Y112.4
M205 X8 Y8
G1 F1200 X114.9 Y130.6 E37.00718
G1 X143.1 Y130.6 E38.41408
G1 X143.1 Y112.4 E39.32209
G1 X114.9 Y112.4 E40.72899
M205 X10 Y10
G0 F6000 X115.3 Y112.8
M205 X8 Y8
;TYPE:WALL-OUTER
G1 F1200 X115.3 Y130.2 E41.59708
G1 X142.7 Y130.2 E42.96407
G1 X142.7 Y112.8 E43.83216
G1 X115.3 Y112.8 E45.19915
M205 X10 Y10
G0 F6000 X115.3 Y113
G0 X114.86 Y113
G1 F1500 E39.19915
G1 F600 Z0.375
G0 F6000 X114.5 Y88 Z0.375
M205 X8 Y8
;TYPE:WALL-INNER
G1 F600 Z0.3
G1 F1500 E45.19915
G1 F1200 X114.5 Y107 E46.14707
G1 X143.5 Y107 E47.59388
G1 X143.5 Y88 E48.5418
G1 X114.5 Y88 E49.98861
M205 X10 Y10
G0 F6000 X114.9 Y88.4
M205 X8 Y8
G1 F1200 X114.9 Y106.6 E50.89661
G1 X143.1 Y106.6 E52.30352
G1 X143.1 Y88.4 E53.21152
G1 X114.9 Y88.4 E54.61842
M205 X10 Y10
G0 F6000 X115.3 Y88.8
M205 X8 Y8
;TYPE:WALL-OUTER
G1 F1200 X115.3 Y106.2 E55.48651
G1 X142.7 Y106.2 E56.8535
G1 X142.7 Y88.8 E57.72159
G1 X115.3 Y88.8 E59.08858
M205 X10 Y10
G0 F6000 X115.3 Y89
G0 X114.86 Y89
G1 F1500 E53.08858
G1 F600 Z0.375
G0 F6000 X119 Y81 Z0.375
M205 X8 Y8
;TYPE:WALL-INNER
G1 F600 Z0.3
G1 F1500 E59.08858
G1 F1200 X144.5 Y81 E60.36078
G1 X144.5 Y142 E63.40409
G1 X80.5 Y142 E66.59706
G1 X80.5 Y81 E69.64036
G1 X106 Y81 E70.91256
G1 X106 Y78 E71.06223
G1 X119 Y78 E71.71081
G1 X119 Y81 E71.86048
M205 X10 Y10
G0 F6000 X119.4 Y80.6
M205 X8 Y8
G1 F1200 X144.9 Y80.6 E73.13268
G1 X144.9 Y142.4 E76.21589
G1 X80.1 Y142.4 E79.44878
G1 X80.1 Y80.6 E82.53199
G1 X105.6 Y80.6 E83.80419
G1 X105.6 Y77.6 E83.95386
G1 X119.4 Y77.6 E84.64235
G1 X119.4 Y80.6 E84.79202
M205 X10 Y10
G0 F6000 X119.8 Y80.2
M205 X8 Y8
;TYPE:WALL-OUTER
G1 F1200 X145.3 Y80.2 E86.06422
G1 X145.3 Y142.8 E89.18734
G1 X79.7 Y142.8 E92.46014
G1 X79.7 Y80.2 E95.58327
G1 X105.2 Y80.2 E96.85547
G1 X105.2 Y77.2 E97.00514
G1 X119.8 Y77.2 E97.73354
G1 X119.8 Y80.2 E97.88321
M205 X10 Y10
G0 F6000 X120 Y80.2
G0 X120 Y80.64
G1 F1500 E91.88321
G1 F600 Z0.375
G0 F6000 X118.61 Y81.39 Z0.375
M205 X8 Y8
;TYPE:SKIN
G1 F600 Z0.3
G1 F1500 E97.88321
G1 F1200 X144.11 Y81.39 E99.15541
G1 X144.11 Y141.61 E102.15979
G1 X80.89 Y141.61 E105.31385
G1 X80.89 Y81.39 E108.31824
G1 X106.39 Y81.39 E109.59044
G1 X106.39 Y78.39 E109.74011
G1 X118.61 Y78.39 E110.34977
G1 X118.61 Y81.39 E110.49944
M205 X10 Y10
G1 F1500 E104.49944
G1 F600 Z0.375
G0 F6000 X114.11 Y87.61 Z0.375
M205 X8 Y8
G1 F600 Z0.3
G1 F1500 E110.49944
G1 F1200 X114.11 Y107.39 E111.48627
G1 X143.89 Y107.39 E112.972
G1 X143.89 Y87.61 E113.95883
G1 X114.11 Y87.61 E115.44456
M205 X10 Y10
G1 F1500 E109.44456
G1 F600 Z0.375
G0 F6000 X110.89 Y87.61 Z0.375
M205 X8 Y8
G1 F600 Z0.3
G1 F1500 E115.44456
G1 F1200 X81.11 Y87.61 E116.93029
G1 X81.11 Y107.39 E117.91712
G1 X110.89 Y107.39 E119.40285
G1 X110.89 Y87.61 E120.38967
M205 X10 Y10
G1 F1500 E114.38967
G1 F600 Z0.375
G0 F6000 X110.89 Y111.61 Z0.375
M205 X8 Y8
G1 F600 Z0.3
G1 F1500 E120.38967
G1 F1200 X81.11 Y111.61 E121.8754
G1 X81.11 Y131.39 E122.86223
G1 X110.89 Y131.39 E124.34796
G1 X110.89 Y111.61 E125.33479
M205 X10 Y10
G1 F1500 E119.33479
G1 F600 Z0.375
G0 F6000 X114.11 Y111.61 Z0.375
M205 X8 Y8
G1 F600 Z0.3
G1 F1500 E125.33479
G1 F1200 X114.11 Y131.39 E126.32162
G1 X143.89 Y131.39 E127.80735
G1 X143.89 Y111.61 E128.79418
G1 X114.11 Y111.61 E130.27991
M205 X10 Y10
G1 F1500 E124.27991
G1 F600 Z0.375
G0 F6000 X143.929 Y81.704 Z0.375
M205 X8 Y8
G1 F600 Z0.3
G1 F1500 E130.27991
G1 F1200 X143.795 Y81.57 E130.28936
M205 X10 Y10
G0 F6000 X143.23 Y81.57
M205 X8 Y8
G1 F1200 X143.929 Y82.269 E130.33868
M205 X10 Y10
G0 F6000 X143.929 Y82.835
M205 X8 Y8
G1 F1200 X142.664 Y81.57 E130.42793
M205 X10 Y10
G0 F6000 X142.098 Y81.57
M205 X8 Y8
G1 F1200 X143.929 Y83.401 E130.55712
M205 X10 Y10
G0 F6000 X143.929 Y83.966
M205 X8 Y8
G1 F1200 X141.533 Y81.57 E130.72617
M205 X10 Y10
G0 F6000 X140.967 Y81.57
M205 X8 Y8
G1 F1200 X143.929 Y84.532 E130.93516
M205 X10 Y10
G0 F6000 X143.929 Y85.098
M205 X8 Y8
G1 F1200 X140.401 Y81.57 E131.18408
M205 X10 Y10
G0 F6000 X139.836 Y81.57
M205 X8 Y8
G1 F1200 X143.929 Y85.663 E131.47286
M205 X10 Y10
G0 F6000 X143.929 Y86.229
M205 X8 Y8
G1 F1200 X139.27 Y81.57 E131.80158
M205 X10 Y10
G0 F6000 X138.704 Y81.57
M205 X8 Y8
G1 F1200 X143.929 Y86.795 E132.17023
M205 X10 Y10
G0 F6000 X143.929 Y87.36
M205 X8 Y8
G1 F1200 X138.138 Y81.57 E132.57878
M205 X10 Y10
G0 F6000 X137.573 Y81.57
M205 X8 Y8
G1 F1200 X143.433 Y87.43 E132.99223
M205 X10 Y10
G0 F6000 X142.867 Y87.43
M205 X8 Y8
G1 F1200 X137.007 Y81.57 E133.40569
M205 X10 Y10
G0 F6000 X136.441 Y81.57
M205 X8 Y8
G1 F1200 X142.301 Y87.43 E133.81914
M205 X10 Y10
G0 F6000 X141.736 Y87.43
M205 X8 Y8
G1 F1200 X135.876 Y81.57 E134.2326
M205 X10 Y10
G0 F6000 X135.31 Y81.57
M205 X8 Y8
G1 F1200 X141.17 Y87.43 E134.64605
M205 X10 Y10
G0 F6000 X140.604 Y87.43
M205 X8 Y8
G1 F1200 X134.744 Y81.57 E135.05951
M205 X10 Y10
G0 F6000 X134.179 Y81.57
M205 X8 Y8
G1 F1200 X140.038 Y87.43 E135.47293
M205 X10 Y10
G0 F6000 X139.473 Y87.43
M205 X8 Y8
G1 F1200 X133.613 Y81.57 E135.88638
M205 X10 Y10
G0 F6000 X133.047 Y81.57
M205 X8 Y8
G1 F1200 X138.907 Y87.43 E136.29984
M205 X10 Y10
G0 F6000 X138.341 Y87.43
M205 X8 Y8
G1 F1200 X132.482 Y81.57 E136.71326
M205 X10 Y10
G0 F6000 X131.916 Y81.57
M205 X8 Y8
G1 F1200 X137.776 Y87.43 E137.12671
M205 X10 Y10
G0 F6000 X137.21 Y87.43
M205 X8 Y8
G1 F1200 X131.35 Y81.57 E137.54016
M205 X10 Y10
G0 F6000 X130.785 Y81.57
M205 X8 Y8
G1 F1200 X136.644 Y87.43 E137.95358
M205 X10 Y10
G0 F6000 X136.079 Y87.43
M205 X8 Y8
G1 F1200 X130.219 Y81.57 E138.36704
M205 X10 Y10
G0 F6000 X129.653 Y81.57
M205 X8 Y8
G1 F1200 X135.513 Y87.43 E138.78049
M205 X10 Y10
G0 F6000 X134.947 Y87.43
M205 X8 Y8
G1 F1200 X129.087 Y81.57 E139.19395
M205 X10 Y10
G0 F6000 X128.522 Y81.57
M205 X8 Y8
G1 F1200 X134.382 Y87.43 E139.6074
M205 X10 Y10
G0 F6000 X133.816 Y87.43
M205 X8 Y8
G1 F1200 X127.956 Y81.57 E140.02086
M205 X10 Y10
G0 F6000 X127.39 Y81.57
M205 X8 Y8
G1 F1200 X133.25 Y87.43 E140.43431
M205 X10 Y10
G0 F6000 X132.685 Y87.43
M205 X8 Y8
G1 F1200 X126.825 Y81.57 E140.84777
M205 X10 Y10
G0 F6000 X126.259 Y81.57
M205 X8 Y8
G1 F1200 X132.119 Y87.43 E141.26122
M205 X10 Y10
G0 F6000 X131.553 Y87.43
M205 X8 Y8
G1 F1200 X125.693 Y81.57 E141.67468
M205 X10 Y10
G0 F6000 X125.128 Y81.57
M205 X8 Y8
G1 F1200 X130.987 Y87.43 E142.0881
M205 X10 Y10
G0 F6000 X130.422 Y87.43
M205 X8 Y8
G1 F1200 X124.562 Y81.57 E142.50155
M205 X10 Y10
G0 F6000 X123.996 Y81.57
M205 X8 Y8
G1 F1200 X129.856 Y87.43 E142.915
M205 X10 Y10
G0 F6000 X129.29 Y87.43
M205 X8 Y8
G1 F1200 X123.431 Y81.57 E143.32842
M205 X10 Y10
G0 F6000 X122.865 Y81.57
M205 X8 Y8
G1 F1200 X128.725 Y87.43 E143.74188
M205 X10 Y10
G0 F6000 X128.159 Y87.43
M205 X8 Y8
G1 F1200 X122.299 Y81.57 E144.15533
M205 X10 Y10
G0 F6000 X121.734 Y81.57
M205 X8 Y8
G1 F1200 X127.593 Y87.43 E144.56875
M205 X10 Y10
G0 F6000 X127.028 Y87.43
M205 X8 Y8
G1 F1200 X121.168 Y81.57 E144.98221
M205 X10 Y10
G0 F6000 X120.602 Y81.57
M205 X8 Y8
G1 F1200 X126.462 Y87.43 E145.39566
M205 X10 Y10
G0 F6000 X125.896 Y87.43
M205 X8 Y8
G1 F1200 X120.037 Y81.57 E145.80908
M205 X10 Y10
G0 F6000 X119.471 Y81.57
M205 X8 Y8
G1 F1200 X125.331 Y87.43 E146.22254
M205 X10 Y10
G0 F6000 X124.765 Y87.43
M205 X8 Y8
G1 F1200 X118.905 Y81.57 E146.63599
M205 X10 Y10
G0 F6000 X118.429 Y81.094
M205 X8 Y8
G1 F1200 X115.905 Y78.57 E146.81407
M205 X10 Y10
G0 F6000 X115.339 Y78.57
M205 X8 Y8
G1 F1200 X124.199 Y87.43 E147.43919
M205 X10 Y10
G0 F6000 X123.634 Y87.43
M205 X8 Y8
G1 F1200 X114.774 Y78.57 E148.06431
M205 X10 Y10
G0 F6000 X114.208 Y78.57
M205 X8 Y8
G1 F1200 X123.068 Y87.43 E148.68944
M205 X10 Y10
G0 F6000 X122.502 Y87.43
M205 X8 Y8
G1 F1200 X113.642 Y78.57 E149.31456
M205 X10 Y10
G0 F6000 X113.076 Y78.57
M205 X8 Y8
G1 F1200 X121.937 Y87.43 E149.93971
M205 X10 Y10
G0 F6000 X121.371 Y87.43
M205 X8 Y8
G1 F1200 X112.511 Y78.57 E150.56483
M205 X10 Y10
G0 F6000 X111.945 Y78.57
M205 X8 Y8
G1 F1200 X120.805 Y87.43 E151.18995
M205 X10 Y10
G0 F6000 X120.239 Y87.43
M205 X8 Y8
G1 F1200 X111.379 Y78.57 E151.81507
M205 X10 Y10
G0 F6000 X110.814 Y78.57
M205 X8 Y8
G1 F1200 X119.674 Y87.43 E152.4402
M205 X10 Y10
G0 F6000 X119.108 Y87.43
M205 X8 Y8
G1 F1200 X110.248 Y78.57 E153.06532
M205 X10 Y10
G0 F6000 X109.682 Y78.57
M205 X8 Y8
G1 F1200 X118.542 Y87.43 E153.69044
M205 X10 Y10
G0 F6000 X117.977 Y87.43
M205 X8 Y8
G1 F1200 X109.117 Y78.57 E154.31556
M205 X10 Y10
G0 F6000 X108.551 Y78.57
M205 X8 Y8
G1 F1200 X117.411 Y87.43 E154.94068
M205 X10 Y10
G0 F6000 X116.845 Y87.43
M205 X8 Y8
G1 F1200 X107.985 Y78.57 E155.5658
M205 X10 Y10
G0 F6000 X107.42 Y78.57
M205 X8 Y8
G1 F1200 X116.28 Y87.43 E156.19092
M205 X10 Y10
G0 F6000 X115.714 Y87.43
M205 X8 Y8
G1 F1200 X106.854 Y78.57 E156.81604
M205 X10 Y10
G0 F6000 X106.568 Y78.85
M205 X8 Y8
G1 F1200 X115.148 Y87.43 E157.42141
M205 X10 Y10
G0 F6000 X114.583 Y87.43
M205 X8 Y8
G1 F1200 X106.568 Y79.415 E157.98691
M205 X10 Y10
G0 F6000 X106.568 Y79.981
M205 X8 Y8
G1 F1200 X114.017 Y87.43 E158.51248
M205 X10 Y10
G0 F6000 X113.929 Y87.908
M205 X8 Y8
G1 F1200 X106.568 Y80.547 E159.03183
M205 X10 Y10
G0 F6000 X106.568 Y81.112
M205 X8 Y8
G1 F1200 X113.929 Y88.473 E159.55119
M205 X10 Y10
G0 F6000 X113.929 Y89.039
M205 X8 Y8
G1 F1200 X106.46 Y81.57 E160.07817
M205 X10 Y10
G0 F6000 X105.894 Y81.57
M205 X8 Y8
G1 F1200 X113.929 Y89.605 E160.64508
M205 X10 Y10
G0 F6000 X113.929 Y90.17
M205 X8 Y8
G1 F1200 X105.329 Y81.57 E161.25186
M205 X10 Y10
G0 F6000 X104.763 Y81.57
M205 X8 Y8
G1 F1200 X110.622 Y87.429 E161.66524
M205 X10 Y10
G0 F6000 X110.056 Y87.429
M205 X8 Y8
G1 F1200 X104.197 Y81.57 E162.07863
M205 X10 Y10
G0 F6000 X103.632 Y81.57
M205 X8 Y8
G1 F1200 X109.491 Y87.429 E162.49201
M205 X10 Y10
G0 F6000 X108.925 Y87.429
M205 X8 Y8
G1 F1200 X103.066 Y81.57 E162.9054
M205 X10 Y10
G0 F6000 X102.5 Y81.57
M205 X8 Y8
G1 F1200 X108.359 Y87.429 E163.31878
M205 X10 Y10
G0 F6000 X107.794 Y87.429
M205 X8 Y8
G1 F1200 X101.935 Y81.57 E163.73216
M205 X10 Y10
G0 F6000 X101.369 Y81.57
M205 X8 Y8
G1 F1200 X107.228 Y87.429 E164.14555
M205 X10 Y10
G0 F6000 X106.662 Y87.429
M205 X8 Y8
G1 F1200 X100.803 Y81.57 E164.55893
M205 X10 Y10
G0 F6000 X100.238 Y81.57
M205 X8 Y8
G1 F1200 X106.097 Y87.429 E164.97232
M205 X10 Y10
G0 F6000 X105.531 Y87.429
M205 X8 Y8
G1 F1200 X99.672 Y81.57 E165.3857
M205 X10 Y10
G0 F6000 X99.106 Y81.57
M205 X8 Y8
G1 F1200 X104.965 Y87.429 E165.79908
M205 X10 Y10
G0 F6000 X104.4 Y87.429
M205 X8 Y8
G1 F1200 X98.54 Y81.57 E166.2125
M205 X10 Y10
G0 F6000 X97.975 Y81.57
M205 X8 Y8
G1 F1200 X103.834 Y87.429 E166.62589
M205 X10 Y10
G0 F6000 X103.268 Y87.429
M205 X8 Y8
G1 F1200 X97.409 Y81.57 E167.03927
M205 X10 Y10
G0 F6000 X96.843 Y81.57
M205 X8 Y8
G1 F1200 X102.703 Y87.429 E167.45269
M205 X10 Y10
