;FLAVOR:Marlin
;TIME:2277
;Filament used: 1.44987m
;Layer height: 0.2
;MINX:88.742
;MINY:85.468
;MINZ:0.3
;MAXX:134.951
;MAXY:134.734
;MAXZ:10.175
;Generated with Cura_SteamEngine 4.13.1
M140 S60
M105
M190 S60
M104 S200
M105
M109 S200
M82 ;absolute extrusion mode
G21                                        ; metric values
G90                                        ; absolute positioning
M82                                        ; set extruder to absolute mode
M107                                       ; start with the fan off
M190 S60                                   ; preheat and wait for bed
M109 S210                                  ; preheat and wait for hotend
M300 S1000 P500                            ; BEEP heating done
G28 X0 Y10 Z0                              ; move X/Y to min endstops
M420 S1                                    ; enable mesh leveling
G0 Z0.15                                   ; lift nozzle a bit
G0 X2                                      ; move away from clips
G92 E0                                     ; zero the extruded length
G1 Y50 E25 F500                            ; Extrude 25mm of filament in a 5cm line.
G92 E0                                     ; zero the extruded length again
G1 E-2 F500                                ; Retract a little
G1 Y120 F4000                              ; Quickly wipe away from the filament line
G92 E0
G92 E0
G1 F1500 E-6
;LAYER_COUNT:50
;LAYER:0
M106 S76.5
M205 X10 Y10
G1 F600 Z0.375
G0 F6000 X95.124 Y92.149 Z0.375
M205 X8 Y8
;TYPE:SKIRT
G1 F600 Z0.3
G1 F1500 E0
G1 F1200 X95.604 Y91.7 E0.03279
G1 X97.575 Y90.039 E0.16139
G1 X98.147 Y89.609 E0.19709
G1 X98.763 Y89.246 E0.23276
G1 X99.416 Y88.954 E0.26845
G1 X100.036 Y88.753 E0.30096
G1 X100.639 Y88.591 E0.33211
G1 X103.276 Y87.846 E0.46882
G1 X105.801 Y87.055 E0.60083
G1 X107.079 Y86.604 E0.66845
G1 X107.346 Y86.526 E0.68232
G1 X108.459 Y86.143 E0.74105
G1 X109.147 Y85.948 E0.77672
G1 X109.882 Y85.828 E0.81388
G1 X111.199 Y85.691 E0.87994
G1 X111.342 Y85.668 E0.88716
G1 X112.892 Y85.521 E0.96484
G1 X112.985 Y85.51 E0.96951
G1 X113.699 Y85.468 E1.0052
G1 X114.413 Y85.506 E1.04087
G1 X115.082 Y85.615 E1.07468
G1 X117.17 Y86.071 E1.18131
G1 X117.962 Y86.226 E1.22157
G1 X118.303 Y86.302 E1.239
G1 X118.99 Y86.502 E1.2747
G1 X119.585 Y86.747 E1.3068
G1 X120.354 Y87.111 E1.34925
G1 X120.981 Y87.428 E1.3843
G1 X121.465 Y87.7 E1.412
G1 X122.354 Y88.251 E1.46418
G1 X122.972 Y88.624 E1.50019
G1 X123.674 Y89.062 E1.54147
G1 X123.971 Y89.259 E1.55926
G1 X124.532 Y89.655 E1.59351
G1 X125.347 Y90.244 E1.64368
G1 X125.627 Y90.458 E1.66126
G1 X126.359 Y91.051 E1.70826
G1 X126.673 Y91.316 E1.72876
G1 X127.198 Y91.77 E1.76339
G1 X127.757 Y92.316 E1.80237
G1 X129.085 Y93.783 E1.9011
G1 X129.173 Y93.892 E1.90809
G1 X130.038 Y94.859 E1.97282
G1 X130.484 Y95.418 E2.00849
G1 X130.821 Y95.943 E2.03962
G1 X131.248 Y96.688 E2.08246
G1 X131.34 Y96.871 E2.09268
G1 X131.809 Y97.709 E2.14059
G1 X131.916 Y97.907 E2.15181
G1 X132.593 Y99.224 E2.22569
G1 X133.145 Y100.35 E2.28826
G1 X133.449 Y100.99 E2.32361
G1 X133.719 Y101.652 E2.35927
G1 X133.913 Y102.336 E2.39474
G1 X134.067 Y103.103 E2.43377
G1 X134.125 Y103.425 E2.4501
G1 X134.408 Y105.117 E2.53568
G1 X134.591 Y106.15 E2.58802
G1 X134.704 Y106.921 E2.6269
G1 X134.847 Y108.335 E2.6978
G1 X134.917 Y109.061 E2.73419
G1 X134.951 Y109.775 E2.76985
G1 X134.914 Y110.473 E2.80473
G1 X134.742 Y113.979 E2.97985
G1 X134.736 Y114.192 E2.99048
G1 X134.669 Y114.949 E3.0284
G1 X134.54 Y115.811 E3.07188
G1 X134.508 Y116.003 E3.08159
G1 X134.28 Y117.257 E3.14518
G1 X134.161 Y117.858 E3.17575
G1 X134.035 Y118.458 E3.20633
G1 X133.849 Y119.149 E3.24204
G1 X133.712 Y119.526 E3.26205
G1 X133.361 Y120.401 E3.30908
G1 X133.278 Y120.597 E3.3197
G1 X133.038 Y121.142 E3.34941
G1 X132.714 Y121.78 E3.38511
G1 X132.304 Y122.399 E3.42215
G1 X131.631 Y123.297 E3.47814
G1 X131.29 Y123.739 E3.50599
G1 X129.706 Y125.915 E3.64027
G1 X129.053 Y126.852 E3.69725
G1 X128.687 Y127.338 E3.7276
G1 X128.309 Y127.801 E3.75742
G1 X127.846 Y128.342 E3.79295
G1 X127.352 Y128.859 E3.82862
G1 X126.644 Y129.431 E3.87403
G1 X126.269 Y129.691 E3.8968
G1 X125.617 Y130.127 E3.93593
G1 X124.509 Y130.886 E4.00293
G1 X123.975 Y131.215 E4.03422
G1 X121.568 Y132.538 E4.17125
G1 X121.025 Y132.846 E4.2024
G1 X120.524 Y133.102 E4.23047
G1 X119.988 Y133.345 E4.25983
G1 X118.838 Y133.854 E4.32257
G1 X118.169 Y134.107 E4.35826
G1 X117.64 Y134.249 E4.38558
G1 X117.215 Y134.343 E4.4073
G1 X116.613 Y134.467 E4.43796
G1 X115.831 Y134.618 E4.4777
G1 X115.123 Y134.714 E4.51334
G1 X114.585 Y134.734 E4.5402
G1 X114.094 Y134.731 E4.5647
G1 X112.076 Y134.688 E4.6654
G1 X110.794 Y134.639 E4.72941
G1 X110.589 Y134.628 E4.73965
G1 X109.866 Y134.577 E4.77581
G1 X109.161 Y134.488 E4.81126
G1 X108.69 Y134.398 E4.83518
G1 X107.971 Y134.241 E4.8719
G1 X107.304 Y134.083 E4.9061
G1 X106.299 Y133.755 E4.95884
G1 X105.506 Y133.421 E5.00177
G1 X104.629 Y133.037 E5.04953
G1 X104.016 Y132.762 E5.08305
G1 X103.668 Y132.593 E5.10235
G1 X103.005 Y132.246 E5.13969
G1 X101.724 Y131.587 E5.21156
G1 X101.076 Y131.248 E5.24804
G1 X100.467 Y130.885 E5.28341
G1 X99.995 Y130.567 E5.31181
G1 X99.542 Y130.27 E5.33883
G1 X98.375 Y129.486 E5.40897
G1 X97.805 Y129.055 E5.44462
G1 X97.531 Y128.809 E5.46299
G1 X96.978 Y128.283 E5.50107
G1 X95.921 Y127.291 E5.57339
G1 X95.042 Y126.477 E5.63316
G1 X94.775 Y126.224 E5.65151
G1 X93.823 Y125.298 E5.71777
G1 X93.501 Y124.975 E5.74052
G1 X92.929 Y124.382 E5.78163
G1 X92.337 Y123.739 E5.82523
G1 X91.96 Y123.332 E5.85291
G1 X91.811 Y123.164 E5.86411
G1 X91.367 Y122.603 E5.89981
G1 X90.978 Y121.978 E5.93654
G1 X90.556 Y121.203 E5.98056
G1 X90.249 Y120.596 E6.0145
G1 X90.162 Y120.416 E6.02447
G1 X89.731 Y119.479 E6.07593
G1 X89.53 Y119.023 E6.10079
G1 X89.25 Y118.367 E6.13637
G1 X89.006 Y117.695 E6.17204
G1 X88.839 Y116.999 E6.20775
G1 X88.751 Y116.29 E6.24339
G1 X88.742 Y115.574 E6.27912
G1 X88.803 Y114.929 E6.31144
G1 X88.893 Y114.44 E6.33625
G1 X89.122 Y113.414 E6.38869
G1 X89.259 Y112.842 E6.41804
G1 X89.806 Y110.227 E6.55133
G1 X90.272 Y107.633 E6.68281
G1 X90.664 Y105.031 E6.81409
G1 X90.981 Y102.426 E6.94501
G1 X91.22 Y99.7 E7.08154
G1 X91.302 Y98.84 E7.12464
G1 X91.409 Y98.132 E7.16036
G1 X91.595 Y97.442 E7.19601
G1 X91.839 Y96.797 E7.23042
G1 X92.034 Y96.337 E7.25534
G1 X92.321 Y95.699 E7.29025
G1 X92.651 Y95.065 E7.3259
G1 X93.049 Y94.47 E7.36162
G1 X93.29 Y94.17 E7.38082
G1 X93.721 Y93.665 E7.41394
G1 X93.862 Y93.505 E7.42458
G1 X94.638 Y92.655 E7.482
G1 X95.124 Y92.149 E7.517
M205 X10 Y10
G0 F6000 X95.411 Y92.427
M205 X8 Y8
G1 F1200 X95.862 Y92.006 E7.54778
G1 X97.833 Y90.345 E7.67638
G1 X98.387 Y89.93 E7.71091
G1 X98.986 Y89.582 E7.74547
G1 X99.62 Y89.305 E7.77999
G1 X100.14 Y89.139 E7.80722
G1 X100.773 Y88.969 E7.83992
G1 X103.389 Y88.229 E7.97556
G1 X105.919 Y87.437 E8.10782
G1 X107.212 Y86.981 E8.17622
G1 X107.465 Y86.908 E8.18936
G1 X108.589 Y86.521 E8.24867
G1 X109.256 Y86.334 E8.28323
G1 X109.923 Y86.226 E8.31694
G1 X111.124 Y86.101 E8.37718
G1 X111.379 Y86.066 E8.39002
G1 X113.031 Y85.907 E8.47282
G1 X113.722 Y85.868 E8.50735
G1 X114.414 Y85.909 E8.54193
G1 X114.997 Y86.006 E8.57142
G1 X117.104 Y86.466 E8.67901
G1 X117.885 Y86.619 E8.71872
G1 X118.213 Y86.691 E8.73547
G1 X118.877 Y86.886 E8.77
G1 X119.415 Y87.109 E8.79905
G1 X120.173 Y87.468 E8.8409
G1 X120.8 Y87.785 E8.87595
G1 X121.254 Y88.04 E8.90193
G1 X122.142 Y88.591 E8.95406
G1 X122.76 Y88.964 E8.99008
G1 X123.462 Y89.402 E9.03136
G1 X123.741 Y89.586 E9.04803
G1 X124.297 Y89.979 E9.082
G1 X125.112 Y90.568 E9.13217
G1 X125.375 Y90.769 E9.14868
G1 X126.107 Y91.362 E9.19568
G1 X126.412 Y91.619 E9.21558
G1 X126.937 Y92.073 E9.25021
G1 X127.46 Y92.584 E9.28669
G1 X128.788 Y94.051 E9.38541
G1 X128.873 Y94.157 E9.39219
G1 X129.74 Y95.126 E9.45706
G1 X130.171 Y95.668 E9.49161
G1 X130.474 Y96.142 E9.51967
G1 X130.901 Y96.887 E9.56251
G1 X130.988 Y97.062 E9.57226
G1 X131.46 Y97.904 E9.62042
G1 X131.56 Y98.09 E9.63096
G1 X132.234 Y99.401 E9.7045
G1 X132.784 Y100.522 E9.7668
G1 X133.088 Y101.162 E9.80215
G1 X133.348 Y101.803 E9.83666
G1 X133.523 Y102.424 E9.86884
G1 X133.675 Y103.179 E9.90727
G1 X133.731 Y103.491 E9.92308
G1 X134.014 Y105.186 E10.00882
G1 X134.216 Y106.334 E10.06697
G1 X134.306 Y106.961 E10.09857
G1 X134.457 Y108.465 E10.17398
G1 X134.519 Y109.102 E10.20591
G1 X134.537 Y110.131 E10.25726
G1 X134.518 Y110.407 E10.27106
G1 X134.341 Y113.999 E10.45048
G1 X134.336 Y114.18 E10.45952
G1 X134.273 Y114.89 E10.49508
G1 X134.144 Y115.752 E10.53856
G1 X134.114 Y115.931 E10.54762
G1 X133.888 Y117.179 E10.61089
G1 X133.77 Y117.776 E10.64125
G1 X133.644 Y118.376 E10.67184
G1 X133.463 Y119.045 E10.70642
G1 X133.341 Y119.377 E10.72406
G1 X132.99 Y120.252 E10.7711
G1 X132.912 Y120.436 E10.78107
G1 X132.672 Y120.981 E10.81078
G1 X132.357 Y121.598 E10.84534
G1 X131.984 Y122.159 E10.87895
G1 X131.314 Y123.052 E10.93465
G1 X130.983 Y123.481 E10.96168
G1 X129.396 Y125.661 E11.09621
G1 X128.725 Y126.624 E11.15477
G1 X128.376 Y127.087 E11.18369
G1 X128.006 Y127.541 E11.21291
G1 X127.543 Y128.082 E11.24844
G1 X127.063 Y128.582 E11.28302
G1 X126.415 Y129.103 E11.3245
G1 X126.046 Y129.359 E11.34691
G1 X125.391 Y129.797 E11.38622
G1 X124.283 Y130.556 E11.45322
G1 X123.782 Y130.864 E11.48256
G1 X121.415 Y132.165 E11.61731
G1 X120.828 Y132.498 E11.65098
G1 X120.358 Y132.738 E11.67731
G1 X119.826 Y132.98 E11.70647
G1 X118.676 Y133.489 E11.76921
G1 X118.028 Y133.732 E11.80374
G1 X117.221 Y133.932 E11.84522
G1 X116.538 Y134.074 E11.88002
G1 X115.756 Y134.225 E11.91976
G1 X115.069 Y134.317 E11.95434
G1 X114.199 Y134.332 E11.99775
G1 X112.084 Y134.288 E12.10329
G1 X110.809 Y134.24 E12.16695
G1 X110.617 Y134.229 E12.17654
G1 X109.894 Y134.178 E12.2127
G1 X109.233 Y134.094 E12.24594
G1 X108.775 Y134.007 E12.2692
G1 X108.063 Y133.851 E12.30557
G1 X107.396 Y133.693 E12.33976
G1 X106.454 Y133.386 E12.38919
G1 X105.666 Y133.054 E12.43185
G1 X104.793 Y132.672 E12.4794
G1 X104.18 Y132.397 E12.51291
G1 X103.853 Y132.239 E12.53103
G1 X103.15 Y131.871 E12.57062
G1 X101.91 Y131.232 E12.64022
G1 X101.262 Y130.893 E12.6767
G1 X100.691 Y130.553 E12.70986
G1 X100.286 Y130.28 E12.73422
G1 X99.765 Y129.938 E12.76532
G1 X98.598 Y129.154 E12.83546
G1 X97.806 Y128.519 E12.8861
G1 X97.22 Y127.961 E12.92647
G1 X96.195 Y126.999 E12.9966
G1 X95.316 Y126.186 E13.05634
G1 X95.053 Y125.937 E13.07441
G1 X94.042 Y124.953 E13.14479
G1 X93.788 Y124.697 E13.16278
G1 X93.327 Y124.221 E13.19584
G1 X93.223 Y124.111 E13.2034
G1 X92.631 Y123.468 E13.247
G1 X92.259 Y123.066 E13.27433
G1 X92.11 Y122.898 E13.28553
G1 X91.681 Y122.354 E13.32009
G1 X91.33 Y121.786 E13.35341
G1 X90.908 Y121.011 E13.39743
G1 X90.606 Y120.417 E13.43068
G1 X90.525 Y120.248 E13.44003
G1 X90.096 Y119.317 E13.49117
G1 X89.898 Y118.866 E13.51574
G1 X89.618 Y118.21 E13.55133
G1 X89.383 Y117.559 E13.58586
G1 X89.225 Y116.885 E13.62039
G1 X89.146 Y116.197 E13.65494
G1 X89.146 Y115.504 E13.68952
G1 X89.199 Y114.985 E13.71555
G1 X89.283 Y114.527 E13.73878
G1 X89.511 Y113.507 E13.79092
G1 X89.653 Y112.911 E13.82149
G1 X90.198 Y110.308 E13.95417
G1 X90.662 Y107.727 E14.085
G1 X91.062 Y105.072 E14.21895
G1 X91.384 Y102.424 E14.35203
G1 X91.618 Y99.737 E14.4866
G1 X91.7 Y98.877 E14.5297
G1 X91.806 Y98.193 E14.56423
G1 X92.098 Y97.229 E14.61448
G1 X92.349 Y96.616 E14.64753
G1 X92.686 Y95.864 E14.68864
G1 X93.006 Y95.249 E14.72323
G1 X93.594 Y94.43 E14.77353
G1 X94.025 Y93.925 E14.80665
G1 X94.158 Y93.775 E14.81665
G1 X94.934 Y92.925 E14.87407
G1 X95.048 Y92.803 E14.8824
G1 X95.411 Y92.427 E14.90848
M205 X10 Y10
G0 F6000 X95.699 Y92.704
M205 X8 Y8
G1 F1200 X96.119 Y92.312 E14.93714
G1 X98.09 Y90.651 E15.06573
G1 X98.627 Y90.251 E15.09914
G1 X99.207 Y89.918 E15.13251
G1 X99.823 Y89.657 E15.16588
G1 X100.244 Y89.525 E15.1879
G1 X100.908 Y89.346 E15.22221
G1 X103.513 Y88.61 E15.35726
G1 X106.028 Y87.823 E15.48873
G1 X107.345 Y87.358 E15.55841
G1 X107.594 Y87.287 E15.57133
G1 X108.72 Y86.899 E15.63075
G1 X109.364 Y86.719 E15.66411
G1 X109.964 Y86.624 E15.69442
G1 X111.286 Y86.487 E15.76072
G1 X111.417 Y86.464 E15.76736
G1 X113.077 Y86.305 E15.85056
G1 X113.745 Y86.268 E15.88393
G1 X114.412 Y86.311 E15.91728
G1 X114.912 Y86.397 E15.94259
G1 X116.994 Y86.852 E16.04891
G1 X117.808 Y87.011 E16.09029
G1 X118.123 Y87.081 E16.10639
G1 X118.764 Y87.271 E16.13975
G1 X119.244 Y87.47 E16.16567
G1 X119.853 Y87.757 E16.19926
G1 X119.993 Y87.825 E16.20702
G1 X120.62 Y88.142 E16.24207
G1 X121.043 Y88.38 E16.26629
G1 X121.964 Y88.951 E16.32035
G1 X122.548 Y89.303 E16.35437
G1 X123.25 Y89.741 E16.39565
G1 X123.51 Y89.913 E16.41121
G1 X124.063 Y90.303 E16.44497
G1 X124.878 Y90.892 E16.49513
G1 X125.123 Y91.08 E16.51054
G1 X125.95 Y91.751 E16.56367
G1 X126.15 Y91.921 E16.57677
G1 X126.675 Y92.375 E16.61139
G1 X127.164 Y92.853 E16.64551
G1 X128.492 Y94.32 E16.74423
G1 X128.568 Y94.415 E16.7503
G1 X129.442 Y95.392 E16.8157
G1 X129.857 Y95.917 E16.84909
G1 X130.127 Y96.341 E16.87417
G1 X130.554 Y97.086 E16.91701
G1 X130.638 Y97.257 E16.92651
G1 X131.111 Y98.1 E16.97474
G1 X131.205 Y98.273 E16.98456
G1 X131.875 Y99.577 E17.0577
G1 X132.422 Y100.693 E17.11971
G1 X132.726 Y101.333 E17.15506
G1 X132.977 Y101.954 E17.18848
G1 X133.132 Y102.511 E17.21732
G1 X133.282 Y103.255 E17.25519
G1 X133.336 Y103.557 E17.27049
G1 X133.62 Y105.256 E17.35643
G1 X133.821 Y106.396 E17.41418
G1 X133.908 Y107.002 E17.44473
G1 X134.058 Y108.499 E17.51979
G1 X134.121 Y109.144 E17.55212
G1 X134.138 Y110.104 E17.60002
G1 X134.115 Y110.433 E17.61647
G1 X133.945 Y113.899 E17.7896
G1 X133.937 Y114.168 E17.80303
G1 X133.877 Y114.831 E17.83624
G1 X133.748 Y115.693 E17.87972
G1 X133.721 Y115.86 E17.88816
G1 X133.495 Y117.102 E17.95115
G1 X133.378 Y117.694 E17.98125
G1 X133.252 Y118.294 E18.01184
G1 X132.969 Y119.228 E18.06053
G1 X132.618 Y120.103 E18.10756
G1 X132.546 Y120.275 E18.11687
G1 X132.306 Y120.82 E18.14658
G1 X132 Y121.415 E18.17996
G1 X131.664 Y121.92 E18.21022
G1 X131.047 Y122.744 E18.26158
G1 X130.658 Y123.247 E18.2933
G1 X129.076 Y125.42 E18.4274
G1 X128.397 Y126.395 E18.48667
G1 X128.064 Y126.835 E18.5142
G1 X127.702 Y127.281 E18.54286
G1 X127.239 Y127.822 E18.57839
G1 X126.774 Y128.304 E18.6118
G1 X126.186 Y128.775 E18.64939
G1 X125.824 Y129.026 E18.67136
G1 X125.165 Y129.467 E18.71092
G1 X124.057 Y130.226 E18.77793
G1 X123.589 Y130.514 E18.80534
G1 X121.176 Y131.84 E18.94271
G1 X120.63 Y132.15 E18.97403
G1 X120.192 Y132.374 E18.99858
G1 X119.665 Y132.614 E19.02747
G1 X118.515 Y133.123 E19.09021
G1 X117.888 Y133.357 E19.1236
G1 X117.134 Y133.542 E19.16233
G1 X116.462 Y133.681 E19.19657
G1 X115.68 Y133.832 E19.2363
G1 X115.016 Y133.92 E19.26972
G1 X114.201 Y133.932 E19.31038
G1 X112.093 Y133.888 E19.41557
G1 X110.824 Y133.84 E19.47893
G1 X110.645 Y133.83 E19.48787
G1 X109.922 Y133.779 E19.52403
G1 X109.305 Y133.701 E19.55506
G1 X108.86 Y133.616 E19.57766
G1 X108.155 Y133.462 E19.61367
G1 X107.488 Y133.304 E19.64786
G1 X106.609 Y133.018 E19.69398
G1 X105.826 Y132.688 E19.73637
G1 X104.957 Y132.307 E19.78371
G1 X104.344 Y132.032 E19.81723
G1 X104.039 Y131.884 E19.83414
G1 X103.371 Y131.535 E19.87174
G1 X102.095 Y130.878 E19.94335
G1 X101.447 Y130.539 E19.97983
G1 X100.914 Y130.221 E20.0108
G1 X100.482 Y129.93 E20.03678
G1 X99.988 Y129.606 E20.06626
G1 X98.821 Y128.822 E20.1364
G1 X98.082 Y128.23 E20.18364
G1 X97.497 Y127.671 E20.22401
G1 X96.499 Y126.736 E20.29223
G1 X95.591 Y125.896 E20.35395
G1 X95.332 Y125.65 E20.37177
G1 X94.325 Y124.67 E20.44187
G1 X94.075 Y124.419 E20.45954
G1 X93.614 Y123.943 E20.4926
G1 X92.558 Y122.801 E20.5702
G1 X92.409 Y122.633 E20.58141
G1 X91.996 Y122.107 E20.61477
G1 X91.681 Y121.595 E20.64476
G1 X91.259 Y120.82 E20.68879
G1 X90.964 Y120.238 E20.72134
G1 X90.888 Y120.08 E20.73009
G1 X90.462 Y119.155 E20.7809
G1 X90.266 Y118.709 E20.8052
G1 X89.986 Y118.053 E20.84078
G1 X89.76 Y117.423 E20.87418
G1 X89.611 Y116.771 E20.90754
G1 X89.542 Y116.106 E20.9409
G1 X89.552 Y115.437 E20.97428
G1 X89.673 Y114.614 E21.01578
G1 X89.881 Y113.682 E21.06342
G1 X90.041 Y113.014 E21.09769
G1 X90.583 Y110.423 E21.22975
G1 X91.063 Y107.751 E21.36519
G1 X91.456 Y105.148 E21.49653
