;FLAVOR:Marlin
;TIME:2000
;Filament used: 1.43467m
;Layer height: 0.2
;MINX:88.7
;MINY:87.7
;MINZ:0.3
;MAXX:137.514
;MAXY:132.3
;MAXZ:15.175
;Generated with Cura_SteamEngine 4.13.1
M140 S60
M105
M190 S60
M104 S200
M105
M109 S200
M82 ;absolute extrusion mode
G21                                        ; metric values
G90                                        ; absolute positioning
M82                                        ; set extruder to absolute mode
M107                                       ; start with the fan off
M190 S60                                   ; preheat and wait for bed
M109 S210                                  ; preheat and wait for hotend
M300 S1000 P500                            ; BEEP heating done
G28 X0 Y10 Z0                              ; move X/Y to min endstops
M420 S1                                    ; enable mesh leveling
G0 Z0.15                                   ; lift nozzle a bit
G0 X2                                      ; move away from clips
G92 E0                                     ; zero the extruded length
G1 Y50 E25 F500                            ; Extrude 25mm of filament in a 5cm line.
G92 E0                                     ; zero the extruded length again
G1 E-2 F500                                ; Retract a little
G1 Y120 F4000                              ; Quickly wipe away from the filament line
G92 E0
G92 E0
G1 F1500 E-6
;LAYER_COUNT:75
;LAYER:0
M106 S76.5
M205 X10 Y10
G1 F600 Z0.375
G0 F6000 X136.649 Y109.93 Z0.375
M205 X8 Y8
;TYPE:SUPPORT-INTERFACE
G1 F600 Z0.3
G1 F1500 E0
G1 F1200 X136.865 Y109.996 E0.01127
G1 X137.276 Y110.342 E0.03807
G1 X137.514 Y110.757 E0.06194
G1 X137.509 Y110.99 E0.07357
G1 X137.384 Y111.058 E0.08067
G1 X137.033 Y110.95 E0.09899
G1 X136.649 Y110.626 E0.12405
G1 X136.649 Y109.93 E0.15878
M205 X10 Y10
G0 F6000 X137.184 Y110.585
M205 X8 Y8
G1 F1200 X137.059 Y110.711 E0.16763
M205 X10 Y10
G1 F1500 E-5.83237
G1 F600 Z0.375
;MESH:garmin_navi_smart-60_halterung.stl
G0 F6000 X116.499 Y119.185 Z0.375
M205 X8 Y8
;TYPE:WALL-INNER
G1 F600 Z0.3
G1 F1500 E0.16763
G1 F1200 X116.499 Y131.026 E0.75838
G1 X114.728 Y131.5 E0.84985
G1 X110.625 Y131.5 E1.05455
G1 X108.499 Y130.93 E1.16436
G1 X108.499 Y119.186 E1.75027
G1 X106.813 Y118.107 E1.85014
G1 X105.784 Y117.214 E1.91811
G1 X104.881 Y116.171 E1.98694
G1 X103.814 Y114.5 E2.08585
G1 X90.349 Y114.5 E2.75762
G1 X90.349 Y106.5 E3.15674
G1 X103.813 Y106.5 E3.82846
G1 X104.893 Y104.814 E3.92836
G1 X105.786 Y103.784 E3.99637
G1 X106.829 Y102.881 E4.0652
G1 X108.499 Y101.815 E4.16404
G1 X108.499 Y89.191 E4.79385
G1 X111.057 Y88.506 E4.92597
G1 X113.973 Y88.5 E5.07145
G1 X116.499 Y89.176 E5.20191
G1 X116.499 Y101.815 E5.83247
G1 X118.186 Y102.893 E5.93235
G1 X119.215 Y103.786 E6.00032
G1 X120.118 Y104.829 E6.06915
G1 X121.184 Y106.5 E6.16804
G1 X134.649 Y106.5 E6.83981
G1 X134.649 Y114.5 E7.23893
G1 X121.184 Y114.5 E7.9107
G1 X120.109 Y116.183 E8.01033
G1 X119.213 Y117.216 E8.07856
G1 X118.17 Y118.119 E8.14738
G1 X116.499 Y119.185 E8.24627
M205 X10 Y10
G0 F6000 X116.899 Y119.404
M205 X8 Y8
G1 F1200 X116.899 Y131.333 E8.84141
G1 X114.779 Y131.9 E8.95089
G1 X110.573 Y131.9 E9.16073
G1 X108.099 Y131.237 E9.28852
G1 X108.099 Y119.405 E9.87882
G1 X106.575 Y118.43 E9.96908
G1 X105.5 Y117.497 E10.04009
G1 X104.56 Y116.411 E10.11175
G1 X103.595 Y114.9 E10.2012
G1 X89.949 Y114.9 E10.882
G1 X89.949 Y106.1 E11.32103
G1 X103.594 Y106.1 E12.00178
G1 X104.57 Y104.576 E12.09207
G1 X105.503 Y103.5 E12.16312
G1 X106.589 Y102.56 E12.23478
G1 X108.099 Y101.596 E12.32416
G1 X108.099 Y88.884 E12.95836
G1 X111.006 Y88.106 E13.1085
G1 X114.023 Y88.1 E13.25902
G1 X116.899 Y88.87 E13.40756
G1 X116.899 Y101.596 E14.04246
G1 X118.426 Y102.572 E14.13287
G1 X119.499 Y103.503 E14.20375
G1 X120.439 Y104.589 E14.2754
G1 X121.403 Y106.1 E14.36482
G1 X135.049 Y106.1 E15.04563
G1 X135.049 Y114.9 E15.48466
G1 X121.403 Y114.9 E16.16546
G1 X120.43 Y116.423 E16.25563
G1 X119.496 Y117.5 E16.32675
G1 X118.41 Y118.44 E16.39841
G1 X116.899 Y119.404 E16.48783
M205 X10 Y10
G0 F6000 X117.299 Y119.623
M205 X8 Y8
;TYPE:WALL-OUTER
G1 F1200 X117.299 Y131.639 E17.08731
G1 X114.83 Y132.3 E17.21482
G1 X110.521 Y132.3 E17.4298
G1 X107.699 Y131.544 E17.57556
G1 X107.699 Y119.624 E18.17025
G1 X106.338 Y118.753 E18.25086
G1 X105.212 Y117.777 E18.3252
G1 X104.242 Y116.655 E18.3992
G1 X103.376 Y115.3 E18.47943
G1 X89.549 Y115.3 E19.16926
G1 X89.549 Y105.7 E19.64821
G1 X103.375 Y105.7 E20.33799
G1 X104.247 Y104.338 E20.41867
G1 X105.223 Y103.212 E20.49301
G1 X106.345 Y102.242 E20.56701
G1 X107.699 Y101.377 E20.64717
G1 X107.699 Y88.578 E21.28571
G1 X110.955 Y87.706 E21.45388
G1 X114.073 Y87.7 E21.60944
G1 X117.299 Y88.564 E21.77606
G1 X117.299 Y101.377 E22.4153
G1 X118.666 Y102.251 E22.49625
G1 X119.787 Y103.223 E22.57027
G1 X120.757 Y104.345 E22.64427
G1 X121.622 Y105.7 E22.72447
G1 X135.449 Y105.7 E23.4143
G1 X135.449 Y115.3 E23.89324
G1 X121.622 Y115.3 E24.58308
G1 X120.751 Y116.663 E24.66378
G1 X119.776 Y117.788 E24.73805
G1 X118.654 Y118.758 E24.81204
G1 X117.299 Y119.623 E24.89224
M205 X10 Y10
G0 F6000 X117.299 Y119.823
G0 X116.859 Y119.823
G0 X116.109 Y118.971
M205 X8 Y8
;TYPE:SKIN
G1 F1200 X116.109 Y130.727 E25.47875
G1 X114.675 Y131.11 E25.5528
G1 X110.678 Y131.11 E25.75222
G1 X108.889 Y130.631 E25.84461
G1 X108.889 Y118.973 E26.42623
G1 X107.049 Y117.795 E26.53523
G1 X106.061 Y116.938 E26.60048
G1 X105.195 Y115.938 E26.66648
G1 X104.028 Y114.11 E26.77468
G1 X90.739 Y114.11 E27.43767
G1 X90.739 Y106.89 E27.79788
G1 X104.026 Y106.89 E28.46077
G1 X105.207 Y105.047 E28.56998
G1 X106.063 Y104.061 E28.63512
G1 X107.061 Y103.195 E28.70104
G1 X108.889 Y102.029 E28.80921
G1 X108.889 Y89.49 E29.43479
G1 X111.11 Y88.896 E29.54949
G1 X113.921 Y88.89 E29.68973
G1 X116.109 Y89.475 E29.80272
G1 X116.109 Y102.029 E30.42905
G1 X117.947 Y103.204 E30.53788
G1 X118.941 Y104.066 E30.60352
G1 X119.803 Y105.06 E30.66916
G1 X120.97 Y106.89 E30.77744
G1 X134.259 Y106.89 E31.44044
G1 X134.259 Y114.11 E31.80064
G1 X120.97 Y114.11 E32.46363
G1 X119.799 Y115.944 E32.57219
G1 X118.933 Y116.942 E32.63812
G1 X117.939 Y117.804 E32.70376
G1 X116.109 Y118.971 E32.81204
M205 X10 Y10
G1 F1500 E26.81204
G1 F600 Z0.375
G0 F6000 X134.078 Y107.491 Z0.375
M205 X8 Y8
G1 F600 Z0.3
G1 F1500 E32.81204
G1 F1200 X133.657 Y107.07 E32.84174
M205 X10 Y10
G0 F6000 X133.091 Y107.07
M205 X8 Y8
G1 F1200 X134.078 Y108.057 E32.91138
M205 X10 Y10
G0 F6000 X134.078 Y108.622
M205 X8 Y8
G1 F1200 X132.525 Y107.07 E33.02092
M205 X10 Y10
G0 F6000 X131.96 Y107.07
M205 X8 Y8
G1 F1200 X134.078 Y109.188 E33.17035
M205 X10 Y10
G0 F6000 X134.078 Y109.754
M205 X8 Y8
G1 F1200 X131.394 Y107.07 E33.35973
M205 X10 Y10
G0 F6000 X130.828 Y107.07
M205 X8 Y8
G1 F1200 X134.078 Y110.319 E33.589
M205 X10 Y10
G0 F6000 X134.078 Y110.885
M205 X8 Y8
G1 F1200 X130.263 Y107.07 E33.85816
M205 X10 Y10
G0 F6000 X129.697 Y107.07
M205 X8 Y8
G1 F1200 X134.078 Y111.451 E34.16727
M205 X10 Y10
G0 F6000 X134.078 Y112.017
M205 X8 Y8
G1 F1200 X129.131 Y107.07 E34.51631
M205 X10 Y10
G0 F6000 X128.566 Y107.07
M205 X8 Y8
G1 F1200 X134.078 Y112.582 E34.90521
M205 X10 Y10
G0 F6000 X134.078 Y113.148
M205 X8 Y8
G1 F1200 X128 Y107.07 E35.33404
M205 X10 Y10
G0 F6000 X127.434 Y107.07
M205 X8 Y8
G1 F1200 X134.078 Y113.714 E35.80281
M205 X10 Y10
G0 F6000 X133.728 Y113.929
M205 X8 Y8
G1 F1200 X126.869 Y107.07 E36.28675
M205 X10 Y10
G0 F6000 X126.303 Y107.07
M205 X8 Y8
G1 F1200 X133.163 Y113.929 E36.77073
M205 X10 Y10
G0 F6000 X132.597 Y113.929
M205 X8 Y8
G1 F1200 X125.737 Y107.07 E37.2547
M205 X10 Y10
G0 F6000 X125.172 Y107.07
M205 X8 Y8
G1 F1200 X132.031 Y113.929 E37.73864
M205 X10 Y10
G0 F6000 X131.465 Y113.929
M205 X8 Y8
G1 F1200 X124.606 Y107.07 E38.22258
M205 X10 Y10
G0 F6000 X124.04 Y107.07
M205 X8 Y8
G1 F1200 X130.9 Y113.929 E38.70656
M205 X10 Y10
G0 F6000 X130.334 Y113.929
M205 X8 Y8
G1 F1200 X123.474 Y107.07 E39.19053
M205 X10 Y10
G0 F6000 X122.909 Y107.07
M205 X8 Y8
G1 F1200 X129.768 Y113.929 E39.67447
M205 X10 Y10
G0 F6000 X129.203 Y113.929
M205 X8 Y8
G1 F1200 X122.343 Y107.07 E40.15844
M205 X10 Y10
G0 F6000 X121.777 Y107.07
M205 X8 Y8
G1 F1200 X128.637 Y113.929 E40.64242
M205 X10 Y10
G0 F6000 X128.071 Y113.929
M205 X8 Y8
G1 F1200 X121.212 Y107.07 E41.12636
G1 X121.142 Y107
M205 X10 Y10
G0 F6000 X120.267 Y106.125
M205 X8 Y8
G1 F1200 X116.879 Y102.736 E41.36544
G1 X116.809 Y102.666
M205 X10 Y10
G0 F6000 X115.928 Y101.786
M205 X8 Y8
G1 F1200 X109.067 Y94.925 E41.84952
M205 X10 Y10
G0 F6000 X109.067 Y94.359
M205 X8 Y8
G1 F1200 X115.928 Y101.22 E42.3336
M205 X10 Y10
G0 F6000 X115.928 Y100.655
M205 X8 Y8
G1 F1200 X109.067 Y93.794 E42.81768
M205 X10 Y10
G0 F6000 X109.067 Y93.228
M205 X8 Y8
G1 F1200 X115.928 Y100.089 E43.30176
M205 X10 Y10
G0 F6000 X115.928 Y99.523
M205 X8 Y8
G1 F1200 X109.067 Y92.662 E43.78584
M205 X10 Y10
G0 F6000 X109.067 Y92.097
M205 X8 Y8
G1 F1200 X115.928 Y98.958 E44.26992
M205 X10 Y10
G0 F6000 X115.928 Y98.392
M205 X8 Y8
G1 F1200 X109.067 Y91.531 E44.754
M205 X10 Y10
G0 F6000 X109.067 Y90.965
M205 X8 Y8
G1 F1200 X115.928 Y97.826 E45.23808
M205 X10 Y10
G0 F6000 X115.928 Y97.261
M205 X8 Y8
G1 F1200 X109.067 Y90.4 E45.72216
M205 X10 Y10
G0 F6000 X109.067 Y89.834
M205 X8 Y8
G1 F1200 X115.928 Y96.695 E46.20624
M205 X10 Y10
G0 F6000 X115.928 Y96.129
M205 X8 Y8
G1 F1200 X109.351 Y89.552 E46.67028
M205 X10 Y10
G0 F6000 X109.798 Y89.433
M205 X8 Y8
G1 F1200 X115.928 Y95.564 E47.10282
M205 X10 Y10
G0 F6000 X115.928 Y94.998
M205 X8 Y8
G1 F1200 X110.244 Y89.313 E47.5039
M205 X10 Y10
G0 F6000 X110.69 Y89.194
M205 X8 Y8
G1 F1200 X115.928 Y94.432 E47.87347
M205 X10 Y10
G0 F6000 X115.928 Y93.867
M205 X8 Y8
G1 F1200 X111.138 Y89.076 E48.21146
M205 X10 Y10
G0 F6000 X111.703 Y89.075
M205 X8 Y8
G1 F1200 X115.928 Y93.301 E48.50959
M205 X10 Y10
G0 F6000 X115.928 Y92.735
M205 X8 Y8
G1 F1200 X112.267 Y89.074 E48.7679
M205 X10 Y10
G0 F6000 X112.831 Y89.072
M205 X8 Y8
G1 F1200 X115.928 Y92.169 E48.98641
M205 X10 Y10
G0 F6000 X115.928 Y91.604
M205 X8 Y8
G1 F1200 X113.395 Y89.071 E49.16512
M205 X10 Y10
G0 F6000 X113.983 Y89.093
M205 X8 Y8
G1 F1200 X115.928 Y91.038 E49.30235
M205 X10 Y10
G0 F6000 X115.928 Y90.472
M205 X8 Y8
G1 F1200 X114.755 Y89.299 E49.38512
M205 X10 Y10
G0 F6000 X115.527 Y89.506
M205 X8 Y8
G1 F1200 X115.928 Y89.907 E49.41341
M205 X10 Y10
G1 F1500 E43.41341
G1 F600 Z0.375
G0 F6000 X109.067 Y95.491 Z0.375
M205 X8 Y8
G1 F600 Z0.3
G1 F1500 E49.41341
G1 F1200 X127.506 Y113.929 E50.71434
M205 X10 Y10
G0 F6000 X126.94 Y113.929
M205 X8 Y8
G1 F1200 X109.067 Y96.056 E51.97538
M205 X10 Y10
G0 F6000 X109.067 Y96.622
M205 X8 Y8
G1 F1200 X126.374 Y113.929 E53.19648
M205 X10 Y10
G0 F6000 X125.809 Y113.929
M205 X8 Y8
G1 F1200 X109.067 Y97.188 E54.37769
M205 X10 Y10
G0 F6000 X109.067 Y97.753
M205 X8 Y8
G1 F1200 X125.243 Y113.929 E55.51899
M205 X10 Y10
G0 F6000 X124.677 Y113.929
M205 X8 Y8
G1 F1200 X109.067 Y98.319 E56.62036
M205 X10 Y10
G0 F6000 X109.067 Y98.885
M205 X8 Y8
G1 F1200 X124.112 Y113.929 E57.68183
M205 X10 Y10
G0 F6000 X123.546 Y113.929
M205 X8 Y8
G1 F1200 X109.067 Y99.451 E58.70337
M205 X10 Y10
G0 F6000 X109.067 Y100.016
M205 X8 Y8
G1 F1200 X122.98 Y113.929 E59.685
M205 X10 Y10
G0 F6000 X122.415 Y113.929
M205 X8 Y8
G1 F1200 X109.067 Y100.582 E60.62674
M205 X10 Y10
G0 F6000 X109.067 Y101.148
M205 X8 Y8
G1 F1200 X121.849 Y113.929 E61.52855
M205 X10 Y10
G0 F6000 X121.283 Y113.929
M205 X8 Y8
G1 F1200 X109.067 Y101.713 E62.39045
M205 X10 Y10
G0 F6000 X108.975 Y102.187
M205 X8 Y8
G1 F1200 X120.811 Y114.023 E63.22554
M205 X10 Y10
G0 F6000 X120.59 Y114.368
M205 X8 Y8
G1 F1200 X108.63 Y102.408 E64.06939
M205 X10 Y10
G0 F6000 X108.284 Y102.628
M205 X8 Y8
G1 F1200 X120.37 Y114.713 E64.92208
M205 X10 Y10
G0 F6000 X120.149 Y115.058
M205 X8 Y8
G1 F1200 X107.939 Y102.848 E65.78357
M205 X10 Y10
G0 F6000 X107.594 Y103.069
M205 X8 Y8
G1 F1200 X119.928 Y115.403 E66.6538
M205 X10 Y10
G0 F6000 X119.708 Y115.748
M205 X8 Y8
G1 F1200 X107.249 Y103.289 E67.53285
M205 X10 Y10
G0 F6000 X106.936 Y103.542
M205 X8 Y8
G1 F1200 X119.456 Y116.062 E68.4162
M205 X10 Y10
G0 F6000 X119.194 Y116.365
M205 X8 Y8
G1 F1200 X106.633 Y103.805 E69.30241
M205 X10 Y10
G0 F6000 X106.331 Y104.068
M205 X8 Y8
G1 F1200 X118.931 Y116.668 E70.19141
M205 X10 Y10
G0 F6000 X118.646 Y116.949
M205 X8 Y8
G1 F1200 X106.048 Y104.351 E71.08027
M205 X10 Y10
G0 F6000 X105.785 Y104.653
M205 X8 Y8
G1 F1200 X118.344 Y117.212 E71.96637
M205 X10 Y10
G0 F6000 X118.041 Y117.475
M205 X8 Y8
G1 F1200 X105.522 Y104.956 E72.84965
M205 X10 Y10
G0 F6000 X105.273 Y105.273
M205 X8 Y8
G1 F1200 X117.725 Y117.725 E73.72821
M205 X10 Y10
G0 F6000 X117.379 Y117.945
M205 X8 Y8
G1 F1200 X105.052 Y105.618 E74.59795
M205 X10 Y10
G0 F6000 X104.832 Y105.963
M205 X8 Y8
G1 F1200 X117.034 Y118.166 E75.4589
M205 X10 Y10
G0 F6000 X116.688 Y118.385
M205 X8 Y8
G1 F1200 X104.61 Y106.307 E76.31107
M205 X10 Y10
G0 F6000 X104.39 Y106.652
M205 X8 Y8
G1 F1200 X116.343 Y118.606 E77.15445
M205 X10 Y10
G0 F6000 X115.998 Y118.826
M205 X8 Y8
G1 F1200 X104.168 Y106.997 E77.98909
M205 X10 Y10
G0 F6000 X103.675 Y107.069
M205 X8 Y8
G1 F1200 X115.928 Y119.322 E78.8536
M205 X10 Y10
G0 F6000 X115.928 Y119.888
M205 X8 Y8
G1 F1200 X103.109 Y107.069 E79.75805
M205 X10 Y10
G0 F6000 X102.543 Y107.069
M205 X8 Y8
G1 F1200 X115.928 Y120.454 E80.70244
M205 X10 Y10
G0 F6000 X115.928 Y121.019
M205 X8 Y8
G1 F1200 X101.978 Y107.069 E81.68668
M205 X10 Y10
G0 F6000 X101.412 Y107.069
M205 X8 Y8
G1 F1200 X115.928 Y121.585 E82.71087
M205 X10 Y10
G0 F6000 X115.928 Y122.151
M205 X8 Y8
G1 F1200 X100.846 Y107.069 E83.77498
M205 X10 Y10
G0 F6000 X100.281 Y107.069
M205 X8 Y8
G1 F1200 X115.928 Y122.716 E84.87896
M205 X10 Y10
G0 F6000 X115.928 Y123.282
M205 X8 Y8
G1 F1200 X99.715 Y107.069 E86.02288
M205 X10 Y10
G0 F6000 X99.149 Y107.069
M205 X8 Y8
G1 F1200 X115.928 Y123.848 E87.20673
M205 X10 Y10
G0 F6000 X115.928 Y124.414
M205 X8 Y8
G1 F1200 X98.584 Y107.069 E88.43047
M205 X10 Y10
G0 F6000 X98.018 Y107.069
M205 X8 Y8
G1 F1200 X115.928 Y124.979 E89.69412
M205 X10 Y10
G0 F6000 X115.928 Y125.545
M205 X8 Y8
G1 F1200 X97.452 Y107.069 E90.9977
M205 X10 Y10
G0 F6000 X96.887 Y107.069
M205 X8 Y8
G1 F1200 X103.746 Y113.929 E91.48168
M205 X10 Y10
G0 F6000 X103.181 Y113.929
M205 X8 Y8
G1 F1200 X96.321 Y107.069 E91.96569
M205 X10 Y10
G0 F6000 X95.755 Y107.069
M205 X8 Y8
G1 F1200 X102.615 Y113.929 E92.4497
M205 X10 Y10
G0 F6000 X102.049 Y113.929
M205 X8 Y8
G1 F1200 X95.19 Y107.069 E92.93367
M205 X10 Y10
G0 F6000 X94.624 Y107.069
M205 X8 Y8
G1 F1200 X101.483 Y113.929 E93.41765
M205 X10 Y10
G0 F6000 X100.918 Y113.929
M205 X8 Y8
G1 F1200 X94.058 Y107.069 E93.90166
M205 X10 Y10
G0 F6000 X93.492 Y107.069
M205 X8 Y8
G1 F1200 X100.352 Y113.929 E94.38567
M205 X10 Y10
G0 F6000 X99.786 Y113.929
M205 X8 Y8
G1 F1200 X92.927 Y107.069 E94.86964
M205 X10 Y10
G0 F6000 X92.361 Y107.069
M205 X8 Y8
G1 F1200 X99.221 Y113.929 E95.35365
M205 X10 Y10
G0 F6000 X98.655 Y113.929
M205 X8 Y8
G1 F1200 X91.795 Y107.069 E95.83766
M205 X10 Y10
G0 F6000 X91.23 Y107.069
M205 X8 Y8
G1 F1200 X98.089 Y113.929 E96.32164
M205 X10 Y10
G0 F6000 X97.524 Y113.929
M205 X8 Y8
G1 F1200 X90.919 Y107.323 E96.78769
M205 X10 Y10
G0 F6000 X90.919 Y107.889
M205 X8 Y8
G1 F1200 X96.958 Y113.929 E97.21381
M205 X10 Y10
G0 F6000 X96.392 Y113.929
M205 X8 Y8
G1 F1200 X90.919 Y108.455 E97.6
M205 X10 Y10
G0 F6000 X90.919 Y109.021
M205 X8 Y8
G1 F1200 X95.827 Y113.929 E97.94628
M205 X10 Y10
G0 F6000 X95.261 Y113.929
M205 X8 Y8
G1 F1200 X90.919 Y109.586 E98.25267
M205 X10 Y10
G0 F6000 X90.919 Y110.152
M205 X8 Y8
G1 F1200 X94.695 Y113.929 E98.51912
M205 X10 Y10
G0 F6000 X94.13 Y113.929
M205 X8 Y8
G1 F1200 X90.919 Y110.718 E98.74567
M205 X10 Y10
G0 F6000 X90.919 Y111.283
M205 X8 Y8
G1 F1200 X93.564 Y113.929 E98.93233
M205 X10 Y10
G0 F6000 X92.998 Y113.929
M205 X8 Y8
G1 F1200 X90.919 Y111.849 E99.07905
M205 X10 Y10
G0 F6000 X90.919 Y112.415
M205 X8 Y8
G1 F1200 X92.432 Y113.929 E99.18583
M205 X10 Y10
G0 F6000 X91.867 Y113.929
M205 X8 Y8
G1 F1200 X90.919 Y112.98 E99.25276
M205 X10 Y10
G0 F6000 X90.919 Y113.546
M205 X8 Y8
G1 F1200 X91.301 Y113.929 E99.27974
M205 X10 Y10
G1 F1500 E93.27974
G1 F600 Z0.375
G0 F6000 X104.798 Y114.98 Z0.375
M205 X8 Y8
