;FLAVOR:Marlin
;TIME:2361
;Filament used: 1.64048m
;Layer height: 0.2
;MINX:92.701
;MINY:90.201
;MINZ:0.3
;MAXX:132.299
;MAXY:129.799
;MAXZ:6.175
;Generated with Cura_SteamEngine 4.13.1
M140 S60
M105
M190 S60
M104 S200
M105
M109 S200
M82 ;absolute extrusion mode
G21                                        ; metric values
G90                                        ; absolute positioning
M82                                        ; set extruder to absolute mode
M107                                       ; start with the fan off
M190 S60                                   ; preheat and wait for bed
M109 S210                                  ; preheat and wait for hotend
M300 S1000 P500                            ; BEEP heating done
G28 X0 Y10 Z0                              ; move X/Y to min endstops
M420 S1                                    ; enable mesh leveling
G0 Z0.15                                   ; lift nozzle a bit
G0 X2                                      ; move away from clips
G92 E0                                     ; zero the extruded length
G1 Y50 E25 F500                            ; Extrude 25mm of filament in a 5cm line.
G92 E0                                     ; zero the extruded length again
G1 E-2 F500                                ; Retract a little
G1 Y120 F4000                              ; Quickly wipe away from the filament line
G92 E0
G92 E0
G1 F1500 E-6
;LAYER_COUNT:30
;LAYER:0
M106 S76.5
M205 X10 Y10
G1 F600 Z0.375
;MESH:prisma-schwenkfuss-fassung.stl
G0 F6000 X104.547 Y95.016 Z0.375
M205 X8 Y8
;TYPE:WALL-INNER
G1 F600 Z0.3
G1 F1500 E0
G1 F1200 X129.451 Y109.394 E1.43467
G1 X130.494 Y108.681 E1.4977
G1 X130.083 Y106.14 E1.62612
G1 X129.548 Y104.219 E1.7256
G1 X128.804 Y102.369 E1.82509
G1 X127.861 Y100.614 E1.92448
G1 X126.729 Y98.973 E2.02394
G1 X125.423 Y97.467 E2.12339
G1 X123.956 Y96.114 E2.22296
G1 X122.35 Y94.933 E2.32241
G1 X120.624 Y93.936 E2.42186
G1 X118.797 Y93.136 E2.52136
G1 X116.894 Y92.542 E2.62082
G1 X114.936 Y92.164 E2.72031
G1 X112.949 Y92.005 E2.81976
G1 X110.957 Y92.065 E2.91918
G1 X108.983 Y92.346 E3.01866
G1 X107.051 Y92.842 E3.11817
G1 X104.647 Y93.756 E3.24649
G1 X104.547 Y95.016 E3.30955
M205 X10 Y10
G0 F6000 X104.966 Y94.796
M205 X8 Y8
G1 F1200 X129.433 Y108.922 E4.71905
G1 X130.059 Y108.494 E4.75688
G1 X129.692 Y106.226 E4.8715
G1 X129.169 Y104.348 E4.96876
G1 X128.441 Y102.539 E5.06605
G1 X127.519 Y100.823 E5.16323
G1 X126.412 Y99.218 E5.26051
G1 X125.135 Y97.746 E5.35773
G1 X123.701 Y96.423 E5.45507
G1 X122.131 Y95.268 E5.55231
G1 X120.443 Y94.293 E5.64956
G1 X118.657 Y93.511 E5.74683
G1 X116.796 Y92.931 E5.84408
G1 X114.882 Y92.561 E5.94134
G1 X112.939 Y92.405 E6.03859
G1 X110.991 Y92.464 E6.13582
G1 X109.061 Y92.739 E6.23308
G1 X107.172 Y93.224 E6.33038
G1 X105.026 Y94.04 E6.44492
G1 X104.966 Y94.796 E6.48276
M205 X10 Y10
G0 F6000 X105.385 Y94.576
M205 X8 Y8
;TYPE:WALL-OUTER
G1 F1200 X129.415 Y108.45 E7.86709
G1 X129.624 Y108.307 E7.87972
G1 X129.301 Y106.312 E7.98055
G1 X128.79 Y104.477 E8.07558
G1 X128.078 Y102.709 E8.17067
G1 X127.177 Y101.032 E8.26565
G1 X126.095 Y99.463 E8.36074
G1 X124.847 Y98.025 E8.45573
G1 X123.446 Y96.732 E8.55084
G1 X121.912 Y95.603 E8.64587
G1 X120.262 Y94.65 E8.74093
G1 X118.517 Y93.886 E8.83597
G1 X116.698 Y93.32 E8.93101
G1 X114.828 Y92.958 E9.02604
G1 X112.929 Y92.805 E9.12108
G1 X111.025 Y92.863 E9.21612
G1 X109.139 Y93.132 E9.31116
G1 X107.293 Y93.606 E9.40625
G1 X105.405 Y94.324 E9.50702
G1 X105.385 Y94.576 E9.51964
M205 X10 Y10
G0 F6000 X105.558 Y94.676
G0 X105.338 Y95.056
G1 F1500 E3.51964
G1 F600 Z0.375
G0 F6000 X102.36 Y95.077 Z0.375
M205 X8 Y8
;TYPE:WALL-INNER
G1 F600 Z0.3
G1 F1500 E9.51964
G1 F1200 X100.366 Y96.702 E9.64797
G1 X98.97 Y98.127 E9.74749
G1 X97.741 Y99.696 E9.84692
G1 X96.69 Y101.39 E9.94638
G1 X95.836 Y103.191 E10.04583
G1 X95.185 Y105.075 E10.14527
G1 X94.746 Y107.022 E10.24485
G1 X94.526 Y109.004 E10.34434
G1 X94.526 Y110.996 E10.44372
G1 X94.746 Y112.978 E10.54321
G1 X95.185 Y114.925 E10.64278
G1 X95.836 Y116.809 E10.74223
G1 X96.69 Y118.61 E10.84167
G1 X97.741 Y120.304 E10.94113
G1 X98.97 Y121.873 E11.04056
G1 X100.366 Y123.298 E11.14009
G1 X102.36 Y124.923 E11.26842
G1 X103.5 Y124.378 E11.33146
G1 X103.5 Y95.622 E12.7661
G1 X102.36 Y95.077 E12.82914
M205 X10 Y10
G0 F6000 X102.416 Y95.547
M205 X8 Y8
G1 F1200 X100.636 Y96.998 E12.94371
G1 X99.271 Y98.391 E13.04101
G1 X98.069 Y99.925 E13.13824
G1 X97.042 Y101.582 E13.2355
G1 X96.207 Y103.343 E13.33273
G1 X95.57 Y105.185 E13.42997
G1 X95.141 Y107.088 E13.52729
G1 X94.926 Y109.026 E13.62457
G1 X94.926 Y110.974 E13.72176
G1 X95.141 Y112.912 E13.81904
G1 X95.57 Y114.815 E13.91636
G1 X96.207 Y116.657 E14.0136
G1 X97.042 Y118.418 E14.11083
G1 X98.069 Y120.075 E14.20809
G1 X99.271 Y121.609 E14.30532
G1 X100.636 Y123.002 E14.40262
G1 X102.416 Y124.453 E14.51719
G1 X103.1 Y124.126 E14.55502
G1 X103.1 Y95.874 E15.96452
G1 X102.416 Y95.547 E16.00234
M205 X10 Y10
G0 F6000 X102.472 Y96.017
M205 X8 Y8
;TYPE:WALL-OUTER
G1 F1200 X100.906 Y97.294 E16.10315
G1 X99.572 Y98.655 E16.19823
G1 X98.397 Y100.154 E16.29325
G1 X97.394 Y101.774 E16.38831
G1 X96.578 Y103.495 E16.48333
G1 X95.955 Y105.295 E16.57836
G1 X95.536 Y107.154 E16.67344
G1 X95.326 Y109.048 E16.76851
G1 X95.326 Y110.952 E16.8635
G1 X95.536 Y112.846 E16.95857
G1 X95.955 Y114.705 E17.05364
G1 X96.578 Y116.505 E17.14867
G1 X97.394 Y118.226 E17.24369
G1 X98.397 Y119.846 E17.33875
G1 X99.572 Y121.345 E17.43377
G1 X100.906 Y122.706 E17.52885
G1 X102.472 Y123.983 E17.62966
G1 X102.7 Y123.874 E17.64227
G1 X102.7 Y96.126 E19.02663
G1 X102.472 Y96.017 E19.03923
M205 X10 Y10
G0 F6000 X102.317 Y96.143
G0 X102.04 Y95.802
G1 F1500 E13.03923
G1 F600 Z0.375
G0 F6000 X111.397 Y112.906 Z0.375
M205 X8 Y8
;TYPE:WALL-INNER
G1 F600 Z0.3
G1 F1500 E19.03923
G1 F1200 X112.126 Y113.085 E19.07668
G1 X112.874 Y113.085 E19.114
G1 X113.603 Y112.906 E19.15145
G1 X114.265 Y112.558 E19.18876
G1 X114.827 Y112.061 E19.22619
G1 X115.251 Y111.444 E19.26354
G1 X115.517 Y110.745 E19.30086
G1 X115.607 Y110 E19.3383
G1 X115.517 Y109.255 E19.37573
G1 X115.251 Y108.556 E19.41305
G1 X114.827 Y107.939 E19.4504
G1 X114.265 Y107.442 E19.48783
G1 X113.603 Y107.094 E19.52514
G1 X112.874 Y106.915 E19.56259
G1 X112.126 Y106.915 E19.59991
G1 X111.397 Y107.094 E19.63736
G1 X110.735 Y107.442 E19.67467
G1 X110.173 Y107.939 E19.7121
G1 X109.749 Y108.556 E19.74945
G1 X109.483 Y109.255 E19.78676
G1 X109.393 Y110 E19.8242
G1 X109.483 Y110.745 E19.86164
G1 X109.749 Y111.444 E19.89895
G1 X110.173 Y112.061 E19.9363
G1 X110.735 Y112.558 E19.97373
G1 X111.397 Y112.906 E20.01104
M205 X10 Y10
G0 F6000 X111.54 Y112.529
M205 X8 Y8
G1 F1200 X112.174 Y112.685 E20.04362
G1 X112.826 Y112.685 E20.07615
G1 X113.46 Y112.529 E20.10872
G1 X114.036 Y112.226 E20.14119
G1 X114.525 Y111.794 E20.17374
G1 X114.894 Y111.257 E20.20625
G1 X115.126 Y110.648 E20.23876
G1 X115.204 Y110 E20.27133
G1 X115.126 Y109.352 E20.30389
G1 X114.894 Y108.743 E20.3364
G1 X114.525 Y108.206 E20.36891
G1 X114.036 Y107.774 E20.40146
G1 X113.46 Y107.471 E20.43393
G1 X112.826 Y107.315 E20.4665
G1 X112.174 Y107.315 E20.49903
G1 X111.54 Y107.471 E20.53161
G1 X110.964 Y107.774 E20.56408
G1 X110.475 Y108.206 E20.59663
G1 X110.106 Y108.743 E20.62914
G1 X109.874 Y109.352 E20.66165
G1 X109.796 Y110 E20.69421
G1 X109.874 Y110.648 E20.72677
G1 X110.106 Y111.257 E20.75929
G1 X110.475 Y111.794 E20.79179
G1 X110.964 Y112.226 E20.82435
G1 X111.54 Y112.529 E20.85682
M205 X10 Y10
G0 F6000 X111.683 Y112.152
M205 X8 Y8
;TYPE:WALL-OUTER
G1 F1200 X112.223 Y112.285 E20.88456
G1 X112.777 Y112.285 E20.9122
G1 X113.317 Y112.152 E20.93995
G1 X113.807 Y111.894 E20.96757
G1 X114.223 Y111.527 E20.99525
G1 X114.537 Y111.07 E21.02291
G1 X114.735 Y110.551 E21.05063
G1 X114.801 Y110 E21.07831
G1 X114.735 Y109.449 E21.106
G1 X114.537 Y108.93 E21.13371
G1 X114.223 Y108.473 E21.16138
G1 X113.807 Y108.106 E21.18905
G1 X113.317 Y107.848 E21.21668
G1 X112.777 Y107.715 E21.24443
G1 X112.223 Y107.715 E21.27207
G1 X111.683 Y107.848 E21.29981
G1 X111.193 Y108.106 E21.32744
G1 X110.777 Y108.473 E21.35512
G1 X110.463 Y108.93 E21.38278
G1 X110.265 Y109.449 E21.41049
G1 X110.199 Y110 E21.43818
G1 X110.265 Y110.551 E21.46586
G1 X110.463 Y111.07 E21.49358
G1 X110.777 Y111.527 E21.52124
G1 X111.193 Y111.894 E21.54892
G1 X111.683 Y112.152 E21.57654
M205 X10 Y10
G0 F6000 X111.877 Y112.199
G0 X111.771 Y112.626
G1 F1500 E15.57654
G1 F600 Z0.375
G0 F6000 X104.647 Y126.244 Z0.375
M205 X8 Y8
;TYPE:WALL-INNER
G1 F600 Z0.3
G1 F1500 E21.57654
G1 F1200 X107.051 Y127.158 E21.70486
G1 X108.983 Y127.654 E21.80437
G1 X110.957 Y127.935 E21.90385
G1 X112.949 Y127.995 E22.00327
G1 X114.936 Y127.836 E22.10272
G1 X116.894 Y127.458 E22.20221
G1 X118.797 Y126.864 E22.30167
G1 X120.624 Y126.064 E22.40117
G1 X122.35 Y125.067 E22.50062
G1 X123.956 Y123.886 E22.60007
G1 X125.423 Y122.533 E22.69964
G1 X126.729 Y121.027 E22.79909
G1 X127.861 Y119.386 E22.89855
G1 X128.804 Y117.631 E22.99794
G1 X129.548 Y115.781 E23.09743
G1 X130.083 Y113.86 E23.19691
G1 X130.494 Y111.319 E23.32533
G1 X129.451 Y110.606 E23.38836
G1 X104.547 Y124.984 E24.82303
G1 X104.647 Y126.244 E24.88609
M205 X10 Y10
G0 F6000 X105.026 Y125.96
M205 X8 Y8
G1 F1200 X107.172 Y126.776 E25.00063
G1 X109.061 Y127.261 E25.09793
G1 X110.991 Y127.536 E25.19519
G1 X112.939 Y127.595 E25.29242
G1 X114.882 Y127.439 E25.38967
G1 X116.796 Y127.069 E25.48693
G1 X118.657 Y126.489 E25.58418
G1 X120.443 Y125.707 E25.68145
G1 X122.131 Y124.732 E25.7787
G1 X123.701 Y123.577 E25.87594
G1 X125.135 Y122.254 E25.97328
G1 X126.412 Y120.782 E26.07051
G1 X127.519 Y119.177 E26.16778
G1 X128.441 Y117.461 E26.26497
G1 X129.169 Y115.652 E26.36225
G1 X129.692 Y113.774 E26.45951
G1 X130.059 Y111.506 E26.57413
G1 X129.433 Y111.078 E26.61197
G1 X104.966 Y125.204 E28.02147
G1 X105.026 Y125.96 E28.0593
M205 X10 Y10
G0 F6000 X105.405 Y125.676
M205 X8 Y8
;TYPE:WALL-OUTER
G1 F1200 X107.293 Y126.394 E28.16008
G1 X109.139 Y126.868 E28.25516
G1 X111.025 Y127.137 E28.35021
G1 X112.929 Y127.195 E28.44524
G1 X114.828 Y127.042 E28.54029
G1 X116.698 Y126.68 E28.63532
G1 X118.517 Y126.114 E28.73036
G1 X120.262 Y125.35 E28.82539
G1 X121.912 Y124.397 E28.92046
G1 X123.446 Y123.268 E29.01548
G1 X124.847 Y121.975 E29.1106
G1 X126.095 Y120.537 E29.20559
G1 X127.177 Y118.968 E29.30068
G1 X128.078 Y117.291 E29.39565
G1 X128.79 Y115.523 E29.49074
G1 X129.301 Y113.688 E29.58577
G1 X129.624 Y111.693 E29.6866
G1 X129.415 Y111.55 E29.69924
G1 X105.385 Y125.424 E31.08357
G1 X105.405 Y125.676 E31.09618
M205 X10 Y10
G0 F6000 X105.592 Y125.747
G0 X105.435 Y126.158
G1 F1500 E25.09618
G1 F600 Z0.375
G0 F6000 X114.479 Y128.895 Z0.375
M205 X8 Y8
;TYPE:WALL-INNER
G1 F600 Z0.3
G1 F1500 E31.09618
G1 F1200 X112.5 Y128.999 E31.19505
G1 X110.521 Y128.895 E31.29392
G1 X108.54 Y128.582 E31.39398
G1 X106.63 Y128.07 E31.49263
G1 X104.774 Y127.358 E31.59181
G1 X103.001 Y126.455 E31.69107
G1 X101.338 Y125.373 E31.79006
G1 X99.784 Y124.116 E31.88977
G1 X98.384 Y122.716 E31.98855
G1 X97.127 Y121.162 E32.08827
G1 X96.045 Y119.499 E32.18725
G1 X95.142 Y117.726 E32.28652
G1 X94.43 Y115.87 E32.38569
G1 X93.918 Y113.96 E32.48435
G1 X93.605 Y111.979 E32.58441
G1 X93.501 Y110 E32.68328
G1 X93.605 Y108.021 E32.78215
G1 X93.918 Y106.04 E32.8822
G1 X94.43 Y104.13 E32.98086
G1 X95.142 Y102.274 E33.08003
G1 X96.045 Y100.501 E33.1793
G1 X97.127 Y98.838 E33.27828
G1 X98.384 Y97.284 E33.378
G1 X99.784 Y95.884 E33.47678
G1 X101.338 Y94.627 E33.5765
G1 X103.001 Y93.545 E33.67548
G1 X104.774 Y92.642 E33.77475
G1 X106.63 Y91.93 E33.87392
G1 X108.54 Y91.418 E33.97258
G1 X110.521 Y91.105 E34.07264
G1 X112.5 Y91.001 E34.1715
G1 X114.479 Y91.105 E34.27037
G1 X116.46 Y91.418 E34.37043
G1 X118.37 Y91.93 E34.46909
G1 X120.226 Y92.642 E34.56826
G1 X121.999 Y93.545 E34.66753
G1 X123.662 Y94.627 E34.76651
G1 X125.216 Y95.884 E34.86623
G1 X126.616 Y97.284 E34.96501
G1 X127.873 Y98.838 E35.06472
G1 X128.955 Y100.501 E35.16371
G1 X129.858 Y102.274 E35.26297
G1 X130.57 Y104.13 E35.36215
G1 X131.082 Y106.04 E35.4608
G1 X131.395 Y108.021 E35.56086
G1 X131.499 Y110 E35.65973
G1 X131.395 Y111.979 E35.7586
G1 X131.082 Y113.96 E35.85866
G1 X130.57 Y115.87 E35.95731
G1 X129.858 Y117.726 E36.05649
G1 X128.955 Y119.499 E36.15576
G1 X127.873 Y121.162 E36.25474
G1 X126.616 Y122.716 E36.35446
G1 X125.216 Y124.116 E36.45323
G1 X123.662 Y125.373 E36.55295
G1 X121.999 Y126.455 E36.65194
G1 X120.226 Y127.358 E36.7512
G1 X118.37 Y128.07 E36.85038
G1 X116.46 Y128.582 E36.94903
G1 X114.479 Y128.895 E37.04909
M205 X10 Y10
G0 F6000 X114.523 Y129.293
M205 X8 Y8
G1 F1200 X112.5 Y129.399 E37.15016
G1 X110.477 Y129.293 E37.25122
G1 X108.46 Y128.974 E37.3531
G1 X106.507 Y128.451 E37.45397
G1 X104.608 Y127.722 E37.55545
G1 X102.802 Y126.802 E37.65657
G1 X101.098 Y125.694 E37.75798
G1 X99.516 Y124.414 E37.8595
G1 X98.086 Y122.984 E37.9604
G1 X96.806 Y121.402 E38.06192
G1 X95.698 Y119.698 E38.16333
G1 X94.778 Y117.892 E38.26445
G1 X94.049 Y115.993 E38.36593
G1 X93.526 Y114.04 E38.4668
G1 X93.207 Y112.023 E38.56868
G1 X93.101 Y110 E38.66974
G1 X93.207 Y107.977 E38.77081
G1 X93.526 Y105.96 E38.87269
G1 X94.049 Y104.007 E38.97356
G1 X94.778 Y102.108 E39.07504
G1 X95.698 Y100.302 E39.17616
G1 X96.806 Y98.598 E39.27756
G1 X98.086 Y97.016 E39.37909
G1 X99.516 Y95.586 E39.47998
G1 X101.098 Y94.306 E39.58151
G1 X102.802 Y93.198 E39.68291
G1 X104.608 Y92.278 E39.78403
G1 X106.507 Y91.549 E39.88551
G1 X108.46 Y91.026 E39.98638
G1 X110.477 Y90.707 E40.08826
G1 X112.5 Y90.601 E40.18933
G1 X114.523 Y90.707 E40.2904
G1 X116.54 Y91.026 E40.39227
G1 X118.493 Y91.549 E40.49314
G1 X120.392 Y92.278 E40.59463
G1 X122.198 Y93.198 E40.69575
G1 X123.902 Y94.306 E40.79715
G1 X125.484 Y95.586 E40.89868
G1 X126.914 Y97.016 E40.99957
G1 X128.194 Y98.598 E41.10109
G1 X129.302 Y100.302 E41.2025
G1 X130.222 Y102.108 E41.30362
G1 X130.951 Y104.007 E41.4051
G1 X131.474 Y105.96 E41.50597
G1 X131.793 Y107.977 E41.60785
G1 X131.899 Y110 E41.70892
G1 X131.793 Y112.023 E41.80998
G1 X131.474 Y114.04 E41.91186
G1 X130.951 Y115.993 E42.01273
G1 X130.222 Y117.892 E42.11421
G1 X129.302 Y119.698 E42.21533
G1 X128.194 Y121.402 E42.31674
G1 X126.914 Y122.984 E42.41826
G1 X125.484 Y124.414 E42.51916
G1 X123.902 Y125.694 E42.62068
G1 X122.198 Y126.802 E42.72209
G1 X120.392 Y127.722 E42.8232
G1 X118.493 Y128.451 E42.92469
G1 X116.54 Y128.974 E43.02556
G1 X114.523 Y129.293 E43.12743
M205 X10 Y10
G0 F6000 X114.569 Y129.691
M205 X8 Y8
;TYPE:WALL-OUTER
G1 F1200 X112.5 Y129.799 E43.2308
G1 X110.431 Y129.691 E43.33416
G1 X108.379 Y129.366 E43.43781
G1 X106.386 Y128.832 E43.54075
G1 X104.442 Y128.086 E43.64463
G1 X102.603 Y127.149 E43.7476
G1 X100.858 Y126.015 E43.85143
G1 X99.248 Y124.712 E43.95476
G1 X97.788 Y123.252 E44.05777
G1 X96.485 Y121.642 E44.16111
G1 X95.351 Y119.897 E44.26493
G1 X94.414 Y118.058 E44.36791
G1 X93.668 Y116.114 E44.47179
G1 X93.134 Y114.121 E44.57473
G1 X92.809 Y112.069 E44.67838
G1 X92.701 Y110 E44.78174
G1 X92.809 Y107.931 E44.8851
G1 X93.134 Y105.879 E44.98875
G1 X93.668 Y103.886 E45.09169
G1 X94.414 Y101.942 E45.19558
G1 X95.351 Y100.103 E45.29855
G1 X96.485 Y98.358 E45.40237
G1 X97.788 Y96.748 E45.50571
G1 X99.248 Y95.288 E45.60872
G1 X100.858 Y93.985 E45.71205
G1 X102.603 Y92.851 E45.81588
G1 X104.442 Y91.914 E45.91885
G1 X106.386 Y91.168 E46.02273
G1 X108.379 Y90.634 E46.12567
G1 X110.431 Y90.309 E46.22932
G1 X112.5 Y90.201 E46.33268
G1 X114.569 Y90.309 E46.43605
G1 X116.621 Y90.634 E46.5397
G1 X118.614 Y91.168 E46.64263
G1 X120.558 Y91.914 E46.74652
G1 X122.397 Y92.851 E46.84949
G1 X124.142 Y93.985 E46.95331
G1 X125.752 Y95.288 E47.05665
G1 X127.212 Y96.748 E47.15966
G1 X128.515 Y98.358 E47.26299
G1 X129.649 Y100.103 E47.36682
G1 X130.586 Y101.942 E47.46979
G1 X131.332 Y103.886 E47.57367
G1 X131.866 Y105.879 E47.67661
G1 X132.191 Y107.931 E47.78026
G1 X132.299 Y110 E47.88362
G1 X132.191 Y112.069 E47.98699
G1 X131.866 Y114.121 E48.09064
G1 X131.332 Y116.114 E48.19358
G1 X130.586 Y118.058 E48.29746
G1 X129.649 Y119.897 E48.40043
G1 X128.515 Y121.642 E48.50426
G1 X127.212 Y123.252 E48.60759
G1 X125.752 Y124.712 E48.7106
G1 X124.142 Y126.015 E48.81393
