;FLAVOR:Marlin
;TIME:2713
;Filament used: 1.95662m
;Layer height: 0.2
;MINX:61.7
;MINY:59.216
;MINZ:0.3
;MAXX:163.3
;MAXY:160.784
;MAXZ:5.175
;Generated with Cura_SteamEngine 4.13.1
M140 S60
M105
M190 S60
M104 S200
M105
M109 S200
M82 ;absolute extrusion mode
G21                                        ; metric values
G90                                        ; absolute positioning
M82                                        ; set extruder to absolute mode
M107                                       ; start with the fan off
M190 S60                                   ; preheat and wait for bed
M109 S210                                  ; preheat and wait for hotend
M300 S1000 P500                            ; BEEP heating done
G28 X0 Y10 Z0                              ; move X/Y to min endstops
M420 S1                                    ; enable mesh leveling
G0 Z0.15                                   ; lift nozzle a bit
G0 X2                                      ; move away from clips
G92 E0                                     ; zero the extruded length
G1 Y50 E25 F500                            ; Extrude 25mm of filament in a 5cm line.
G92 E0                                     ; zero the extruded length again
G1 E-2 F500                                ; Retract a little
G1 Y120 F4000                              ; Quickly wipe away from the filament line
G92 E0
G92 E0
G1 F1500 E-6
;LAYER_COUNT:25
;LAYER:0
M106 S76.5
M205 X10 Y10
G1 F600 Z0.375
G0 F6000 X66.114 Y106.572 Z0.375
M205 X8 Y8
;TYPE:SUPPORT-INTERFACE
G1 F600 Z0.3
G1 F1500 E0
G1 F1200 X66.465 Y106.464 E0.01832
G1 X66.59 Y106.532 E0.02542
G1 X66.6 Y107.001 E0.04882
G1 X67.217 Y106.811 E0.08103
G1 X67.342 Y106.879 E0.08813
G1 X67.347 Y107.112 E0.09976
G1 X67.109 Y107.527 E0.12363
G1 X66.698 Y107.873 E0.15043
G1 X66.348 Y107.981 E0.16871
G1 X66.222 Y107.913 E0.17585
G1 X66.212 Y107.444 E0.19925
G1 X65.594 Y107.634 E0.23151
G1 X65.561 Y107.616 E0.23338
G1 X65.6 Y107.099 E0.25925
G1 X65.703 Y106.918 E0.26964
G1 X66.114 Y106.572 E0.29644
M205 X10 Y10
G1 F1500 E-5.70356
G1 F600 Z0.375
G0 F6000 X65.956 Y108.295 Z0.375
M205 X8 Y8
G1 F600 Z0.3
G1 F1500 E0.29644
G1 F1200 X66.274 Y108.337 E0.31245
G1 X66.277 Y108.359 E0.31355
G1 X66.384 Y108.359 E0.31889
G1 X66.774 Y108.665 E0.34362
G1 X66.966 Y109.101 E0.36739
G1 X66.894 Y109.454 E0.38537
G1 X66.626 Y109.631 E0.40139
G1 X66.21 Y109.576 E0.42232
G1 X65.808 Y109.261 E0.4478
G1 X65.616 Y108.825 E0.47157
G1 X65.688 Y108.472 E0.48955
G1 X65.956 Y108.295 E0.50557
M205 X10 Y10
G1 F1500 E-5.49443
G1 F600 Z0.375
G0 F6000 X68.194 Y108.502 Z0.375
M205 X8 Y8
G1 F600 Z0.3
G1 F1500 E0.50557
G1 F1200 X68.545 Y108.394 E0.52389
G1 X68.67 Y108.462 E0.53099
G1 X68.675 Y108.695 E0.54262
G1 X68.437 Y109.11 E0.56648
G1 X68.026 Y109.456 E0.59329
G1 X67.675 Y109.564 E0.61161
G1 X67.55 Y109.496 E0.61871
G1 X67.545 Y109.263 E0.63034
G1 X67.784 Y108.847 E0.65427
G1 X68.194 Y108.502 E0.681
M205 X10 Y10
G1 F1500 E-5.319
G1 F600 Z0.375
G0 F6000 X68.094 Y106.1 Z0.375
M205 X8 Y8
G1 F600 Z0.3
G1 F1500 E0.681
G1 F1200 X68.51 Y106.155 E0.70194
G1 X68.912 Y106.47 E0.72742
G1 X69.104 Y106.906 E0.75119
G1 X69.032 Y107.259 E0.76916
G1 X68.764 Y107.436 E0.78518
G1 X68.348 Y107.381 E0.80612
G1 X67.946 Y107.066 E0.8316
G1 X67.754 Y106.63 E0.85537
G1 X67.826 Y106.277 E0.87334
G1 X68.094 Y106.1 E0.88936
M205 X10 Y10
G1 F1500 E-5.11064
G1 F600 Z0.375
G0 F6000 X155.616 Y106.341 Z0.375
M205 X8 Y8
G1 F600 Z0.3
G1 F1500 E0.88936
G1 F1200 X155.884 Y106.164 E0.90539
G1 X156.3 Y106.219 E0.92632
G1 X156.702 Y106.534 E0.9518
G1 X157.005 Y107.226 E0.98949
G1 X157.401 Y106.893 E1.0153
G1 X157.834 Y106.76 E1.0379
G1 X157.9 Y106.431 E1.05464
G1 X158.168 Y106.254 E1.07067
G1 X158.584 Y106.309 E1.0916
G1 X158.986 Y106.624 E1.11708
G1 X159.178 Y107.06 E1.14085
G1 X159.106 Y107.413 E1.15882
G1 X158.838 Y107.59 E1.17485
G1 X158.422 Y107.535 E1.19578
G1 X157.871 Y107.103 E1.23071
G1 X157.644 Y107.501 E1.25357
G1 X157.233 Y107.847 E1.28038
G1 X156.814 Y107.975 E1.30223
G1 X156.769 Y108.214 E1.31437
G1 X157.205 Y108.555 E1.34198
G1 X157.397 Y108.991 E1.36575
G1 X157.325 Y109.344 E1.38372
G1 X157.057 Y109.521 E1.39975
G1 X156.641 Y109.466 E1.42068
G1 X156.239 Y109.151 E1.44616
G1 X156.047 Y108.715 E1.46993
G1 X156.119 Y108.362 E1.4879
G1 X156.387 Y108.185 E1.50393
G1 X156.765 Y108.235 E1.52295
G1 X156.749 Y107.526 E1.55833
G1 X156.138 Y107.445 E1.58908
G1 X155.736 Y107.13 E1.61456
G1 X155.544 Y106.694 E1.63833
G1 X155.616 Y106.341 E1.6563
M205 X10 Y10
G1 F1500 E-4.3437
G1 F600 Z0.375
G0 F6000 X158.542 Y108.631 Z0.375
M205 X8 Y8
G1 F600 Z0.3
G1 F1500 E1.6563
G1 F1200 X158.953 Y108.285 E1.6831
G1 X159.304 Y108.177 E1.70143
G1 X159.429 Y108.245 E1.70853
G1 X159.434 Y108.478 E1.72015
G1 X159.196 Y108.893 E1.74402
G1 X158.785 Y109.239 E1.77082
G1 X158.434 Y109.347 E1.78915
G1 X158.309 Y109.279 E1.79624
G1 X158.304 Y109.046 E1.80787
G1 X158.542 Y108.631 E1.83174
M205 X10 Y10
G1 F1500 E-4.16826
G1 F600 Z0.375
G0 F6000 X157.045 Y107.695 Z0.375
M205 X8 Y8
G1 F600 Z0.3
G1 F1500 E1.83174
G1 F1200 X157.642 Y107.098 E1.87386
M205 X10 Y10
G0 F6000 X158.051 Y106.688
M205 X8 Y8
G1 F1200 X158.271 Y106.469 E1.88935
M205 X10 Y10
G1 F1500 E-4.11065
G1 F600 Z0.375
G0 F6000 X156.29 Y108.772 Z0.375
M205 X8 Y8
G1 F600 Z0.3
G1 F1500 E1.88935
G1 F1200 X156.803 Y109.285 E1.92554
M205 X10 Y10
G1 F1500 E-4.07446
G1 F600 Z0.375
G0 F6000 X68.263 Y108.992 Z0.375
M205 X8 Y8
G1 F600 Z0.3
G1 F1500 E1.92554
G1 F1200 X68.107 Y108.836 E1.93655
M205 X10 Y10
G1 F1500 E-4.06345
G1 F600 Z0.375
G0 F6000 X66.797 Y107.526 Z0.375
M205 X8 Y8
G1 F600 Z0.3
G1 F1500 E1.93655
G1 F1200 X66.509 Y107.238 E1.95687
G1 X66.402 Y107.132
G1 X66.108 Y106.838 E1.97761
M205 X10 Y10
G0 F6000 X66.393 Y106.706
M205 X8 Y8
G1 F1200 X65.784 Y107.315 E2.02058
M205 X10 Y10
G1 F1500 E-3.97942
G1 F600 Z0.375
;MESH:prisma-schwenkfuss-ringschwenkachsen.stl
G0 F6000 X108.838 Y158.864 Z0.375
M205 X8 Y8
;TYPE:WALL-INNER
G1 F600 Z0.3
G1 F1500 E2.02058
G1 F1200 X111.278 Y158.985 E2.14246
G1 X113.722 Y158.985 E2.26439
G1 X116.162 Y158.864 E2.38628
G1 X118.593 Y158.62 E2.50817
G1 X121.008 Y158.256 E2.63001
G1 X123.404 Y157.772 E2.75197
G1 X125.77 Y157.169 E2.87378
G1 X128.105 Y156.449 E2.99568
G1 X130.401 Y155.612 E3.11761
G1 X132.653 Y154.664 E3.23951
G1 X134.855 Y153.604 E3.36143
G1 X137 Y152.436 E3.48328
G1 X139.085 Y151.161 E3.60521
G1 X141.105 Y149.785 E3.72715
G1 X143.053 Y148.31 E3.84905
G1 X144.923 Y146.739 E3.9709
G1 X146.713 Y145.077 E4.09276
G1 X148.419 Y143.328 E4.21466
G1 X150.036 Y141.497 E4.33653
G1 X151.559 Y139.588 E4.45837
G1 X152.986 Y137.602 E4.58037
G1 X154.311 Y135.551 E4.70219
G1 X155.533 Y133.434 E4.82414
G1 X156.649 Y131.261 E4.94602
G1 X157.653 Y129.033 E5.06794
G1 X158.545 Y126.759 E5.1898
G1 X159.322 Y124.443 E5.31168
G1 X159.986 Y122.091 E5.43361
G1 X160.528 Y119.709 E5.55548
G1 X160.954 Y117.304 E5.67734
G1 X161.256 Y114.879 E5.79925
G1 X161.44 Y112.443 E5.92113
G1 X161.5 Y109.986 E6.04375
G1 X161.496 Y109.702 E6.05792
G1 X161.446 Y107.715 E6.15708
G1 X161.433 Y107.457 E6.16997
G1 X161.262 Y105.187 E6.28354
G1 X160.98 Y102.925 E6.39727
G1 X160.954 Y102.701 E6.40852
G1 X160.528 Y100.291 E6.53062
G1 X159.986 Y97.909 E6.65249
G1 X159.322 Y95.557 E6.77442
G1 X158.545 Y93.241 E6.8963
G1 X157.653 Y90.967 E7.01816
G1 X156.649 Y88.739 E7.14008
G1 X155.533 Y86.566 E7.26196
G1 X154.311 Y84.449 E7.38391
G1 X152.986 Y82.398 E7.50573
G1 X151.559 Y80.412 E7.62773
G1 X150.036 Y78.503 E7.74957
G1 X148.419 Y76.672 E7.87144
G1 X146.713 Y74.923 E7.99334
G1 X144.923 Y73.261 E8.1152
G1 X143.053 Y71.69 E8.23705
G1 X141.105 Y70.215 E8.35895
G1 X139.085 Y68.839 E8.48089
G1 X137 Y67.564 E8.60282
G1 X134.855 Y66.396 E8.72467
G1 X132.653 Y65.336 E8.84659
G1 X130.401 Y64.388 E8.96849
G1 X128.105 Y63.551 E9.09042
G1 X125.77 Y62.831 E9.21232
G1 X123.404 Y62.228 E9.33413
G1 X121.008 Y61.744 E9.45609
G1 X118.593 Y61.38 E9.57793
G1 X116.162 Y61.136 E9.69982
G1 X113.722 Y61.015 E9.82171
G1 X111.278 Y61.015 E9.94364
G1 X108.838 Y61.136 E10.06552
G1 X106.407 Y61.38 E10.18741
G1 X103.992 Y61.744 E10.30926
G1 X101.596 Y62.228 E10.43121
G1 X99.23 Y62.831 E10.55302
G1 X96.895 Y63.551 E10.67493
G1 X94.599 Y64.388 E10.79685
G1 X92.347 Y65.336 E10.91875
G1 X90.145 Y66.396 E11.04068
G1 X88 Y67.564 E11.16253
G1 X85.915 Y68.839 E11.28446
G1 X83.895 Y70.215 E11.40639
G1 X81.947 Y71.69 E11.5283
G1 X80.077 Y73.261 E11.65015
G1 X78.287 Y74.923 E11.77201
G1 X76.581 Y76.672 E11.8939
G1 X74.964 Y78.503 E12.01577
G1 X73.441 Y80.412 E12.13761
G1 X72.014 Y82.398 E12.25962
G1 X70.689 Y84.449 E12.38144
G1 X69.467 Y86.566 E12.50339
G1 X68.351 Y88.739 E12.62526
G1 X67.347 Y90.967 E12.74718
G1 X66.455 Y93.241 E12.86905
G1 X65.678 Y95.557 E12.99092
G1 X65.014 Y97.909 E13.11285
G1 X64.472 Y100.291 E13.23473
G1 X64.046 Y102.703 E13.35692
G1 X64.018 Y102.949 E13.36928
G1 X63.738 Y105.191 E13.482
G1 X63.562 Y107.538 E13.59942
G1 X63.553 Y107.744 E13.60971
G1 X63.504 Y109.702 E13.70742
G1 X63.5 Y109.979 E13.72124
G1 X63.56 Y112.443 E13.84421
G1 X63.744 Y114.879 E13.96609
G1 X64.046 Y117.304 E14.08801
G1 X64.472 Y119.709 E14.20986
G1 X65.014 Y122.091 E14.33174
G1 X65.678 Y124.443 E14.45366
G1 X66.455 Y126.759 E14.57554
G1 X67.347 Y129.033 E14.69741
G1 X68.351 Y131.261 E14.81933
G1 X69.467 Y133.434 E14.9412
G1 X70.689 Y135.551 E15.06315
G1 X72.014 Y137.602 E15.18497
G1 X73.441 Y139.588 E15.30698
G1 X74.964 Y141.497 E15.42881
G1 X76.581 Y143.328 E15.55068
G1 X78.287 Y145.077 E15.67258
G1 X80.077 Y146.739 E15.79444
G1 X81.947 Y148.31 E15.91629
G1 X83.895 Y149.785 E16.03819
G1 X85.915 Y151.161 E16.16013
G1 X88 Y152.436 E16.28206
G1 X90.145 Y153.604 E16.40391
G1 X92.347 Y154.664 E16.52583
G1 X94.599 Y155.612 E16.64774
G1 X96.895 Y156.449 E16.76966
G1 X99.23 Y157.169 E16.89156
G1 X101.596 Y157.772 E17.01338
G1 X103.992 Y158.256 E17.13533
G1 X106.407 Y158.62 E17.25717
G1 X108.838 Y158.864 E17.37907
M205 X10 Y10
G0 F6000 X108.868 Y158.465
M205 X8 Y8
G1 F1200 X111.288 Y158.585 E17.49995
G1 X113.712 Y158.585 E17.62088
G1 X116.132 Y158.465 E17.74177
G1 X118.543 Y158.223 E17.86266
G1 X120.939 Y157.862 E17.98354
G1 X123.315 Y157.382 E18.10448
G1 X125.662 Y156.784 E18.22531
G1 X127.978 Y156.07 E18.34622
G1 X130.255 Y155.24 E18.46713
G1 X132.489 Y154.299 E18.58807
G1 X134.672 Y153.248 E18.70895
G1 X136.8 Y152.089 E18.82984
G1 X138.868 Y150.825 E18.95076
G1 X140.871 Y149.46 E19.07169
G1 X142.803 Y147.997 E19.19259
G1 X144.658 Y146.439 E19.31345
G1 X146.434 Y144.791 E19.43432
G1 X148.126 Y143.056 E19.55523
G1 X149.73 Y141.24 E19.67611
G1 X151.24 Y139.346 E19.79696
G1 X152.655 Y137.377 E19.91793
G1 X153.97 Y135.342 E20.03881
G1 X155.182 Y133.243 E20.15973
G1 X156.288 Y131.087 E20.28062
G1 X157.284 Y128.878 E20.40151
G1 X158.169 Y126.622 E20.52241
G1 X158.94 Y124.325 E20.6433
G1 X159.598 Y121.992 E20.76423
G1 X160.136 Y119.63 E20.88509
G1 X160.558 Y117.244 E21.00597
G1 X160.858 Y114.839 E21.12689
G1 X161.04 Y112.423 E21.24777
G1 X161.1 Y109.984 E21.36949
G1 X161.096 Y109.71 E21.38316
G1 X161.046 Y107.73 E21.48197
G1 X161.034 Y107.482 E21.49436
G1 X160.864 Y105.227 E21.60718
G1 X160.583 Y102.975 E21.7204
G1 X160.558 Y102.759 E21.73125
G1 X160.136 Y100.37 E21.85229
G1 X159.598 Y98.008 E21.97314
G1 X158.94 Y95.675 E22.09408
G1 X158.169 Y93.378 E22.21496
G1 X157.284 Y91.122 E22.33586
G1 X156.288 Y88.913 E22.45675
G1 X155.182 Y86.757 E22.57764
G1 X153.97 Y84.658 E22.69857
G1 X152.655 Y82.623 E22.81945
G1 X151.24 Y80.654 E22.94042
G1 X149.73 Y78.76 E23.06126
G1 X148.126 Y76.944 E23.18214
G1 X146.434 Y75.209 E23.30305
G1 X144.658 Y73.561 E23.42393
G1 X142.803 Y72.003 E23.54478
G1 X140.871 Y70.54 E23.66569
G1 X138.868 Y69.175 E23.78662
G1 X136.8 Y67.911 E23.90754
G1 X134.672 Y66.752 E24.02843
G1 X132.489 Y65.701 E24.1493
G1 X130.255 Y64.76 E24.27024
G1 X127.978 Y63.93 E24.39115
G1 X125.662 Y63.216 E24.51207
G1 X123.315 Y62.618 E24.6329
G1 X120.939 Y62.138 E24.75383
G1 X118.543 Y61.777 E24.87472
G1 X116.132 Y61.535 E24.99561
G1 X113.712 Y61.415 E25.11649
G1 X111.288 Y61.415 E25.23742
G1 X108.868 Y61.535 E25.35831
G1 X106.457 Y61.777 E25.4792
G1 X104.061 Y62.138 E25.60008
G1 X101.685 Y62.618 E25.72102
G1 X99.338 Y63.216 E25.84185
G1 X97.022 Y63.93 E25.96276
G1 X94.745 Y64.76 E26.08367
G1 X92.511 Y65.701 E26.20461
G1 X90.328 Y66.752 E26.32549
G1 X88.2 Y67.911 E26.44638
G1 X86.132 Y69.175 E26.5673
G1 X84.129 Y70.54 E26.68823
G1 X82.197 Y72.003 E26.80913
G1 X80.342 Y73.561 E26.92999
G1 X78.566 Y75.209 E27.05086
G1 X76.874 Y76.944 E27.17177
G1 X75.27 Y78.76 E27.29265
G1 X73.76 Y80.654 E27.4135
G1 X72.345 Y82.623 E27.53447
G1 X71.03 Y84.658 E27.65535
G1 X69.818 Y86.757 E27.77627
G1 X68.712 Y88.913 E27.89716
G1 X67.716 Y91.122 E28.01805
G1 X66.831 Y93.378 E28.13896
G1 X66.06 Y95.675 E28.25984
G1 X65.402 Y98.008 E28.38077
G1 X64.864 Y100.37 E28.50163
G1 X64.442 Y102.76 E28.62271
G1 X64.415 Y102.999 E28.63471
G1 X64.136 Y105.231 E28.74693
G1 X63.961 Y107.561 E28.86351
G1 X63.953 Y107.757 E28.87329
G1 X63.904 Y109.71 E28.97076
G1 X63.9 Y109.977 E28.98408
G1 X63.96 Y112.423 E29.10615
G1 X64.142 Y114.839 E29.22702
G1 X64.442 Y117.244 E29.34794
G1 X64.864 Y119.63 E29.46883
G1 X65.402 Y121.992 E29.58968
G1 X66.06 Y124.325 E29.71062
G1 X66.831 Y126.622 E29.8315
G1 X67.716 Y128.878 E29.9524
G1 X68.712 Y131.087 E30.0733
G1 X69.818 Y133.243 E30.19419
G1 X71.03 Y135.342 E30.31511
G1 X72.345 Y137.377 E30.43599
G1 X73.76 Y139.346 E30.55696
G1 X75.27 Y141.24 E30.6778
G1 X76.874 Y143.056 E30.79869
G1 X78.566 Y144.791 E30.91959
G1 X80.342 Y146.439 E31.04047
G1 X82.197 Y147.997 E31.16132
G1 X84.129 Y149.46 E31.28223
G1 X86.132 Y150.825 E31.40316
G1 X88.2 Y152.089 E31.52408
G1 X90.328 Y153.248 E31.64497
G1 X92.511 Y154.299 E31.76584
G1 X94.745 Y155.24 E31.88678
G1 X97.022 Y156.07 E32.00769
G1 X99.338 Y156.784 E32.12861
G1 X101.685 Y157.382 E32.24944
G1 X104.061 Y157.862 E32.37037
G1 X106.457 Y158.223 E32.49126
G1 X108.868 Y158.465 E32.61215
M205 X10 Y10
G0 F6000 X108.898 Y158.066
M205 X8 Y8
;TYPE:WALL-OUTER
G1 F1200 X111.298 Y158.185 E32.73203
G1 X113.702 Y158.185 E32.85197
G1 X116.102 Y158.066 E32.97185
G1 X118.493 Y157.826 E33.09174
G1 X120.87 Y157.468 E33.21167
G1 X123.226 Y156.992 E33.33158
G1 X125.554 Y156.399 E33.45144
G1 X127.851 Y155.691 E33.57135
G1 X130.109 Y154.868 E33.69125
G1 X132.324 Y153.934 E33.81118
G1 X134.489 Y152.892 E33.93106
G1 X136.6 Y151.742 E34.05099
G1 X138.651 Y150.489 E34.1709
G1 X140.637 Y149.135 E34.29081
G1 X142.553 Y147.684 E34.41072
G1 X144.393 Y146.139 E34.53059
G1 X146.155 Y144.505 E34.65048
G1 X147.833 Y142.784 E34.7704
G1 X149.423 Y140.983 E34.89025
G1 X150.921 Y139.104 E35.01014
G1 X152.324 Y137.152 E35.13007
G1 X153.629 Y135.133 E35.25001
G1 X154.831 Y133.052 E35.36991
G1 X155.927 Y130.913 E35.48982
G1 X156.915 Y128.723 E35.60968
G1 X157.793 Y126.485 E35.72962
G1 X158.558 Y124.207 E35.84951
G1 X159.21 Y121.893 E35.96945
G1 X159.744 Y119.551 E36.08929
G1 X160.162 Y117.184 E36.20921
G1 X160.46 Y114.799 E36.32912
G1 X160.64 Y112.403 E36.44899
G1 X160.7 Y109.982 E36.56981
G1 X160.696 Y109.718 E36.58299
G1 X160.646 Y107.744 E36.6815
G1 X160.635 Y107.506 E36.69339
G1 X160.466 Y105.267 E36.80541
G1 X160.186 Y103.025 E36.91813
G1 X160.162 Y102.817 E36.92858
G1 X159.744 Y100.449 E37.04855
G1 X159.21 Y98.107 E37.16839
G1 X158.558 Y95.793 E37.28833
G1 X157.793 Y93.515 E37.40822
G1 X156.915 Y91.277 E37.52815
G1 X155.927 Y89.087 E37.64802
G1 X154.831 Y86.948 E37.76793
G1 X153.629 Y84.867 E37.88782
G1 X152.324 Y82.848 E38.00776
G1 X150.921 Y80.896 E38.12769
G1 X149.423 Y79.017 E38.24758
G1 X147.833 Y77.216 E38.36744
G1 X146.155 Y75.495 E38.48736
G1 X144.393 Y73.861 E38.60724
G1 X142.553 Y72.316 E38.72711
G1 X140.637 Y70.865 E38.84702
G1 X138.651 Y69.511 E38.96694
G1 X136.6 Y68.258 E39.08685
G1 X134.489 Y67.108 E39.20678
G1 X132.324 Y66.066 E39.32665
G1 X130.109 Y65.132 E39.44658
G1 X127.851 Y64.309 E39.56648
G1 X125.554 Y63.601 E39.6864
G1 X123.226 Y63.008 E39.80625
G1 X120.87 Y62.532 E39.92617
G1 X118.493 Y62.174 E40.0461
G1 X116.102 Y61.934 E40.16598
G1 X113.702 Y61.815 E40.28587
G1 X111.298 Y61.815 E40.4058
G1 X108.898 Y61.934 E40.52569
G1 X106.507 Y62.174 E40.64557
G1 X104.13 Y62.532 E40.7655
