;FLAVOR:Marlin
;TIME:1996
;Filament used: 1.38965m
;Layer height: 0.2
;MINX:60.7
;MINY:78.207
;MINZ:0.3
;MAXX:164.3
;MAXY:141.793
;MAXZ:5.175
;Generated with Cura_SteamEngine 4.13.1
M140 S60
M105
M190 S60
M104 S200
M105
M109 S200
M82 ;absolute extrusion mode
G21                                        ; metric values
G90                                        ; absolute positioning
M82                                        ; set extruder to absolute mode
M107                                       ; start with the fan off
M190 S60                                   ; preheat and wait for bed
M109 S210                                  ; preheat and wait for hotend
M300 S1000 P500                            ; BEEP heating done
G28 X0 Y10 Z0                              ; move X/Y to min endstops
M420 S1                                    ; enable mesh leveling
G0 Z0.15                                   ; lift nozzle a bit
G0 X2                                      ; move away from clips
G92 E0                                     ; zero the extruded length
G1 Y50 E25 F500                            ; Extrude 25mm of filament in a 5cm line.
G92 E0                                     ; zero the extruded length again
G1 E-2 F500                                ; Retract a little
G1 Y120 F4000                              ; Quickly wipe away from the filament line
G92 E0
G92 E0
G1 F1500 E-6
;LAYER_COUNT:25
;LAYER:0
M106 S76.5
M205 X10 Y10
G1 F600 Z0.375
G0 F6000 X67.294 Y138.675 Z0.375
M205 X8 Y8
;TYPE:SUPPORT-INTERFACE
G1 F600 Z0.3
G1 F1500 E0
G1 F1200 X67.645 Y138.567 E0.01832
G1 X67.77 Y138.635 E0.02542
G1 X67.775 Y138.866 E0.03695
G1 X67.537 Y139.283 E0.0609
G1 X67.126 Y139.629 E0.08771
G1 X66.775 Y139.737 E0.10603
G1 X66.65 Y139.669 E0.11313
G1 X66.645 Y139.436 E0.12475
G1 X66.883 Y139.021 E0.14862
G1 X67.294 Y138.675 E0.17543
M205 X10 Y10
G0 F6000 X68.688 Y138.193
M205 X8 Y8
G1 F1200 X69.104 Y138.138 E0.19636
G1 X69.372 Y138.315 E0.21238
G1 X69.444 Y138.668 E0.23036
G1 X69.252 Y139.104 E0.25413
G1 X68.85 Y139.419 E0.2796
G1 X68.434 Y139.474 E0.30054
G1 X68.166 Y139.297 E0.31656
G1 X68.095 Y138.945 E0.33448
G1 X68.286 Y138.508 E0.35827
G1 X68.688 Y138.193 E0.38375
M205 X10 Y10
G1 F1500 E-5.61625
G1 F600 Z0.375
G0 F6000 X66.602 Y140.241 Z0.375
M205 X8 Y8
G1 F600 Z0.3
G1 F1500 E0.38375
G1 F1200 X66.953 Y140.133 E0.40207
G1 X67.078 Y140.201 E0.40917
G1 X67.082 Y140.376 E0.41791
G1 X67.311 Y140.406 E0.42943
G1 X67.713 Y140.721 E0.45491
G1 X67.905 Y141.157 E0.47868
G1 X67.833 Y141.51 E0.49665
G1 X67.565 Y141.687 E0.51267
G1 X67.149 Y141.632 E0.53361
G1 X66.747 Y141.317 E0.55909
G1 X66.626 Y141.04 E0.57417
G1 X66.436 Y141.194 E0.58637
G1 X66.083 Y141.303 E0.6048
G1 X65.958 Y141.235 E0.6119
G1 X65.953 Y141.002 E0.62353
G1 X66.191 Y140.587 E0.6474
G1 X66.602 Y140.241 E0.6742
M205 X10 Y10
G1 F1500 E-5.3258
G1 F600 Z0.375
G0 F6000 X155.748 Y138.508 Z0.375
M205 X8 Y8
G1 F600 Z0.3
G1 F1500 E0.6742
G1 F1200 X156.15 Y138.193 E0.69968
G1 X156.566 Y138.138 E0.72061
G1 X156.834 Y138.315 E0.73664
G1 X156.906 Y138.668 E0.75461
G1 X156.714 Y139.104 E0.77838
G1 X156.312 Y139.419 E0.80386
G1 X155.896 Y139.474 E0.82479
G1 X155.628 Y139.297 E0.84082
G1 X155.556 Y138.944 E0.85879
G1 X155.748 Y138.508 E0.88256
M205 X10 Y10
G1 F1500 E-5.11744
G1 F600 Z0.375
G0 F6000 X157.345 Y139.008 Z0.375
M205 X8 Y8
G1 F600 Z0.3
G1 F1500 E0.88256
G1 F1200 X157.756 Y138.662 E0.90936
G1 X158.107 Y138.554 E0.92768
G1 X158.232 Y138.622 E0.93478
G1 X158.234 Y138.715 E0.93942
G1 X158.464 Y138.818 E0.952
G1 X158.612 Y138.693 E0.96166
G1 X158.963 Y138.585 E0.97998
G1 X159.088 Y138.653 E0.98708
G1 X159.093 Y138.886 E0.99871
G1 X158.855 Y139.301 E1.02258
G1 X158.444 Y139.647 E1.04938
G1 X158.093 Y139.755 E1.0677
G1 X157.968 Y139.687 E1.0748
G1 X157.966 Y139.594 E1.07944
G1 X157.736 Y139.491 E1.09202
G1 X157.588 Y139.616 E1.10168
G1 X157.237 Y139.724 E1.12
G1 X157.112 Y139.656 E1.1271
G1 X157.107 Y139.423 E1.13873
G1 X157.345 Y139.008 E1.1626
M205 X10 Y10
G1 F1500 E-4.8374
G1 F600 Z0.375
G0 F6000 X156.807 Y140.533 Z0.375
M205 X8 Y8
G1 F600 Z0.3
G1 F1500 E1.1626
G1 F1200 X157.218 Y140.187 E1.1894
G1 X157.569 Y140.079 E1.20772
G1 X157.693 Y140.147 E1.21478
G1 X157.697 Y140.315 E1.22316
G1 X158.183 Y140.695 E1.25394
G1 X158.374 Y141.13 E1.27764
G1 X158.302 Y141.483 E1.29561
G1 X158.034 Y141.66 E1.31164
G1 X157.618 Y141.605 E1.33257
G1 X157.216 Y141.291 E1.35802
G1 X157.138 Y141.114 E1.36767
G1 X156.699 Y141.249 E1.39059
G1 X156.574 Y141.181 E1.39769
G1 X156.569 Y140.948 E1.40931
G1 X156.807 Y140.533 E1.43318
M205 X10 Y10
G0 F6000 X157.331 Y140.36
M205 X8 Y8
G1 F1200 X158.157 Y141.187 E1.49149
M205 X10 Y10
G0 F6000 X157.93 Y140.751
M205 X8 Y8
G1 F1200 X157.456 Y141.225 E1.52494
M205 X10 Y10
G1 F1500 E-4.47506
G1 F600 Z0.375
G0 F6000 X156.202 Y139.231 Z0.375
M205 X8 Y8
G1 F600 Z0.3
G1 F1500 E1.52494
G1 F1200 X155.816 Y138.846 E1.55214
M205 X10 Y10
G0 F6000 X156.033 Y139.254
M205 X8 Y8
G1 F1200 X156.687 Y138.6 E1.59828
M205 X10 Y10
G1 F1500 E-4.40172
G1 F600 Z0.375
G0 F6000 X66.341 Y141.011 Z0.375
M205 X8 Y8
G1 F600 Z0.3
G1 F1500 E1.59828
G1 F1200 X66.236 Y140.906 E1.60569
M205 X10 Y10
G1 F1500 E-4.39431
G1 F600 Z0.375
;MESH:prisma-schwenkfuss-halbring.stl
G0 F6000 X162.5 Y140.057 Z0.375
M205 X8 Y8
;TYPE:WALL-INNER
G1 F600 Z0.3
G1 F1500 E1.60569
G1 F1200 X162.5 Y140.993 E1.65239
G1 X161.5 Y140.993 E1.70228
G1 X161.5 Y129.98 E2.25172
G1 X161.44 Y127.55 E2.37299
G1 X161.256 Y125.114 E2.49487
G1 X160.954 Y122.689 E2.61678
G1 X160.528 Y120.284 E2.73864
G1 X159.986 Y117.901 E2.86056
G1 X159.322 Y115.55 E2.98244
G1 X158.545 Y113.234 E3.10432
G1 X157.653 Y110.96 E3.22618
G1 X156.648 Y108.731 E3.34817
G1 X155.533 Y106.559 E3.46998
G1 X154.311 Y104.442 E3.59193
G1 X152.986 Y102.39 E3.71379
G1 X151.559 Y100.405 E3.83575
G1 X150.036 Y98.496 E3.95759
G1 X148.419 Y96.665 E4.07946
G1 X146.713 Y94.916 E4.20136
G1 X144.923 Y93.253 E4.32325
G1 X143.05 Y91.683 E4.44518
G1 X141.105 Y90.208 E4.56697
G1 X139.085 Y88.832 E4.68891
G1 X137 Y87.557 E4.81083
G1 X134.855 Y86.389 E4.93268
G1 X132.653 Y85.329 E5.05461
G1 X130.401 Y84.381 E5.17651
G1 X128.105 Y83.544 E5.29843
G1 X125.77 Y82.824 E5.42034
G1 X123.404 Y82.221 E5.54215
G1 X121.01 Y81.737 E5.66401
G1 X118.593 Y81.372 E5.78596
G1 X116.162 Y81.129 E5.90785
G1 X113.722 Y81.008 E6.02973
G1 X111.278 Y81.008 E6.15166
G1 X108.838 Y81.129 E6.27354
G1 X106.406 Y81.372 E6.39548
G1 X103.99 Y81.737 E6.51738
G1 X101.596 Y82.221 E6.63923
G1 X99.23 Y82.824 E6.76105
G1 X96.895 Y83.544 E6.88295
G1 X94.599 Y84.381 E7.00488
G1 X92.347 Y85.329 E7.12678
G1 X90.145 Y86.389 E7.2487
G1 X88 Y87.557 E7.37055
G1 X85.915 Y88.832 E7.49248
G1 X83.895 Y90.208 E7.61442
G1 X81.949 Y91.683 E7.73624
G1 X80.077 Y93.253 E7.85813
G1 X78.287 Y94.916 E7.98003
G1 X76.58 Y96.665 E8.10196
G1 X74.963 Y98.496 E8.22383
G1 X73.441 Y100.405 E8.34564
G1 X72.013 Y102.39 E8.46763
G1 X70.689 Y104.442 E8.58947
G1 X69.467 Y106.559 E8.71142
G1 X68.351 Y108.731 E8.83325
G1 X67.347 Y110.96 E8.95521
G1 X66.455 Y113.234 E9.07708
G1 X65.677 Y115.55 E9.19897
G1 X65.014 Y117.901 E9.32084
G1 X64.472 Y120.284 E9.44276
G1 X64.046 Y122.689 E9.56461
G1 X63.743 Y125.114 E9.68654
G1 X63.56 Y127.55 E9.80841
G1 X63.5 Y129.98 E9.92968
G1 X63.5 Y140.993 E10.47912
G1 X62.5 Y140.993 E10.52901
G1 X62.5 Y140.057 E10.57571
G1 X62.049 Y137.455 E10.70746
G1 X61.737 Y134.918 E10.83499
G1 X61.557 Y132.394 E10.96123
G1 X61.5 Y129.872 E11.08708
G1 X61.57 Y127.323 E11.2143
G1 X61.765 Y124.799 E11.3406
G1 X62.087 Y122.28 E11.4673
G1 X62.542 Y119.74 E11.59604
G1 X63.117 Y117.254 E11.72334
G1 X63.803 Y114.839 E11.84859
G1 X64.625 Y112.416 E11.97624
G1 X65.56 Y110.052 E12.10307
G1 X66.595 Y107.774 E12.2279
G1 X67.782 Y105.472 E12.35712
G1 X69.033 Y103.319 E12.48135
G1 X70.443 Y101.146 E12.61058
G1 X71.9 Y99.126 E12.73484
G1 X73.514 Y97.113 E12.86356
G1 X75.18 Y95.234 E12.98885
G1 X76.979 Y93.398 E13.11709
G1 X78.824 Y91.694 E13.24239
G1 X80.795 Y90.046 E13.37056
G1 X82.799 Y88.534 E13.49581
G1 X84.909 Y87.102 E13.62303
G1 X87.082 Y85.779 E13.74996
G1 X89.328 Y84.562 E13.8774
G1 X91.612 Y83.468 E14.00375
G1 X93.966 Y82.48 E14.13111
G1 X96.353 Y81.616 E14.25776
G1 X98.745 Y80.883 E14.38258
G1 X101.248 Y80.25 E14.51138
G1 X103.699 Y79.759 E14.6361
G1 X106.261 Y79.376 E14.76533
G1 X108.739 Y79.132 E14.88956
G1 X111.325 Y79.007 E15.01873
G1 X113.855 Y79.011 E15.14495
G1 X116.366 Y79.14 E15.27039
G1 X118.924 Y79.399 E15.39866
G1 X121.405 Y79.776 E15.52386
G1 X123.889 Y80.283 E15.65034
G1 X126.395 Y80.923 E15.77938
G1 X128.774 Y81.659 E15.90362
G1 X131.207 Y82.548 E16.03285
G1 X133.515 Y83.523 E16.15785
G1 X135.799 Y84.627 E16.28441
G1 X138.051 Y85.856 E16.41241
G1 X140.212 Y87.18 E16.53885
G1 X142.294 Y88.601 E16.6646
G1 X144.341 Y90.155 E16.79282
G1 X146.258 Y91.764 E16.91769
G1 X148.125 Y93.499 E17.04484
G1 X149.926 Y95.348 E17.17362
G1 X151.573 Y97.216 E17.29786
G1 X153.171 Y99.222 E17.42582
G1 X154.64 Y101.266 E17.5514
G1 X156.018 Y103.4 E17.67813
G1 X157.307 Y105.635 E17.80685
G1 X158.451 Y107.869 E17.93207
G1 X159.508 Y110.213 E18.06035
G1 X160.422 Y112.541 E18.18513
G1 X161.231 Y114.949 E18.31186
G1 X161.922 Y117.405 E18.43915
G1 X162.494 Y119.911 E18.56739
G1 X162.929 Y122.385 E18.69271
G1 X163.247 Y124.915 E18.81992
G1 X163.435 Y127.428 E18.94565
G1 X163.5 Y130.008 E19.07441
G1 X163.437 Y132.502 E19.19887
G1 X163.254 Y134.993 E19.32348
G1 X162.946 Y137.492 E19.4491
G1 X162.5 Y140.057 E19.57899
M205 X10 Y10
G0 F6000 X162.9 Y140.091
M205 X8 Y8
G1 F1200 X162.9 Y141.393 E19.64395
G1 X161.1 Y141.393 E19.73375
G1 X161.1 Y129.985 E20.3029
G1 X161.04 Y127.57 E20.42342
G1 X160.858 Y125.154 E20.5443
G1 X160.558 Y122.749 E20.66521
G1 X160.136 Y120.363 E20.7861
G1 X159.598 Y118 E20.90701
G1 X158.94 Y115.668 E21.02789
G1 X158.169 Y113.371 E21.14877
G1 X157.284 Y111.115 E21.26968
G1 X156.287 Y108.905 E21.39063
G1 X155.182 Y106.75 E21.51146
G1 X153.97 Y104.651 E21.63238
G1 X152.655 Y102.615 E21.7533
G1 X151.24 Y100.647 E21.87423
G1 X149.73 Y98.753 E21.99508
G1 X148.126 Y96.937 E22.11596
G1 X146.434 Y95.202 E22.23686
G1 X144.658 Y93.553 E22.35777
G1 X142.801 Y91.996 E22.47868
G1 X140.871 Y90.533 E22.5995
G1 X138.868 Y89.168 E22.72043
G1 X136.8 Y87.904 E22.84135
G1 X134.672 Y86.745 E22.96224
G1 X132.489 Y85.694 E23.08312
G1 X130.255 Y84.753 E23.20405
G1 X127.978 Y83.923 E23.32497
G1 X125.662 Y83.209 E23.44588
G1 X123.315 Y82.611 E23.56671
G1 X120.94 Y82.131 E23.6876
G1 X118.543 Y81.769 E23.80854
G1 X116.132 Y81.528 E23.92942
G1 X113.712 Y81.408 E24.05031
G1 X111.288 Y81.408 E24.17124
G1 X108.868 Y81.528 E24.29212
G1 X106.456 Y81.769 E24.41306
G1 X104.06 Y82.131 E24.53395
G1 X101.685 Y82.611 E24.65484
G1 X99.338 Y83.209 E24.77567
G1 X97.022 Y83.923 E24.89658
G1 X94.745 Y84.753 E25.01749
G1 X92.511 Y85.694 E25.13843
G1 X90.328 Y86.745 E25.25931
G1 X88.2 Y87.904 E25.3802
G1 X86.132 Y89.168 E25.50112
G1 X84.129 Y90.533 E25.62205
G1 X82.198 Y91.996 E25.74291
G1 X80.342 Y93.553 E25.86377
G1 X78.566 Y95.202 E25.98468
G1 X76.873 Y96.937 E26.10562
G1 X75.27 Y98.753 E26.22647
G1 X73.76 Y100.647 E26.34732
G1 X72.344 Y102.615 E26.46828
G1 X71.03 Y104.651 E26.58917
G1 X69.818 Y106.75 E26.71009
G1 X68.712 Y108.905 E26.83094
G1 X67.716 Y111.115 E26.95188
G1 X66.831 Y113.371 E27.07278
G1 X66.059 Y115.668 E27.19368
G1 X65.402 Y118 E27.31455
G1 X64.864 Y120.363 E27.43546
G1 X64.442 Y122.749 E27.55634
G1 X64.141 Y125.154 E27.67727
G1 X63.96 Y127.57 E27.79814
G1 X63.9 Y129.985 E27.91866
G1 X63.9 Y141.393 E28.48781
G1 X62.1 Y141.393 E28.57761
G1 X62.1 Y140.091 E28.64257
G1 X61.653 Y137.51 E28.77325
G1 X61.339 Y134.956 E28.90163
G1 X61.157 Y132.412 E29.02888
G1 X61.1 Y129.861 E29.15618
G1 X61.171 Y127.292 E29.28439
G1 X61.368 Y124.748 E29.41169
G1 X61.693 Y122.209 E29.5394
G1 X62.148 Y119.669 E29.66814
G1 X62.727 Y117.164 E29.79641
G1 X63.424 Y114.71 E29.92368
G1 X64.246 Y112.287 E30.05133
G1 X65.188 Y109.905 E30.17912
G1 X66.239 Y107.591 E30.30592
G1 X67.426 Y105.289 E30.43514
G1 X68.697 Y103.101 E30.56138
G1 X70.107 Y100.928 E30.69061
G1 X71.588 Y98.876 E30.81687
G1 X73.202 Y96.863 E30.94559
G1 X74.894 Y94.954 E31.07285
G1 X76.693 Y93.118 E31.2011
G1 X78.567 Y91.387 E31.32837
G1 X80.538 Y89.739 E31.45655
G1 X82.574 Y88.203 E31.58379
G1 X84.693 Y86.765 E31.71155
G1 X86.886 Y85.43 E31.83964
G1 X89.143 Y84.207 E31.96771
G1 X91.447 Y83.103 E32.09517
G1 X93.811 Y82.111 E32.22308
G1 X96.22 Y81.239 E32.35089
G1 X98.647 Y80.495 E32.47754
G1 X101.154 Y79.861 E32.60655
G1 X103.64 Y79.363 E32.73304
G1 X106.202 Y78.98 E32.86228
G1 X108.72 Y78.732 E32.98851
G1 X111.307 Y78.607 E33.11773
G1 X113.857 Y78.611 E33.24495
G1 X116.406 Y78.742 E33.37229
G1 X118.964 Y79.001 E33.50056
G1 X121.485 Y79.384 E33.62777
G1 X123.986 Y79.894 E33.75512
G1 X126.494 Y80.535 E33.88426
G1 X128.911 Y81.283 E34.01049
G1 X131.344 Y82.172 E34.13972
G1 X133.682 Y83.16 E34.26635
G1 X135.986 Y84.273 E34.39401
G1 X138.249 Y85.508 E34.52263
G1 X140.43 Y86.844 E34.65023
G1 X142.536 Y88.282 E34.77746
G1 X144.583 Y89.836 E34.90568
G1 X146.53 Y91.471 E35.03252
G1 X148.412 Y93.22 E35.1607
G1 X150.213 Y95.069 E35.28948
G1 X151.886 Y96.967 E35.4157
G1 X153.489 Y98.979 E35.54404
G1 X154.976 Y101.049 E35.6712
G1 X156.365 Y103.2 E35.79895
G1 X157.654 Y105.435 E35.92767
G1 X158.816 Y107.705 E36.05489
G1 X159.873 Y110.049 E36.18317
G1 X160.801 Y112.414 E36.30992
G1 X161.616 Y114.841 E36.43765
G1 X162.312 Y117.316 E36.56592
G1 X162.884 Y119.822 E36.69416
G1 X163.326 Y122.335 E36.82146
G1 X163.645 Y124.875 E36.94917
G1 X163.835 Y127.418 E37.0764
G1 X163.9 Y129.998 E37.20516
G1 X163.837 Y132.52 E37.33102
G1 X163.652 Y135.031 E37.45663
G1 X163.342 Y137.547 E37.58311
G1 X162.9 Y140.091 E37.71193
M205 X10 Y10
G0 F6000 X163.3 Y140.125
M205 X8 Y8
;TYPE:WALL-OUTER
G1 F1200 X163.3 Y141.793 E37.79514
G1 X160.7 Y141.793 E37.92486
G1 X160.7 Y129.99 E38.51371
G1 X160.64 Y127.59 E38.63349
G1 X160.46 Y125.194 E38.75336
G1 X160.162 Y122.809 E38.87327
G1 X159.744 Y120.442 E38.99319
G1 X159.21 Y118.099 E39.11308
G1 X158.558 Y115.786 E39.23297
G1 X157.793 Y113.508 E39.35286
G1 X156.915 Y111.27 E39.4728
G1 X155.926 Y109.079 E39.59273
G1 X154.831 Y106.941 E39.71257
G1 X153.629 Y104.86 E39.83247
G1 X152.324 Y102.84 E39.95245
G1 X150.921 Y100.889 E40.07234
G1 X149.423 Y99.01 E40.19223
G1 X147.833 Y97.209 E40.31208
G1 X146.155 Y95.488 E40.432
G1 X144.393 Y93.853 E40.55193
G1 X142.552 Y92.309 E40.6718
G1 X140.637 Y90.858 E40.79167
G1 X138.651 Y89.504 E40.91158
G1 X136.6 Y88.251 E41.03149
G1 X134.489 Y87.101 E41.15143
G1 X132.324 Y86.059 E41.2713
G1 X130.109 Y85.125 E41.39123
G1 X127.851 Y84.302 E41.51113
G1 X125.554 Y83.594 E41.63105
G1 X123.226 Y83.001 E41.7509
G1 X120.87 Y82.525 E41.87082
G1 X118.493 Y82.166 E41.99075
G1 X116.102 Y81.927 E42.11063
G1 X113.702 Y81.808 E42.23052
G1 X111.298 Y81.808 E42.35045
G1 X108.898 Y81.927 E42.47033
G1 X106.506 Y82.166 E42.59027
G1 X104.13 Y82.525 E42.71015
G1 X101.774 Y83.001 E42.83007
G1 X99.446 Y83.594 E42.94992
G1 X97.149 Y84.302 E43.06984
G1 X94.891 Y85.125 E43.18974
G1 X92.676 Y86.059 E43.30967
G1 X90.511 Y87.101 E43.42954
G1 X88.4 Y88.251 E43.54947
G1 X86.349 Y89.504 E43.66938
G1 X84.363 Y90.858 E43.7893
G1 X82.447 Y92.309 E43.90921
G1 X80.607 Y93.853 E44.02904
G1 X78.845 Y95.488 E44.14897
G1 X77.166 Y97.209 E44.26892
G1 X75.577 Y99.01 E44.38874
G1 X74.079 Y100.889 E44.50863
G1 X72.675 Y102.84 E44.62855
G1 X71.371 Y104.86 E44.7485
G1 X70.169 Y106.941 E44.8684
G1 X69.073 Y109.079 E44.98826
G1 X68.085 Y111.27 E45.10817
G1 X67.207 Y113.508 E45.22811
G1 X66.441 Y115.786 E45.34802
G1 X65.79 Y118.099 E45.4679
G1 X65.256 Y120.442 E45.58779
G1 X64.838 Y122.809 E45.7077
G1 X64.539 Y125.194 E45.82762
G1 X64.36 Y127.59 E45.94749
G1 X64.3 Y129.99 E46.06727
G1 X64.3 Y141.793 E46.65612
G1 X61.7 Y141.793 E46.78583
G1 X61.7 Y140.125 E46.86905
G1 X61.257 Y137.565 E46.99867
G1 X60.941 Y134.994 E47.1279
G1 X60.757 Y132.43 E47.25615
G1 X60.7 Y129.85 E47.3849
G1 X60.772 Y127.261 E47.51411
G1 X60.971 Y124.697 E47.64242
G1 X61.299 Y122.138 E47.77113
G1 X61.754 Y119.598 E47.89987
G1 X62.337 Y117.074 E48.02911
G1 X63.039 Y114.601 E48.15736
G1 X63.867 Y112.158 E48.28605
G1 X64.816 Y109.758 E48.41481
