;FLAVOR:Marlin
;TIME:1381
;Filament used: 0.992212m
;Layer height: 0.2
;MINX:61.709
;MINY:84.726
;MINZ:0.3
;MAXX:163.291
;MAXY:135.321
;MAXZ:5.175
;Generated with Cura_SteamEngine 4.13.1
M140 S60
M105
M190 S60
M104 S200
M105
M109 S200
M82 ;absolute extrusion mode
G21                                        ; metric values
G90                                        ; absolute positioning
M82                                        ; set extruder to absolute mode
M107                                       ; start with the fan off
M190 S60                                   ; preheat and wait for bed
M109 S210                                  ; preheat and wait for hotend
M300 S1000 P500                            ; BEEP heating done
G28 X0 Y10 Z0                              ; move X/Y to min endstops
M420 S1                                    ; enable mesh leveling
G0 Z0.15                                   ; lift nozzle a bit
G0 X2                                      ; move away from clips
G92 E0                                     ; zero the extruded length
G1 Y50 E25 F500                            ; Extrude 25mm of filament in a 5cm line.
G92 E0                                     ; zero the extruded length again
G1 E-2 F500                                ; Retract a little
G1 Y120 F4000                              ; Quickly wipe away from the filament line
G92 E0
G92 E0
G1 F1500 E-6
;LAYER_COUNT:25
;LAYER:0
M106 S76.5
M205 X10 Y10
G1 F600 Z0.375
G0 F6000 X66.006 Y132.168 Z0.375
M205 X8 Y8
;TYPE:SUPPORT-INTERFACE
G1 F600 Z0.3
G1 F1500 E0
G1 F1200 X66.357 Y132.06 E0.01832
G1 X66.482 Y132.128 E0.02542
G1 X66.487 Y132.361 E0.03705
G1 X66.249 Y132.776 E0.06092
G1 X65.838 Y133.122 E0.08772
G1 X65.596 Y133.196 E0.10034
G1 X65.629 Y132.485 E0.13585
G1 X66.006 Y132.168 E0.16043
M205 X10 Y10
G1 F1500 E-5.83957
G1 F600 Z0.375
G0 F6000 X65.928 Y133.749 Z0.375
M205 X8 Y8
G1 F600 Z0.3
G1 F1500 E0.16043
G1 F1200 X66.344 Y133.804 E0.18136
G1 X66.746 Y134.119 E0.20684
G1 X66.938 Y134.555 E0.23061
G1 X66.866 Y134.908 E0.24858
G1 X66.598 Y135.085 E0.26461
G1 X66.182 Y135.03 E0.28554
G1 X65.78 Y134.715 E0.31102
G1 X65.588 Y134.279 E0.33479
G1 X65.66 Y133.926 E0.35276
G1 X65.928 Y133.749 E0.36879
M205 X10 Y10
G1 F1500 E-5.63121
G1 F600 Z0.375
G0 F6000 X68.526 Y133.988 Z0.375
M205 X8 Y8
G1 F600 Z0.3
G1 F1500 E0.36879
G1 F1200 X68.877 Y133.88 E0.38711
G1 X69.002 Y133.948 E0.39421
G1 X69.007 Y134.181 E0.40584
G1 X68.769 Y134.596 E0.4297
G1 X68.358 Y134.942 E0.45651
G1 X68.007 Y135.05 E0.47483
G1 X67.882 Y134.982 E0.48193
G1 X67.877 Y134.749 E0.49356
G1 X68.115 Y134.334 E0.51742
G1 X68.526 Y133.988 E0.54423
M205 X10 Y10
G1 F1500 E-5.45577
G1 F600 Z0.375
G0 F6000 X67.929 Y131.771 Z0.375
M205 X8 Y8
G1 F600 Z0.3
G1 F1500 E0.54423
G1 F1200 X68.345 Y131.826 E0.56516
G1 X68.747 Y132.141 E0.59064
G1 X68.939 Y132.577 E0.61441
G1 X68.867 Y132.93 E0.63238
G1 X68.599 Y133.107 E0.64841
G1 X68.183 Y133.052 E0.66934
G1 X67.781 Y132.737 E0.69482
G1 X67.589 Y132.301 E0.71859
G1 X67.661 Y131.948 E0.73656
G1 X67.929 Y131.771 E0.75259
M205 X10 Y10
G1 F1500 E-5.24741
G1 F600 Z0.375
G0 F6000 X155.73 Y134.143 Z0.375
M205 X8 Y8
G1 F600 Z0.3
G1 F1500 E0.75259
G1 F1200 X155.998 Y133.966 E0.76861
G1 X156.414 Y134.021 E0.78954
G1 X156.816 Y134.336 E0.81502
G1 X157.008 Y134.772 E0.83879
G1 X156.936 Y135.125 E0.85677
G1 X156.668 Y135.302 E0.87279
G1 X156.252 Y135.247 E0.89372
G1 X155.85 Y134.932 E0.9192
G1 X155.658 Y134.496 E0.94297
G1 X155.73 Y134.143 E0.96095
M205 X10 Y10
G1 F1500 E-5.03905
G1 F600 Z0.375
G0 F6000 X157.116 Y132.744 Z0.375
M205 X8 Y8
G1 F600 Z0.3
G1 F1500 E0.96095
G1 F1200 X157.527 Y132.398 E0.98775
G1 X157.894 Y132.285 E1.00691
G1 X157.946 Y132.029 E1.01994
G1 X158.215 Y131.852 E1.036
G1 X158.631 Y131.907 E1.05694
G1 X159.033 Y132.222 E1.08242
G1 X159.225 Y132.658 E1.10619
G1 X159.153 Y133.011 E1.12416
G1 X158.885 Y133.188 E1.14018
G1 X158.469 Y133.133 E1.16112
G1 X157.936 Y132.715 E1.19491
G1 X157.77 Y133.006 E1.21163
G1 X157.359 Y133.352 E1.23843
G1 X157.008 Y133.46 E1.25675
G1 X156.883 Y133.392 E1.26385
G1 X156.878 Y133.159 E1.27548
G1 X157.116 Y132.744 E1.29935
M205 X10 Y10
G1 F1500 E-4.70065
G1 F600 Z0.375
G0 F6000 X158.546 Y134.139 Z0.375
M205 X8 Y8
G1 F600 Z0.3
G1 F1500 E1.29935
G1 F1200 X158.957 Y133.793 E1.32615
G1 X159.309 Y133.685 E1.34452
G1 X159.431 Y133.751 E1.35144
G1 X159.434 Y133.813 E1.35454
G1 X159.438 Y133.986 E1.36317
G1 X159.2 Y134.401 E1.38704
G1 X158.789 Y134.747 E1.41384
G1 X158.438 Y134.855 E1.43216
G1 X158.313 Y134.787 E1.43926
G1 X158.308 Y134.554 E1.45089
G1 X158.546 Y134.139 E1.47476
M205 X10 Y10
G1 F1500 E-4.52524
G1 F600 Z0.375
G0 F6000 X68.388 Y132.876 Z0.375
M205 X8 Y8
G1 F600 Z0.3
G1 F1500 E1.47476
G1 F1200 X67.804 Y132.292 E1.51596
G1 X67.852 Y132.4
G1 X68.24 Y132.012 E1.54334
M205 X10 Y10
G1 F1500 E-4.45666
G1 F600 Z0.375
G0 F6000 X66.258 Y133.993 Z0.375
M205 X8 Y8
G1 F600 Z0.3
G1 F1500 E1.54334
G1 F1200 X65.858 Y134.394 E1.57159
M205 X10 Y10
G0 F6000 X66.089 Y133.971
M205 X8 Y8
G1 F1200 X66.723 Y134.605 E1.61633
M205 X10 Y10
G1 F1500 E-4.38367
G1 F600 Z0.375
;MESH:prisma-schwenkfuss-schwenkachse.stl
G0 F6000 X63.534 Y134.474 Z0.375
M205 X8 Y8
;TYPE:WALL-INNER
G1 F600 Z0.3
G1 F1500 E1.61633
G1 F1200 X62.547 Y134.474 E1.66557
G1 X62.705 Y130.968 E1.84066
G1 X63.303 Y126.554 E2.06289
G1 X64.305 Y122.165 E2.28749
G1 X65.682 Y117.923 E2.50999
G1 X67.459 Y113.766 E2.73554
G1 X69.573 Y109.836 E2.95818
G1 X72.05 Y106.084 E3.18248
G1 X74.85 Y102.573 E3.40652
G1 X77.943 Y99.34 E3.62974
G1 X81.318 Y96.391 E3.85335
G1 X84.968 Y93.739 E4.07844
G1 X88.807 Y91.446 E4.30153
G1 X92.855 Y89.495 E4.52572
G1 X97.031 Y87.928 E4.74824
G1 X101.372 Y86.731 E4.9729
G1 X105.81 Y85.926 E5.19793
G1 X110.247 Y85.526 E5.42019
G1 X114.753 Y85.526 E5.64499
G1 X119.19 Y85.926 E5.86725
G1 X123.628 Y86.731 E6.09228
G1 X127.969 Y87.928 E6.31693
G1 X132.145 Y89.495 E6.53946
G1 X136.193 Y91.446 E6.76365
G1 X140.032 Y93.739 E6.98674
G1 X143.682 Y96.391 E7.21183
G1 X147.057 Y99.34 E7.43543
G1 X150.15 Y102.573 E7.65865
G1 X152.95 Y106.084 E7.8827
G1 X155.427 Y109.836 E8.107
G1 X157.541 Y113.766 E8.32964
G1 X159.318 Y117.923 E8.55518
G1 X160.695 Y122.165 E8.77769
G1 X161.697 Y126.554 E9.00229
G1 X162.295 Y130.968 E9.22452
G1 X162.453 Y134.474 E9.39961
G1 X161.467 Y134.474 E9.4488
G1 X161.326 Y131.456 E9.59953
G1 X161.295 Y131 E9.62234
G1 X160.714 Y126.817 E9.83303
G1 X160.668 Y126.474 E9.8503
G1 X159.631 Y122.064 E10.07631
G1 X158.192 Y117.773 E10.30211
G1 X156.363 Y113.632 E10.52796
G1 X154.16 Y109.679 E10.75373
G1 X151.605 Y105.945 E10.97946
G1 X148.712 Y102.462 E11.20535
G1 X145.512 Y99.262 E11.43113
G1 X142.029 Y96.369 E11.65702
G1 X138.296 Y93.814 E11.88271
G1 X134.34 Y91.611 E12.10861
G1 X130.202 Y89.783 E12.3343
G1 X125.911 Y88.344 E12.5601
G1 X121.505 Y87.307 E12.78592
G1 X117.021 Y86.682 E13.01179
G1 X112.5 Y86.474 E13.23758
G1 X107.979 Y86.682 E13.46338
G1 X103.495 Y87.307 E13.68925
G1 X99.089 Y88.344 E13.91507
G1 X94.798 Y89.783 E14.14086
G1 X90.66 Y91.611 E14.36656
G1 X86.704 Y93.814 E14.59246
G1 X82.971 Y96.369 E14.81815
G1 X79.488 Y99.262 E15.04404
G1 X76.288 Y102.462 E15.26982
G1 X73.395 Y105.945 E15.49571
G1 X70.84 Y109.679 E15.72143
G1 X68.637 Y113.632 E15.94721
G1 X66.808 Y117.773 E16.17306
G1 X65.369 Y122.064 E16.39885
G1 X64.332 Y126.474 E16.62487
G1 X64.274 Y126.924 E16.64751
G1 X63.704 Y131.002 E16.85294
G1 X63.675 Y131.457 E16.87568
G1 X63.534 Y134.474 E17.02637
M205 X10 Y10
G0 F6000 X63.916 Y134.874
M205 X8 Y8
G1 F1200 X62.128 Y134.874 E17.11557
G1 X62.305 Y130.94 E17.31204
G1 X62.91 Y126.479 E17.53663
G1 X63.918 Y122.062 E17.76266
G1 X65.309 Y117.778 E17.98738
G1 X67.096 Y113.598 E18.21418
G1 X69.232 Y109.627 E18.43913
G1 X71.726 Y105.849 E18.66498
G1 X74.546 Y102.313 E18.89063
G1 X77.667 Y99.05 E19.1159
G1 X81.073 Y96.074 E19.34155
G1 X84.741 Y93.409 E19.56775
G1 X88.62 Y91.092 E19.79317
G1 X92.696 Y89.128 E20.0189
G1 X96.914 Y87.545 E20.24366
G1 X101.283 Y86.34 E20.46977
G1 X105.748 Y85.53 E20.69617
G1 X110.233 Y85.126 E20.92083
G1 X114.767 Y85.126 E21.14703
G1 X119.252 Y85.53 E21.3717
G1 X123.717 Y86.34 E21.59809
G1 X128.086 Y87.545 E21.8242
G1 X132.304 Y89.128 E22.04897
G1 X136.38 Y91.092 E22.2747
G1 X140.259 Y93.409 E22.50012
G1 X143.927 Y96.074 E22.72632
G1 X147.333 Y99.05 E22.95197
G1 X150.454 Y102.313 E23.17724
G1 X153.274 Y105.849 E23.40288
G1 X155.768 Y109.627 E23.62873
G1 X157.904 Y113.598 E23.85369
G1 X159.691 Y117.778 E24.08049
G1 X161.082 Y122.062 E24.3052
G1 X162.09 Y126.479 E24.53123
G1 X162.695 Y130.94 E24.75583
G1 X162.872 Y134.874 E24.9523
G1 X161.085 Y134.874 E25.04145
G1 X160.927 Y131.479 E25.21101
G1 X160.897 Y131.041 E25.23291
G1 X160.317 Y126.87 E25.44301
G1 X160.274 Y126.546 E25.45931
G1 X159.246 Y122.174 E25.68338
G1 X157.819 Y117.918 E25.90733
G1 X156.005 Y113.811 E26.13133
G1 X153.82 Y109.89 E26.35527
G1 X151.285 Y106.186 E26.5792
G1 X148.416 Y102.732 E26.80321
G1 X145.242 Y99.558 E27.02715
G1 X141.788 Y96.689 E27.25117
G1 X138.085 Y94.154 E27.47505
G1 X134.162 Y91.969 E27.69908
G1 X130.057 Y90.156 E27.92297
G1 X125.801 Y88.729 E28.14692
G1 X121.431 Y87.701 E28.37089
G1 X116.984 Y87.081 E28.5949
G1 X112.5 Y86.874 E28.81884
G1 X108.016 Y87.081 E29.04279
G1 X103.569 Y87.701 E29.2668
G1 X99.199 Y88.729 E29.49077
G1 X94.943 Y90.156 E29.71472
G1 X90.838 Y91.969 E29.9386
G1 X86.915 Y94.154 E30.16263
G1 X83.212 Y96.689 E30.38652
G1 X79.758 Y99.558 E30.61053
G1 X76.584 Y102.732 E30.83447
G1 X73.715 Y106.186 E31.05849
G1 X71.18 Y109.89 E31.28242
G1 X68.995 Y113.811 E31.50636
G1 X67.181 Y117.918 E31.73035
G1 X65.754 Y122.174 E31.9543
G1 X64.726 Y126.546 E32.17837
G1 X64.67 Y126.979 E32.20015
G1 X64.102 Y131.043 E32.40488
G1 X64.074 Y131.479 E32.42668
G1 X63.916 Y134.874 E32.59624
M205 X10 Y10
G0 F6000 X64.302 Y135.274
M205 X8 Y8
;TYPE:WALL-OUTER
G1 F1200 X61.709 Y135.274 E32.7256
G1 X61.905 Y130.912 E32.94344
G1 X62.517 Y126.404 E33.17041
G1 X63.531 Y121.959 E33.39787
G1 X64.936 Y117.633 E33.62479
G1 X66.733 Y113.43 E33.85284
G1 X68.891 Y109.418 E34.08012
G1 X71.402 Y105.614 E34.30752
G1 X74.242 Y102.053 E34.53476
G1 X77.391 Y98.76 E34.76208
G1 X80.828 Y95.757 E34.98978
G1 X84.514 Y93.079 E35.21709
G1 X88.433 Y90.738 E35.44483
G1 X92.537 Y88.761 E35.6721
G1 X96.797 Y87.162 E35.89911
G1 X101.194 Y85.949 E36.12667
G1 X105.686 Y85.134 E36.35444
G1 X110.219 Y84.726 E36.58151
G1 X114.781 Y84.726 E36.8091
G1 X119.314 Y85.134 E37.03617
G1 X123.806 Y85.949 E37.26394
G1 X128.203 Y87.162 E37.4915
G1 X132.463 Y88.761 E37.71851
G1 X136.567 Y90.738 E37.94578
G1 X140.486 Y93.079 E38.17352
G1 X144.172 Y95.757 E38.40083
G1 X147.609 Y98.76 E38.62853
G1 X150.758 Y102.053 E38.85585
G1 X153.598 Y105.614 E39.08309
G1 X156.109 Y109.418 E39.31049
G1 X158.267 Y113.43 E39.53777
G1 X160.064 Y117.633 E39.76582
G1 X161.469 Y121.959 E39.99274
G1 X162.483 Y126.404 E40.2202
G1 X163.095 Y130.912 E40.44717
G1 X163.291 Y135.274 E40.66501
G1 X160.698 Y135.274 E40.79437
G1 X160.69 Y135.001 E40.808
G1 X160.528 Y131.502 E40.98275
G1 X160.499 Y131.082 E41.00376
G1 X159.92 Y126.922 E41.2133
G1 X159.88 Y126.618 E41.2286
G1 X158.861 Y122.284 E41.45072
G1 X157.446 Y118.063 E41.67282
G1 X155.647 Y113.99 E41.89496
G1 X153.48 Y110.101 E42.11707
G1 X150.965 Y106.427 E42.3392
G1 X148.12 Y103.002 E42.56134
G1 X144.972 Y99.854 E42.78345
G1 X141.547 Y97.009 E43.00558
G1 X137.874 Y94.494 E43.22767
G1 X133.984 Y92.327 E43.44982
G1 X129.912 Y90.529 E43.6719
G1 X125.691 Y89.114 E43.894
G1 X121.357 Y88.095 E44.11613
G1 X116.947 Y87.48 E44.33827
G1 X112.5 Y87.274 E44.56037
G1 X108.053 Y87.48 E44.78247
G1 X103.643 Y88.095 E45.00461
G1 X99.309 Y89.114 E45.22673
G1 X95.088 Y90.529 E45.44884
G1 X91.016 Y92.327 E45.67091
G1 X87.126 Y94.494 E45.89307
G1 X83.453 Y97.009 E46.11516
G1 X80.028 Y99.854 E46.33729
G1 X76.88 Y103.002 E46.5594
G1 X74.035 Y106.427 E46.78154
G1 X71.52 Y110.101 E47.00367
G1 X69.353 Y113.99 E47.22578
G1 X67.554 Y118.063 E47.44792
G1 X66.139 Y122.284 E47.67002
G1 X65.12 Y126.618 E47.89214
G1 X65.066 Y127.034 E47.91307
G1 X64.5 Y131.084 E48.11709
G1 X64.473 Y131.501 E48.13794
G1 X64.307 Y135.092 E48.31728
G1 X64.302 Y135.274 E48.32637
M205 X10 Y10
G0 F6000 X64.102 Y135.274
G0 X63.88 Y134.824
G0 X63.161 Y134.084
M205 X8 Y8
;TYPE:SKIN
G1 F1200 X62.955 Y134.084 E48.33665
G1 X63.095 Y130.986 E48.49136
G1 X63.686 Y126.626 E48.71087
G1 X64.68 Y122.274 E48.93359
G1 X66.044 Y118.069 E49.15414
G1 X67.816 Y113.925 E49.37899
G1 X69.904 Y110.043 E49.5989
G1 X72.371 Y106.306 E49.8223
G1 X75.148 Y102.825 E50.04446
G1 X78.206 Y99.628 E50.26518
G1 X81.556 Y96.701 E50.48712
G1 X85.19 Y94.061 E50.71121
G1 X88.997 Y91.786 E50.93247
G1 X93.003 Y89.856 E51.15432
G1 X97.149 Y88.3 E51.37525
G1 X101.456 Y87.113 E51.59814
G1 X105.871 Y86.312 E51.822
G1 X110.26 Y85.916 E52.04186
G1 X114.74 Y85.916 E52.26537
G1 X119.129 Y86.312 E52.48522
G1 X123.544 Y87.113 E52.70908
G1 X127.851 Y88.3 E52.93197
G1 X131.997 Y89.856 E53.15291
G1 X136.003 Y91.786 E53.37475
G1 X139.81 Y94.061 E53.59601
G1 X143.444 Y96.701 E53.8201
G1 X146.794 Y99.628 E54.04204
G1 X149.852 Y102.825 E54.26276
G1 X152.629 Y106.306 E54.48492
G1 X155.096 Y110.043 E54.70832
G1 X157.184 Y113.925 E54.92823
G1 X158.956 Y118.069 E55.15309
G1 X160.32 Y122.274 E55.37364
G1 X161.314 Y126.626 E55.59635
G1 X161.905 Y130.986 E55.81586
G1 X162.045 Y134.084 E55.97058
G1 X161.84 Y134.084 E55.98081
G1 X161.716 Y131.434 E56.11316
G1 X161.683 Y130.959 E56.13692
G1 X161.1 Y126.763 E56.34827
G1 X161.052 Y126.403 E56.36638
G1 X160.007 Y121.957 E56.59424
G1 X158.556 Y117.632 E56.82184
G1 X156.712 Y113.458 E57.04949
G1 X154.492 Y109.474 E57.27703
G1 X151.917 Y105.709 E57.5046
G1 X149.001 Y102.199 E57.73226
G1 X145.775 Y98.973 E57.95987
G1 X142.265 Y96.057 E58.18753
G1 X138.501 Y93.482 E58.41506
G1 X134.514 Y91.262 E58.64273
G1 X130.343 Y89.419 E58.87023
G1 X126.018 Y87.968 E59.09782
G1 X121.577 Y86.923 E59.32543
G1 X117.057 Y86.294 E59.55311
G1 X112.5 Y86.084 E59.7807
G1 X107.943 Y86.294 E60.00829
G1 X103.423 Y86.923 E60.23597
G1 X98.982 Y87.968 E60.46358
G1 X94.657 Y89.419 E60.69118
G1 X90.486 Y91.262 E60.91868
G1 X86.499 Y93.482 E61.14635
G1 X82.735 Y96.057 E61.37387
G1 X79.225 Y98.973 E61.60153
G1 X75.999 Y102.199 E61.82915
G1 X73.083 Y105.709 E62.05681
G1 X70.508 Y109.474 E62.28437
G1 X68.288 Y113.458 E62.51191
G1 X66.444 Y117.632 E62.73957
G1 X64.993 Y121.957 E62.96716
G1 X63.948 Y126.404 E63.19507
G1 X63.888 Y126.87 E63.21851
G1 X63.316 Y130.963 E63.42469
G1 X63.285 Y131.435 E63.44829
G1 X63.161 Y134.084 E63.5806
M205 X10 Y10
G1 F1500 E57.5806
G1 F600 Z0.375
;MESH:NONMESH
G0 F6000 X67.498 Y131.986 Z0.375
;TIME_ELAPSED:71.194231
;LAYER:1
M106 S127.5
G0 X67.498 Y131.986 Z0.575
M205 X8 Y8
;TYPE:SUPPORT-INTERFACE
G1 F600 Z0.5
G1 F1500 E63.5806
G1 F1350 X68.522 Y133.011 E63.62879
M205 X10 Y10
G0 F6000 X67.759 Y132.493
M205 X8 Y8
G1 F1350 X68.473 Y131.779 E63.66237
M205 X10 Y10
G1 F1500 E57.66237
G1 F600 Z0.575
G0 F6000 X66.276 Y133.976 Z0.575
M205 X8 Y8
G1 F600 Z0.5
G1 F1500 E63.66237
G1 F1350 X65.591 Y134.661 E63.69459
M205 X10 Y10
G0 F6000 X65.931 Y133.813
M205 X8 Y8
G1 F1350 X66.921 Y134.803 E63.74116
M205 X10 Y10
G1 F1500 E57.74116
G1 F600 Z0.575
G0 F6000 X156.572 Y135.321 Z0.575
M205 X8 Y8
G1 F600 Z0.5
G1 F1500 E63.74116
G1 F1350 X157.175 Y134.717 E63.76954
M205 X10 Y10
G0 F6000 X158.371 Y134.612
M205 X8 Y8
G1 F1350 X158.724 Y134.965 E63.78615
M205 X10 Y10
G1 F1500 E57.78615
G1 F600 Z0.575
G0 F6000 X158.806 Y133.086 Z0.575
M205 X8 Y8
G1 F600 Z0.5
G1 F1500 E63.78615
G1 F1350 X159.345 Y132.548 E63.81148
M205 X10 Y10
G1 F1500 E57.81148
G1 F600 Z0.575
G0 F6000 X157.085 Y133.327 Z0.575
M205 X8 Y8
G1 F600 Z0.5
G1 F1500 E63.81148
G1 F1350 X156.787 Y133.028 E63.82552
M205 X10 Y10
G1 F1500 E57.82552
G1 F600 Z0.575
;MESH:prisma-schwenkfuss-schwenkachse.stl
G0 F6000 X63.517 Y134.474 Z0.575
M205 X8 Y8
;TYPE:WALL-INNER
G1 F600 Z0.5
G1 F1500 E63.82552
G1 F1350 X62.547 Y134.474 E63.85778
G1 X62.705 Y130.968 E63.97451
G1 X63.303 Y126.554 E64.12266
G1 X64.305 Y122.165 E64.2724
G1 X65.682 Y117.923 E64.42073
G1 X67.459 Y113.766 E64.5711
G1 X69.573 Y109.836 E64.71952
G1 X72.05 Y106.084 E64.86905
G1 X74.85 Y102.573 E65.01842
