;FLAVOR:Marlin
;TIME:3933
;Filament used: 2.83256m
;Layer height: 0.2
;MINX:91.2
;MINY:83.2
;MINZ:0.3
;MAXX:133.8
;MAXY:136.8
;MAXZ:13.175
;Generated with Cura_SteamEngine 4.13.1
M140 S60
M105
M190 S60
M104 S200
M105
M109 S200
M82 ;absolute extrusion mode
G21                                        ; metric values
G90                                        ; absolute positioning
M82                                        ; set extruder to absolute mode
M107                                       ; start with the fan off
M190 S60                                   ; preheat and wait for bed
M109 S210                                  ; preheat and wait for hotend
M300 S1000 P500                            ; BEEP heating done
G28 X0 Y10 Z0                              ; move X/Y to min endstops
M420 S1                                    ; enable mesh leveling
G0 Z0.15                                   ; lift nozzle a bit
G0 X2                                      ; move away from clips
G92 E0                                     ; zero the extruded length
G1 Y50 E25 F500                            ; Extrude 25mm of filament in a 5cm line.
G92 E0                                     ; zero the extruded length again
G1 E-2 F500                                ; Retract a little
G1 Y120 F4000                              ; Quickly wipe away from the filament line
G92 E0
G92 E0
G1 F1500 E-6
;LAYER_COUNT:65
;LAYER:0
M106 S76.5
M205 X10 Y10
G1 F600 Z0.375
;MESH:prisma-schwenkfuss-bodenteil.stl
G0 F6000 X94 Y86 Z0.375
M205 X8 Y8
;TYPE:WALL-INNER
G1 F600 Z0.3
G1 F1500 E0
G1 F1200 X94 Y132 E2.29495
G1 X107 Y132 E2.94352
G1 X107 Y86 E5.23847
G1 X94 Y86 E5.88704
M205 X10 Y10
G0 F6000 X94.4 Y86.4
M205 X8 Y8
G1 F1200 X94.4 Y131.6 E8.14208
G1 X106.6 Y131.6 E8.75074
G1 X106.6 Y86.4 E11.00578
G1 X94.4 Y86.4 E11.61444
M205 X10 Y10
G0 F6000 X94.8 Y86.8
M205 X8 Y8
;TYPE:WALL-OUTER
G1 F1200 X94.8 Y131.2 E13.82956
G1 X106.2 Y131.2 E14.39831
G1 X106.2 Y86.8 E16.61344
G1 X94.8 Y86.8 E17.18219
M205 X10 Y10
G0 F6000 X94.8 Y87
G0 X94.36 Y87
G1 F1500 E11.18219
G1 F600 Z0.375
G0 F6000 X118 Y86 Z0.375
M205 X8 Y8
;TYPE:WALL-INNER
G1 F600 Z0.3
G1 F1500 E17.18219
G1 F1200 X118 Y132 E19.47714
G1 X131 Y132 E20.12571
G1 X131 Y86 E22.42066
G1 X118 Y86 E23.06923
M205 X10 Y10
G0 F6000 X118.4 Y86.4
M205 X8 Y8
G1 F1200 X118.4 Y131.6 E25.32427
G1 X130.6 Y131.6 E25.93293
G1 X130.6 Y86.4 E28.18796
G1 X118.4 Y86.4 E28.79662
M205 X10 Y10
G0 F6000 X118.8 Y86.8
M205 X8 Y8
;TYPE:WALL-OUTER
G1 F1200 X118.8 Y131.2 E31.01175
G1 X130.2 Y131.2 E31.5805
G1 X130.2 Y86.8 E33.79562
G1 X118.8 Y86.8 E34.36437
M205 X10 Y10
G0 F6000 X118.8 Y87
G0 X118.36 Y87
G1 F1500 E28.36437
G1 F600 Z0.375
G0 F6000 X133 Y136 Z0.375
M205 X8 Y8
;TYPE:WALL-INNER
G1 F600 Z0.3
G1 F1500 E34.36437
G1 F1200 X92 Y136 E36.40987
G1 X92 Y84 E39.00416
G1 X133 Y84 E41.04966
G1 X133 Y136 E43.64395
M205 X10 Y10
G0 F6000 X133.4 Y136.4
M205 X8 Y8
G1 F1200 X91.6 Y136.4 E45.72936
G1 X91.6 Y83.6 E48.36356
G1 X133.4 Y83.6 E50.44897
G1 X133.4 Y136.4 E53.08318
M205 X10 Y10
G0 F6000 X133.8 Y136.8
M205 X8 Y8
;TYPE:WALL-OUTER
G1 F1200 X91.2 Y136.8 E55.2085
G1 X91.2 Y83.2 E57.88261
G1 X133.8 Y83.2 E60.00794
G1 X133.8 Y136.8 E62.68205
M205 X10 Y10
G0 F6000 X133.6 Y136.8
G0 X133.36 Y136.36
G0 X132.61 Y135.61
M205 X8 Y8
;TYPE:SKIN
G1 F1200 X92.39 Y135.61 E64.68863
G1 X92.39 Y84.39 E67.24401
G1 X132.61 Y84.39 E69.25059
G1 X132.61 Y135.61 E71.80597
M205 X10 Y10
G1 F1500 E65.80597
G1 F600 Z0.375
G0 F6000 X131.39 Y132.39 Z0.375
M205 X8 Y8
G1 F600 Z0.3
G1 F1500 E71.80597
G1 F1200 X131.39 Y85.61 E74.13983
G1 X117.61 Y85.61 E74.82732
G1 X117.61 Y132.39 E77.16119
G1 X131.39 Y132.39 E77.84867
M205 X10 Y10
G1 F1500 E71.84867
G1 F600 Z0.375
G0 F6000 X107.39 Y132.39 Z0.375
M205 X8 Y8
G1 F600 Z0.3
G1 F1500 E77.84867
G1 F1200 X107.39 Y85.61 E80.18254
G1 X93.61 Y85.61 E80.87002
G1 X93.61 Y132.39 E83.20389
G1 X107.39 Y132.39 E83.89137
M205 X10 Y10
G1 F1500 E77.89137
G1 F600 Z0.375
G0 F6000 X93.002 Y135.429 Z0.375
M205 X8 Y8
G1 F600 Z0.3
G1 F1500 E83.89137
G1 F1200 X92.569 Y134.995 E83.92196
M205 X10 Y10
G0 F6000 X92.569 Y134.43
M205 X8 Y8
G1 F1200 X93.568 Y135.429 E83.99244
M205 X10 Y10
G0 F6000 X94.134 Y135.429
M205 X8 Y8
G1 F1200 X92.569 Y133.864 E84.10286
M205 X10 Y10
G0 F6000 X92.569 Y133.298
M205 X8 Y8
G1 F1200 X94.699 Y135.429 E84.25318
M205 X10 Y10
G0 F6000 X95.265 Y135.429
M205 X8 Y8
G1 F1200 X92.569 Y132.733 E84.4434
M205 X10 Y10
G0 F6000 X92.569 Y132.167
M205 X8 Y8
G1 F1200 X95.831 Y135.429 E84.67355
M205 X10 Y10
G0 F6000 X96.397 Y135.429
M205 X8 Y8
G1 F1200 X93.537 Y132.569 E84.87534
G1 X93.43 Y132.462
G1 X92.569 Y131.601 E84.93609
M205 X10 Y10
G0 F6000 X92.569 Y131.036
M205 X8 Y8
G1 F1200 X93.43 Y131.896 E84.9968
M205 X10 Y10
G0 F6000 X93.43 Y131.33
M205 X8 Y8
G1 F1200 X92.569 Y130.47 E85.05751
M205 X10 Y10
G0 F6000 X92.569 Y129.904
M205 X8 Y8
G1 F1200 X93.43 Y130.765 E85.11826
M205 X10 Y10
G0 F6000 X93.43 Y130.199
M205 X8 Y8
G1 F1200 X92.569 Y129.339 E85.17897
M205 X10 Y10
G0 F6000 X92.569 Y128.773
M205 X8 Y8
G1 F1200 X93.43 Y129.633 E85.23969
M205 X10 Y10
G0 F6000 X93.43 Y129.068
M205 X8 Y8
G1 F1200 X92.569 Y128.207 E85.30044
M205 X10 Y10
G0 F6000 X92.569 Y127.641
M205 X8 Y8
G1 F1200 X93.43 Y128.502 E85.36118
M205 X10 Y10
G0 F6000 X93.43 Y127.936
M205 X8 Y8
G1 F1200 X92.569 Y127.076 E85.4219
M205 X10 Y10
G0 F6000 X92.569 Y126.51
M205 X8 Y8
G1 F1200 X93.43 Y127.371 E85.48264
M205 X10 Y10
G0 F6000 X93.43 Y126.805
M205 X8 Y8
G1 F1200 X92.569 Y125.944 E85.54339
M205 X10 Y10
G0 F6000 X92.569 Y125.379
M205 X8 Y8
G1 F1200 X93.43 Y126.239 E85.60411
M205 X10 Y10
G0 F6000 X93.43 Y125.674
M205 X8 Y8
G1 F1200 X92.569 Y124.813 E85.66485
M205 X10 Y10
G0 F6000 X92.569 Y124.247
M205 X8 Y8
G1 F1200 X93.43 Y125.108 E85.7256
M205 X10 Y10
G0 F6000 X93.43 Y124.542
M205 X8 Y8
G1 F1200 X92.569 Y123.682 E85.78632
M205 X10 Y10
G0 F6000 X92.569 Y123.116
M205 X8 Y8
G1 F1200 X93.43 Y123.977 E85.84706
M205 X10 Y10
G0 F6000 X93.43 Y123.411
M205 X8 Y8
G1 F1200 X92.569 Y122.55 E85.90781
M205 X10 Y10
G0 F6000 X92.569 Y121.985
M205 X8 Y8
G1 F1200 X93.43 Y122.845 E85.96852
M205 X10 Y10
G0 F6000 X93.43 Y122.279
M205 X8 Y8
G1 F1200 X92.569 Y121.419 E86.02924
M205 X10 Y10
G0 F6000 X92.569 Y120.853
M205 X8 Y8
G1 F1200 X93.43 Y121.714 E86.08999
M205 X10 Y10
G0 F6000 X93.43 Y121.148
M205 X8 Y8
G1 F1200 X92.569 Y120.288 E86.1507
M205 X10 Y10
G0 F6000 X92.569 Y119.722
M205 X8 Y8
G1 F1200 X93.43 Y120.582 E86.21141
M205 X10 Y10
G0 F6000 X93.43 Y120.017
M205 X8 Y8
G1 F1200 X92.569 Y119.156 E86.27216
M205 X10 Y10
G0 F6000 X92.569 Y118.59
M205 X8 Y8
G1 F1200 X93.43 Y119.451 E86.33291
M205 X10 Y10
G0 F6000 X93.43 Y118.885
M205 X8 Y8
G1 F1200 X92.569 Y118.025 E86.39362
M205 X10 Y10
G0 F6000 X92.569 Y117.459
M205 X8 Y8
G1 F1200 X93.43 Y118.32 E86.45437
M205 X10 Y10
G0 F6000 X93.43 Y117.754
M205 X8 Y8
G1 F1200 X92.569 Y116.893 E86.51512
M205 X10 Y10
G0 F6000 X92.569 Y116.328
M205 X8 Y8
G1 F1200 X93.43 Y117.188 E86.57583
M205 X10 Y10
G0 F6000 X93.43 Y116.623
M205 X8 Y8
G1 F1200 X92.569 Y115.762 E86.63658
M205 X10 Y10
G0 F6000 X92.569 Y115.196
M205 X8 Y8
G1 F1200 X93.43 Y116.057 E86.69733
M205 X10 Y10
G0 F6000 X93.43 Y115.491
M205 X8 Y8
G1 F1200 X92.569 Y114.631 E86.75804
M205 X10 Y10
G0 F6000 X92.569 Y114.065
M205 X8 Y8
G1 F1200 X93.43 Y114.926 E86.81879
M205 X10 Y10
G0 F6000 X93.43 Y114.36
M205 X8 Y8
G1 F1200 X92.569 Y113.499 E86.87954
M205 X10 Y10
G0 F6000 X92.569 Y112.934
M205 X8 Y8
G1 F1200 X93.43 Y113.794 E86.94025
M205 X10 Y10
G0 F6000 X93.43 Y113.229
M205 X8 Y8
G1 F1200 X92.569 Y112.368 E87.001
M205 X10 Y10
G0 F6000 X92.569 Y111.802
M205 X8 Y8
G1 F1200 X93.43 Y112.663 E87.06175
M205 X10 Y10
G0 F6000 X93.43 Y112.097
M205 X8 Y8
G1 F1200 X92.569 Y111.237 E87.12246
M205 X10 Y10
G0 F6000 X92.569 Y110.671
M205 X8 Y8
G1 F1200 X93.43 Y111.531 E87.18317
M205 X10 Y10
G0 F6000 X93.43 Y110.966
M205 X8 Y8
G1 F1200 X92.569 Y110.105 E87.24392
M205 X10 Y10
G0 F6000 X92.568 Y109.539
M205 X8 Y8
G1 F1200 X93.43 Y110.4 E87.3047
M205 X10 Y10
G0 F6000 X93.43 Y109.834
M205 X8 Y8
G1 F1200 X92.568 Y108.973 E87.36549
M205 X10 Y10
G0 F6000 X92.568 Y108.407
M205 X8 Y8
G1 F1200 X93.43 Y109.269 E87.42631
M205 X10 Y10
G0 F6000 X93.43 Y108.703
M205 X8 Y8
G1 F1200 X92.568 Y107.842 E87.48709
M205 X10 Y10
G0 F6000 X92.568 Y107.276
M205 X8 Y8
G1 F1200 X93.43 Y108.137 E87.54787
M205 X10 Y10
G0 F6000 X93.43 Y107.572
M205 X8 Y8
G1 F1200 X92.568 Y106.71 E87.60869
M205 X10 Y10
G0 F6000 X92.568 Y106.145
M205 X8 Y8
G1 F1200 X93.43 Y107.006 E87.66947
M205 X10 Y10
G0 F6000 X93.43 Y106.44
M205 X8 Y8
G1 F1200 X92.568 Y105.579 E87.73026
M205 X10 Y10
G0 F6000 X92.568 Y105.013
M205 X8 Y8
G1 F1200 X93.43 Y105.875 E87.79108
M205 X10 Y10
G0 F6000 X93.43 Y105.309
M205 X8 Y8
G1 F1200 X92.568 Y104.448 E87.85186
M205 X10 Y10
G0 F6000 X92.568 Y103.882
M205 X8 Y8
G1 F1200 X93.43 Y104.743 E87.91264
M205 X10 Y10
G0 F6000 X93.43 Y104.178
M205 X8 Y8
G1 F1200 X92.568 Y103.316 E87.97346
M205 X10 Y10
G0 F6000 X92.568 Y102.751
M205 X8 Y8
G1 F1200 X93.43 Y103.612 E88.03425
M205 X10 Y10
G0 F6000 X93.43 Y103.046
M205 X8 Y8
G1 F1200 X92.568 Y102.185 E88.09503
M205 X10 Y10
G0 F6000 X92.568 Y101.619
M205 X8 Y8
G1 F1200 X93.43 Y102.48 E88.15581
M205 X10 Y10
G0 F6000 X93.43 Y101.915
M205 X8 Y8
G1 F1200 X92.568 Y101.054 E88.2166
M205 X10 Y10
G0 F6000 X92.568 Y100.488
M205 X8 Y8
G1 F1200 X93.43 Y101.349 E88.27738
M205 X10 Y10
G0 F6000 X93.43 Y100.783
M205 X8 Y8
G1 F1200 X92.568 Y99.922 E88.33816
M205 X10 Y10
G0 F6000 X92.568 Y99.356
M205 X8 Y8
G1 F1200 X93.43 Y100.218 E88.39898
M205 X10 Y10
G0 F6000 X93.43 Y99.652
M205 X8 Y8
G1 F1200 X92.568 Y98.791 E88.45977
M205 X10 Y10
G0 F6000 X92.568 Y98.225
M205 X8 Y8
G1 F1200 X93.43 Y99.086 E88.52055
M205 X10 Y10
G0 F6000 X93.43 Y98.521
M205 X8 Y8
G1 F1200 X92.568 Y97.659 E88.58137
M205 X10 Y10
G0 F6000 X92.568 Y97.094
M205 X8 Y8
G1 F1200 X93.43 Y97.955 E88.64215
M205 X10 Y10
G0 F6000 X93.43 Y97.389
M205 X8 Y8
G1 F1200 X92.568 Y96.528 E88.70293
M205 X10 Y10
G0 F6000 X92.568 Y95.962
M205 X8 Y8
G1 F1200 X93.43 Y96.824 E88.76375
M205 X10 Y10
G0 F6000 X93.43 Y96.258
M205 X8 Y8
G1 F1200 X92.568 Y95.397 E88.82454
M205 X10 Y10
G0 F6000 X92.568 Y94.831
M205 X8 Y8
G1 F1200 X93.43 Y95.692 E88.88532
M205 X10 Y10
G0 F6000 X93.43 Y95.127
M205 X8 Y8
G1 F1200 X92.568 Y94.265 E88.94614
M205 X10 Y10
G0 F6000 X92.568 Y93.7
M205 X8 Y8
G1 F1200 X93.43 Y94.561 E89.00692
M205 X10 Y10
G0 F6000 X93.43 Y93.995
M205 X8 Y8
G1 F1200 X92.568 Y93.134 E89.06771
M205 X10 Y10
G0 F6000 X92.568 Y92.568
M205 X8 Y8
G1 F1200 X93.43 Y93.43 E89.12852
M205 X10 Y10
G0 F6000 X93.43 Y92.864
M205 X8 Y8
G1 F1200 X92.568 Y92.003 E89.18931
M205 X10 Y10
G0 F6000 X92.568 Y91.437
M205 X8 Y8
G1 F1200 X93.43 Y92.298 E89.25009
M205 X10 Y10
G0 F6000 X93.43 Y91.732
M205 X8 Y8
G1 F1200 X92.568 Y90.871 E89.31088
M205 X10 Y10
G0 F6000 X92.568 Y90.306
M205 X8 Y8
G1 F1200 X93.43 Y91.167 E89.37166
M205 X10 Y10
G0 F6000 X93.43 Y90.601
M205 X8 Y8
G1 F1200 X92.568 Y89.74 E89.43244
M205 X10 Y10
G0 F6000 X92.568 Y89.174
M205 X8 Y8
G1 F1200 X93.43 Y90.035 E89.49323
M205 X10 Y10
G0 F6000 X93.43 Y89.47
M205 X8 Y8
G1 F1200 X92.568 Y88.608 E89.55404
M205 X10 Y10
G0 F6000 X92.568 Y88.043
M205 X8 Y8
G1 F1200 X93.43 Y88.904 E89.61483
M205 X10 Y10
G0 F6000 X93.43 Y88.338
M205 X8 Y8
G1 F1200 X92.568 Y87.477 E89.67561
M205 X10 Y10
G0 F6000 X92.568 Y86.911
M205 X8 Y8
G1 F1200 X93.43 Y87.773 E89.73643
M205 X10 Y10
G0 F6000 X93.43 Y87.207
M205 X8 Y8
G1 F1200 X92.568 Y86.346 E89.79721
M205 X10 Y10
G0 F6000 X92.568 Y85.78
M205 X8 Y8
G1 F1200 X93.43 Y86.641 E89.858
M205 X10 Y10
G0 F6000 X93.43 Y86.076
M205 X8 Y8
G1 F1200 X92.568 Y85.214 E89.91882
M205 X10 Y10
G0 F6000 X92.568 Y84.649
M205 X8 Y8
G1 F1200 X93.43 Y85.51 E89.9796
M205 X10 Y10
G0 F6000 X93.915 Y85.429
M205 X8 Y8
G1 F1200 X93.055 Y84.569 E90.04028
M205 X10 Y10
G0 F6000 X93.62 Y84.569
M205 X8 Y8
G1 F1200 X94.48 Y85.429 E90.10095
M205 X10 Y10
G0 F6000 X95.046 Y85.429
M205 X8 Y8
G1 F1200 X94.186 Y84.569 E90.16163
M205 X10 Y10
G0 F6000 X94.752 Y84.569
M205 X8 Y8
G1 F1200 X95.612 Y85.429 E90.22231
M205 X10 Y10
G0 F6000 X96.177 Y85.429
M205 X8 Y8
G1 F1200 X95.317 Y84.569 E90.28299
M205 X10 Y10
G0 F6000 X95.883 Y84.569
M205 X8 Y8
G1 F1200 X96.743 Y85.429 E90.34367
M205 X10 Y10
G0 F6000 X97.309 Y85.429
M205 X8 Y8
G1 F1200 X96.449 Y84.569 E90.40434
M205 X10 Y10
G0 F6000 X97.015 Y84.569
M205 X8 Y8
G1 F1200 X97.874 Y85.429 E90.46499
M205 X10 Y10
G0 F6000 X98.44 Y85.429
M205 X8 Y8
G1 F1200 X97.58 Y84.569 E90.52566
M205 X10 Y10
G0 F6000 X98.146 Y84.569
M205 X8 Y8
G1 F1200 X99.006 Y85.429 E90.58634
M205 X10 Y10
G0 F6000 X99.571 Y85.429
M205 X8 Y8
G1 F1200 X98.712 Y84.569 E90.64698
M205 X10 Y10
G0 F6000 X99.277 Y84.569
M205 X8 Y8
G1 F1200 X100.137 Y85.429 E90.70766
M205 X10 Y10
G0 F6000 X100.703 Y85.429
M205 X8 Y8
G1 F1200 X99.843 Y84.569 E90.76834
M205 X10 Y10
G0 F6000 X100.409 Y84.569
M205 X8 Y8
G1 F1200 X101.269 Y85.429 E90.82902
M205 X10 Y10
G0 F6000 X101.834 Y85.429
M205 X8 Y8
G1 F1200 X100.974 Y84.569 E90.88969
M205 X10 Y10
G0 F6000 X101.54 Y84.569
M205 X8 Y8
G1 F1200 X102.4 Y85.429 E90.95037
M205 X10 Y10
G0 F6000 X102.966 Y85.429
M205 X8 Y8
G1 F1200 X102.106 Y84.569 E91.01105
M205 X10 Y10
G0 F6000 X102.671 Y84.569
M205 X8 Y8
G1 F1200 X103.531 Y85.429 E91.07173
M205 X10 Y10
G0 F6000 X104.097 Y85.429
M205 X8 Y8
G1 F1200 X103.237 Y84.569 E91.1324
M205 X10 Y10
G0 F6000 X103.803 Y84.569
M205 X8 Y8
G1 F1200 X104.663 Y85.429 E91.19308
M205 X10 Y10
G0 F6000 X105.228 Y85.429
M205 X8 Y8
G1 F1200 X104.368 Y84.569 E91.25376
M205 X10 Y10
G0 F6000 X104.934 Y84.569
M205 X8 Y8
G1 F1200 X105.794 Y85.429 E91.31444
M205 X10 Y10
G0 F6000 X106.36 Y85.429
M205 X8 Y8
G1 F1200 X105.5 Y84.569 E91.37511
M205 X10 Y10
G0 F6000 X106.066 Y84.569
M205 X8 Y8
G1 F1200 X106.925 Y85.429 E91.43576
M205 X10 Y10
G0 F6000 X107.491 Y85.429
M205 X8 Y8
G1 F1200 X106.631 Y84.569 E91.49643
M205 X10 Y10
G0 F6000 X107.197 Y84.569
M205 X8 Y8
G1 F1200 X117.429 Y94.802 E92.21839
M205 X10 Y10
G0 F6000 X117.429 Y94.236
M205 X8 Y8
G1 F1200 X107.763 Y84.569 E92.90042
M205 X10 Y10
G0 F6000 X108.328 Y84.569
M205 X8 Y8
G1 F1200 X117.429 Y93.671 E93.54258
M205 X10 Y10
G0 F6000 X117.429 Y93.105
M205 X8 Y8
G1 F1200 X108.894 Y84.569 E94.1448
M205 X10 Y10
G0 F6000 X109.46 Y84.569
M205 X8 Y8
G1 F1200 X117.429 Y92.539 E94.70709
M205 X10 Y10
G0 F6000 X117.429 Y91.974
M205 X8 Y8
G1 F1200 X110.025 Y84.569 E95.22952
M205 X10 Y10
G0 F6000 X110.591 Y84.569
M205 X8 Y8
G1 F1200 X117.429 Y91.408 E95.71201
M205 X10 Y10
G0 F6000 X117.429 Y90.842
M205 X8 Y8
G1 F1200 X111.157 Y84.569 E96.15457
M205 X10 Y10
G0 F6000 X111.722 Y84.569
M205 X8 Y8
G1 F1200 X117.429 Y90.277 E96.55727
M205 X10 Y10
G0 F6000 X117.429 Y89.711
M205 X8 Y8
G1 F1200 X112.288 Y84.569 E96.92003
M205 X10 Y10
G0 F6000 X112.854 Y84.569
M205 X8 Y8
G1 F1200 X117.429 Y89.145 E97.24285
M205 X10 Y10
G0 F6000 X117.429 Y88.579
M205 X8 Y8
G1 F1200 X113.419 Y84.569 E97.52578
M205 X10 Y10
G0 F6000 X113.985 Y84.569
M205 X8 Y8
G1 F1200 X117.429 Y88.014 E97.76881
M205 X10 Y10
G0 F6000 X117.429 Y87.448
M205 X8 Y8
G1 F1200 X114.551 Y84.569 E97.9719
M205 X10 Y10
G0 F6000 X115.116 Y84.569
M205 X8 Y8
G1 F1200 X117.429 Y86.882 E98.1351
M205 X10 Y10
G0 F6000 X117.429 Y86.317
M205 X8 Y8
G1 F1200 X115.682 Y84.569 E98.25839
M205 X10 Y10
G0 F6000 X116.248 Y84.569
M205 X8 Y8
G1 F1200 X117.429 Y85.751 E98.34176
M205 X10 Y10
G0 F6000 X117.673 Y85.429
M205 X8 Y8
G1 F1200 X116.814 Y84.569 E98.4024
M205 X10 Y10
G0 F6000 X117.379 Y84.569
M205 X8 Y8
G1 F1200 X118.239 Y85.429 E98.46308
M205 X10 Y10
G0 F6000 X118.805 Y85.429
M205 X8 Y8
G1 F1200 X117.945 Y84.569 E98.52375
M205 X10 Y10
G0 F6000 X118.511 Y84.569
M205 X8 Y8
G1 F1200 X119.37 Y85.429 E98.5844
M205 X10 Y10
G0 F6000 X119.936 Y85.429
M205 X8 Y8
G1 F1200 X119.076 Y84.569 E98.64507
M205 X10 Y10
G0 F6000 X119.642 Y84.569
M205 X8 Y8
G1 F1200 X120.502 Y85.429 E98.70575
M205 X10 Y10
G0 F6000 X121.067 Y85.429
M205 X8 Y8
G1 F1200 X120.208 Y84.569 E98.76639
M205 X10 Y10
G0 F6000 X120.773 Y84.569
M205 X8 Y8
G1 F1200 X121.633 Y85.429 E98.82707
M205 X10 Y10
G0 F6000 X122.199 Y85.429
M205 X8 Y8
G1 F1200 X121.339 Y84.569 E98.88775
M205 X10 Y10
G0 F6000 X121.905 Y84.569
M205 X8 Y8
G1 F1200 X122.765 Y85.429 E98.94843
