;FLAVOR:Marlin
;TIME:4234
;Filament used: 2.72517m
;Layer height: 0.2
;MINX:100.2
;MINY:72.254
;MINZ:0.3
;MAXX:124.8
;MAXY:147.746
;MAXZ:27.175
;Generated with Cura_SteamEngine 4.13.1
M140 S60
M105
M190 S60
M104 S200
M105
M109 S200
M82 ;absolute extrusion mode
G21                                        ; metric values
G90                                        ; absolute positioning
M82                                        ; set extruder to absolute mode
M107                                       ; start with the fan off
M190 S60                                   ; preheat and wait for bed
M109 S210                                  ; preheat and wait for hotend
M300 S1000 P500                            ; BEEP heating done
G28 X0 Y10 Z0                              ; move X/Y to min endstops
M420 S1                                    ; enable mesh leveling
G0 Z0.15                                   ; lift nozzle a bit
G0 X2                                      ; move away from clips
G92 E0                                     ; zero the extruded length
G1 Y50 E25 F500                            ; Extrude 25mm of filament in a 5cm line.
G92 E0                                     ; zero the extruded length again
G1 E-2 F500                                ; Retract a little
G1 Y120 F4000                              ; Quickly wipe away from the filament line
G92 E0
G92 E0
G1 F1500 E-6
;LAYER_COUNT:135
;LAYER:0
M106 S76.5
M205 X10 Y10
G1 F600 Z0.375
G0 F6000 X113.266 Y90.943 Z0.375
M205 X8 Y8
;TYPE:SKIRT
G1 F600 Z0.3
G1 F1500 E0
G1 F1200 X113.366 Y90.943 E0.00499
G1 X113.481 Y91.1 E0.0147
G1 X113.316 Y91.609 E0.04139
G1 X113.151 Y91.1 E0.06809
G1 X113.266 Y90.943 E0.0778
M205 X10 Y10
G0 F6000 X113.135 Y90.543
M205 X8 Y8
G1 F1200 X113.497 Y90.543 E0.09586
G1 X113.791 Y90.757 E0.114
G1 X113.902 Y91.101 E0.13203
G1 X113.636 Y91.921 E0.17504
G1 X113.533 Y92.749 E0.21667
G1 X113.636 Y93.281 E0.2437
G1 X113.793 Y93.763 E0.26899
G1 X113.551 Y94.635 E0.31414
G1 X113.539 Y95.054 E0.33506
G1 X113.642 Y95.589 E0.36224
G1 X113.936 Y96.491 E0.40957
G1 X113.637 Y97.409 E0.45774
G1 X113.534 Y98.237 E0.49936
G1 X113.637 Y98.772 E0.52654
G1 X113.844 Y99.408 E0.55991
G1 X113.736 Y99.74 E0.57733
G1 X113.449 Y99.949 E0.59504
G1 X113.103 Y99.949 E0.61231
G1 X112.816 Y99.74 E0.63002
G1 X112.709 Y99.412 E0.64723
G1 X113.043 Y98.398 E0.70049
G1 X113.149 Y97.57 E0.74214
G1 X113.045 Y97.028 E0.76967
G1 X112.87 Y96.492 E0.7978
G1 X113.038 Y95.977 E0.82483
G1 X113.141 Y95.149 E0.86646
G1 X113.038 Y94.613 E0.89369
G1 X112.761 Y93.763 E0.93829
G1 X112.957 Y93.161 E0.96987
G1 X113.06 Y92.333 E1.0115
G1 X112.957 Y91.801 E1.03854
G1 X112.73 Y91.101 E1.07525
G1 X112.841 Y90.757 E1.09328
G1 X113.135 Y90.543 E1.11143
M205 X10 Y10
G0 F6000 X113.006 Y90.143
M205 X8 Y8
G1 F1200 X113.626 Y90.143 E1.14236
G1 X114.131 Y90.51 E1.1735
G1 X114.322 Y91.1 E1.20444
G1 X114.016 Y92.044 E1.25395
G1 X113.938 Y92.794 E1.29157
G1 X114.016 Y93.157 E1.31009
G1 X114.214 Y93.764 E1.34195
G1 X114.023 Y94.35 E1.3727
G1 X113.944 Y95.1 E1.41032
G1 X114.023 Y95.466 E1.429
G1 X114.357 Y96.492 E1.48283
G1 X114.018 Y97.533 E1.53745
G1 X113.939 Y98.283 E1.57508
G1 X114.018 Y98.649 E1.59376
G1 X114.265 Y99.407 E1.63353
G1 X114.075 Y99.989 E1.66408
G1 X113.581 Y100.349 E1.69457
G1 X112.971 Y100.349 E1.72501
G1 X112.477 Y99.989 E1.7555
G1 X112.288 Y99.411 E1.78584
G1 X112.663 Y98.273 E1.84562
G1 X112.743 Y97.524 E1.8832
G1 X112.664 Y97.152 E1.90217
G1 X112.449 Y96.492 E1.9368
G1 X112.657 Y95.853 E1.97033
G1 X112.736 Y95.103 E2.00795
G1 X112.657 Y94.737 E2.02663
G1 X112.34 Y93.764 E2.07769
G1 X112.577 Y93.037 E2.11584
G1 X112.655 Y92.288 E2.15341
G1 X112.577 Y91.924 E2.17198
G1 X112.31 Y91.1 E2.21519
G1 X112.501 Y90.51 E2.24613
G1 X113.006 Y90.143 E2.27728
M205 X10 Y10
G0 F6000 X112.876 Y89.743
M205 X8 Y8
G1 F1200 X113.756 Y89.743 E2.32118
G1 X114.471 Y90.263 E2.36529
G1 X114.743 Y91.099 E2.40915
G1 X114.396 Y92.168 E2.46522
G1 X114.347 Y92.829 E2.49829
G1 X114.397 Y93.033 E2.50877
G1 X114.635 Y93.763 E2.54707
G1 X114.403 Y94.474 E2.58439
G1 X114.353 Y95.135 E2.61746
G1 X114.403 Y95.342 E2.62808
G1 X114.778 Y96.492 E2.68843
G1 X114.398 Y97.657 E2.74956
G1 X114.348 Y98.319 E2.78269
G1 X114.398 Y98.525 E2.79326
G1 X114.686 Y99.408 E2.8396
G1 X114.416 Y100.235 E2.883
G1 X113.71 Y100.749 E2.92657
G1 X112.842 Y100.749 E2.96987
G1 X112.136 Y100.235 E3.01344
G1 X111.867 Y99.411 E3.05669
G1 X112.283 Y98.148 E3.12303
G1 X112.335 Y97.486 E3.15616
G1 X112.284 Y97.276 E3.16694
G1 X112.028 Y96.492 E3.20809
G1 X112.277 Y95.729 E3.24813
G1 X112.327 Y95.067 E3.28125
G1 X112.277 Y94.861 E3.29183
G1 X111.919 Y93.763 E3.34944
G1 X112.196 Y92.913 E3.39404
G1 X112.246 Y92.252 E3.42712
G1 X112.197 Y92.048 E3.43758
G1 X111.889 Y91.099 E3.48736
G1 X112.161 Y90.263 E3.53122
G1 X112.876 Y89.743 E3.57533
M205 X10 Y10
G0 F6000 X112.745 Y89.343
M205 X8 Y8
G1 F1200 X113.887 Y89.343 E3.6323
G1 X114.811 Y90.016 E3.68933
G1 X115.164 Y91.1 E3.74621
G1 X114.777 Y92.291 E3.80869
G1 X114.777 Y92.91 E3.83957
G1 X115.055 Y93.764 E3.88438
G1 X114.783 Y94.598 E3.92814
G1 X114.783 Y95.218 E3.95907
G1 X115.198 Y96.492 E4.02592
G1 X114.778 Y97.781 E4.09356
G1 X114.778 Y98.401 E4.12449
G1 X115.106 Y99.408 E4.17733
G1 X114.756 Y100.483 E4.23373
G1 X113.841 Y101.149 E4.29019
G1 X112.711 Y101.149 E4.34657
G1 X111.796 Y100.483 E4.40303
G1 X111.446 Y99.41 E4.45934
G1 X111.903 Y98.023 E4.53219
G1 X111.904 Y97.4 E4.56327
G1 X111.608 Y96.492 E4.61092
G1 X111.897 Y95.605 E4.65746
G1 X111.897 Y94.985 E4.68839
G1 X111.499 Y93.764 E4.75247
G1 X111.816 Y92.79 E4.80357
G1 X111.816 Y92.171 E4.83445
G1 X111.468 Y91.1 E4.89063
G1 X111.821 Y90.016 E4.94751
G1 X112.745 Y89.343 E5.00454
M205 X10 Y10
G0 F6000 X112.615 Y88.943
M205 X8 Y8
G1 F1200 X114.017 Y88.943 E5.07448
G1 X115.151 Y89.768 E5.14445
G1 X115.584 Y91.1 E5.21432
G1 X115.157 Y92.415 E5.2833
G1 X115.157 Y92.786 E5.30181
G1 X115.476 Y93.765 E5.35318
G1 X115.164 Y94.722 E5.4034
G1 X115.164 Y95.094 E5.42196
G1 X115.619 Y96.492 E5.49531
G1 X115.159 Y97.905 E5.56944
G1 X115.159 Y98.277 E5.588
G1 X115.527 Y99.406 E5.64724
G1 X115.096 Y100.73 E5.71671
G1 X113.971 Y101.549 E5.78614
G1 X112.581 Y101.549 E5.85548
G1 X111.456 Y100.73 E5.92491
G1 X111.026 Y99.408 E5.99426
G1 X111.523 Y97.898 E6.07357
G1 X111.523 Y97.524 E6.09223
G1 X111.187 Y96.492 E6.14638
G1 X111.516 Y95.481 E6.19942
G1 X111.516 Y95.109 E6.21798
G1 X111.078 Y93.765 E6.2885
G1 X111.436 Y92.666 E6.34617
G1 X111.436 Y92.295 E6.36468
G1 X111.048 Y91.1 E6.42736
G1 X111.481 Y89.768 E6.49724
G1 X112.615 Y88.943 E6.5672
M205 X10 Y10
G0 F6000 X112.486 Y88.543
M205 X8 Y8
G1 F1200 X114.146 Y88.543 E6.65002
G1 X115.492 Y89.522 E6.73305
G1 X116.005 Y91.1 E6.81584
G1 X115.538 Y92.538 E6.89127
G1 X115.538 Y92.662 E6.89745
G1 X115.897 Y93.764 E6.95528
G1 X115.544 Y94.846 E7.01206
G1 X115.544 Y94.97 E7.01824
G1 X116.04 Y96.492 E7.09811
G1 X115.539 Y98.029 E7.17876
G1 X115.539 Y98.153 E7.18495
G1 X115.948 Y99.408 E7.2508
G1 X115.437 Y100.976 E7.33308
G1 X114.1 Y101.949 E7.41557
G1 X112.452 Y101.949 E7.49779
G1 X111.115 Y100.976 E7.58029
G1 X110.604 Y99.409 E7.66252
G1 X111.143 Y97.773 E7.74846
G1 X111.143 Y97.648 E7.75469
G1 X110.766 Y96.492 E7.81535
G1 X111.136 Y95.357 E7.87491
G1 X111.136 Y95.233 E7.8811
G1 X110.657 Y93.764 E7.95819
G1 X111.055 Y92.542 E8.0223
G1 X111.055 Y92.418 E8.02849
G1 X110.627 Y91.1 E8.09763
G1 X111.14 Y89.522 E8.18041
G1 X112.486 Y88.543 E8.26344
M205 X10 Y10
G1 F1500 E2.26344
G1 F600 Z0.375
G0 F6000 X113.277 Y93.469 Z0.375
M205 X8 Y8
G1 F600 Z0.3
G1 F1500 E8.26344
G1 F1200 X113.373 Y93.763 E8.27887
G1 X113.277 Y94.056 E8.29426
G1 X113.181 Y93.763 E8.30964
G1 X113.277 Y93.469 E8.32507
M205 X10 Y10
G1 F1500 E2.32507
G1 F600 Z0.375
G0 F6000 X113.403 Y96.146 Z0.375
M205 X8 Y8
G1 F600 Z0.3
G1 F1500 E8.32507
G1 F1200 X113.516 Y96.492 E8.34323
G1 X113.403 Y96.837 E8.36134
G1 X113.29 Y96.491 E8.3795
G1 X113.403 Y96.146 E8.39761
M205 X10 Y10
G1 F1500 E2.39761
G1 F600 Z0.375
G0 F6000 X113.278 Y98.962 Z0.375
M205 X8 Y8
G1 F600 Z0.3
G1 F1500 E8.39761
G1 F1200 X113.396 Y99.494 E8.4248
G1 X113.232 Y99.549 E8.43343
G1 X113.13 Y99.413 E8.44191
G1 X113.278 Y98.962 E8.46559
M205 X10 Y10
G1 F1500 E2.46559
G1 F600 Z0.375
G0 F6000 X113.803 Y117.85 Z0.375
M205 X8 Y8
G1 F600 Z0.3
G1 F1500 E8.46559
G1 F1200 X115.149 Y118.829 E8.54863
G1 X115.662 Y120.407 E8.63141
G1 X115.136 Y122.025 E8.71629
G1 X115.136 Y122.149 E8.72248
G1 X115.647 Y123.718 E8.8048
G1 X114.994 Y125.436 E8.89649
G1 X114.991 Y125.569 E8.90313
G1 X115.403 Y126.834 E8.96951
G1 X114.964 Y128.181 E9.04019
G1 X114.964 Y128.305 E9.04637
G1 X115.484 Y129.9 E9.13007
G1 X114.976 Y131.457 E9.21178
G1 X113.648 Y132.424 E9.29374
G1 X112.01 Y132.424 E9.37546
G1 X110.682 Y131.457 E9.45741
G1 X110.174 Y129.9 E9.53912
G1 X110.648 Y128.447 E9.61537
G1 X110.648 Y128.323 E9.62156
G1 X110.164 Y126.837 E9.69953
G1 X110.742 Y125.196 E9.78633
G1 X110.743 Y125.068 E9.79272
G1 X110.305 Y123.723 E9.86329
G1 X110.814 Y122.161 E9.94525
G1 X110.814 Y122.037 E9.95143
G1 X110.284 Y120.407 E10.03695
G1 X110.797 Y118.829 E10.11973
G1 X112.143 Y117.85 E10.20277
G1 X113.803 Y117.85 E10.28558
M205 X10 Y10
G0 F6000 X113.674 Y118.25
M205 X8 Y8
G1 F1200 X114.808 Y119.075 E10.35555
G1 X115.241 Y120.407 E10.42542
G1 X114.755 Y121.902 E10.50385
G1 X114.756 Y122.273 E10.52236
G1 X115.223 Y123.707 E10.5976
G1 X114.62 Y125.294 E10.6823
G1 X114.61 Y125.693 E10.70221
G1 X114.982 Y126.835 E10.76213
G1 X114.584 Y128.057 E10.82625
G1 X114.584 Y128.429 E10.84481
G1 X115.063 Y129.9 E10.92199
G1 X114.636 Y131.21 E10.99073
G1 X113.519 Y132.024 E11.05969
G1 X112.139 Y132.024 E11.12854
G1 X111.022 Y131.21 E11.19749
G1 X110.595 Y129.9 E11.26623
G1 X111.028 Y128.571 E11.33597
G1 X111.029 Y128.199 E11.35452
G1 X110.587 Y126.841 E11.42577
G1 X111.119 Y125.329 E11.50574
G1 X111.124 Y124.944 E11.52495
G1 X110.726 Y123.722 E11.58907
G1 X111.194 Y122.285 E11.66447
G1 X111.195 Y121.914 E11.68298
G1 X110.705 Y120.407 E11.76204
G1 X111.138 Y119.075 E11.83191
G1 X112.272 Y118.25 E11.90188
G1 X113.674 Y118.25 E11.97182
M205 X10 Y10
G0 F6000 X113.544 Y118.65
M205 X8 Y8
G1 F1200 X114.468 Y119.323 E12.02885
G1 X114.821 Y120.407 E12.08573
G1 X114.375 Y121.778 E12.15766
G1 X114.375 Y122.397 E12.18854
G1 X114.799 Y123.698 E12.2568
G1 X114.246 Y125.152 E12.33441
G1 X114.184 Y125.427 E12.34848
G1 X114.23 Y125.817 E12.36807
G1 X114.561 Y126.834 E12.42143
G1 X114.203 Y127.933 E12.47909
G1 X114.203 Y128.553 E12.51003
G1 X114.642 Y129.9 E12.58071
G1 X114.295 Y130.964 E12.63654
G1 X113.389 Y131.624 E12.69246
G1 X112.269 Y131.624 E12.74834
G1 X111.363 Y130.964 E12.80426
G1 X111.016 Y129.9 E12.8601
G1 X111.409 Y128.695 E12.92333
G1 X111.409 Y128.075 E12.95426
G1 X111.009 Y126.846 E13.01874
G1 X111.496 Y125.462 E13.09194
G1 X111.551 Y125.185 E13.10603
G1 X111.504 Y124.82 E13.12439
G1 X111.147 Y123.723 E13.18195
G1 X111.575 Y122.409 E13.25089
G1 X111.575 Y121.79 E13.28178
G1 X111.125 Y120.407 E13.35433
G1 X111.478 Y119.323 E13.41121
G1 X112.402 Y118.65 E13.46824
G1 X113.544 Y118.65 E13.52521
M205 X10 Y10
G0 F6000 X113.413 Y119.05
M205 X8 Y8
G1 F1200 X114.128 Y119.57 E13.56932
G1 X114.4 Y120.407 E13.61323
G1 X113.995 Y121.654 E13.67864
G1 X113.945 Y122.316 E13.71176
G1 X113.995 Y122.521 E13.72229
G1 X114.375 Y123.687 E13.78347
G1 X113.872 Y125.01 E13.85409
G1 X113.79 Y125.668 E13.88717
G1 X113.85 Y125.94 E13.90107
G1 X114.141 Y126.833 E13.94792
G1 X113.823 Y127.809 E13.99914
G1 X113.773 Y128.471 E14.03226
G1 X113.823 Y128.677 E14.04283
G1 X114.222 Y129.9 E14.10701
G1 X113.956 Y130.716 E14.14983
G1 X113.258 Y131.224 E14.1929
G1 X112.4 Y131.224 E14.23571
G1 X111.702 Y130.716 E14.27878
G1 X111.436 Y129.9 E14.3216
G1 X111.789 Y128.819 E14.37833
G1 X111.839 Y128.158 E14.4114
G1 X111.789 Y127.952 E14.42198
G1 X111.431 Y126.853 E14.47964
G1 X111.874 Y125.595 E14.54618
G1 X111.939 Y124.935 E14.57927
G1 X111.884 Y124.697 E14.59146
G1 X111.567 Y123.723 E14.64256
G1 X111.955 Y122.533 E14.705
G1 X112.005 Y121.871 E14.73813
G1 X111.955 Y121.666 E14.74865
G1 X111.546 Y120.407 E14.8147
G1 X111.818 Y119.57 E14.8586
G1 X112.533 Y119.05 E14.90271
G1 X113.413 Y119.05 E14.94661
M205 X10 Y10
G0 F6000 X113.283 Y119.45
M205 X8 Y8
G1 F1200 X113.788 Y119.817 E14.97776
G1 X113.979 Y120.407 E15.0087
G1 X113.614 Y121.531 E15.06766
G1 X113.536 Y122.28 E15.10523
G1 X113.615 Y122.645 E15.12386
G1 X113.951 Y123.676 E15.17796
G1 X113.498 Y124.868 E15.24158
G1 X113.384 Y125.613 E15.27918
G1 X113.469 Y126.064 E15.30208
G1 X113.72 Y126.834 E15.34248
G1 X113.443 Y127.685 E15.38713
G1 X113.364 Y128.435 E15.42475
G1 X113.443 Y128.801 E15.44343
G1 X113.801 Y129.9 E15.5011
G1 X113.616 Y130.468 E15.5309
G1 X113.128 Y130.824 E15.56104
G1 X112.53 Y130.824 E15.59087
G1 X112.042 Y130.468 E15.62101
G1 X111.857 Y129.9 E15.65081
G1 X112.169 Y128.943 E15.70103
G1 X112.248 Y128.193 E15.73865
G1 X112.17 Y127.828 E15.75728
G1 X111.854 Y126.856 E15.80827
G1 X112.251 Y125.728 E15.86793
G1 X112.347 Y124.98 E15.90555
G1 X112.265 Y124.573 E15.92626
G1 X111.988 Y123.722 E15.97091
G1 X112.335 Y122.656 E16.02684
G1 X112.414 Y121.907 E16.06442
G1 X112.336 Y121.543 E16.08299
G1 X111.967 Y120.407 E16.14258
G1 X112.158 Y119.817 E16.17352
G1 X112.663 Y119.45 E16.20467
G1 X113.283 Y119.45 E16.2356
M205 X10 Y10
G0 F6000 X113.154 Y119.85
M205 X8 Y8
G1 F1200 X113.448 Y120.064 E16.25374
G1 X113.559 Y120.407 E16.27173
G1 X113.234 Y121.407 E16.32418
G1 X113.131 Y122.235 E16.36581
G1 X113.234 Y122.768 E16.39289
G1 X113.527 Y123.667 E16.44007
G1 X113.125 Y124.725 E16.49653
G1 X112.981 Y125.547 E16.53817
G1 X113.089 Y126.188 E16.5706
G1 X113.299 Y126.834 E16.60449
G1 X113.062 Y127.562 E16.64268
G1 X112.959 Y128.389 E16.68426
G1 X113.062 Y128.925 E16.71149
G1 X113.38 Y129.9 E16.76266
G1 X113.274 Y130.223 E16.77962
G1 X112.998 Y130.424 E16.79665
G1 X112.66 Y130.424 E16.81351
G1 X112.384 Y130.223 E16.83055
G1 X112.278 Y129.9 E16.84751
G1 X112.55 Y129.067 E16.89123
G1 X112.653 Y128.239 E16.93285
G1 X112.55 Y127.704 E16.96004
G1 X112.276 Y126.862 E17.00421
G1 X112.628 Y125.861 E17.05715
G1 X112.751 Y125.035 E17.09881
G1 X112.645 Y124.449 E17.12852
G1 X112.409 Y123.723 E17.16661
G1 X112.716 Y122.78 E17.21609
G1 X112.819 Y121.953 E17.25766
G1 X112.716 Y121.419 E17.2848
G1 X112.387 Y120.407 E17.33789
G1 X112.498 Y120.064 E17.35587
G1 X112.792 Y119.85 E17.37401
G1 X113.154 Y119.85 E17.39207
M205 X10 Y10
G0 F6000 X113.023 Y120.25
M205 X8 Y8
G1 F1200 X113.138 Y120.406 E17.40174
G1 X112.973 Y120.914 E17.42839
G1 X112.808 Y120.406 E17.45504
G1 X112.923 Y120.25 E17.46471
G1 X113.023 Y120.25 E17.4697
M205 X10 Y10
G1 F1500 E11.4697
G1 F600 Z0.375
G0 F6000 X112.977 Y123.269 Z0.375
M205 X8 Y8
G1 F600 Z0.3
G1 F1500 E17.4697
G1 F1200 X113.103 Y123.657 E17.49005
G1 X112.944 Y124.076 E17.51241
G1 X112.829 Y123.723 E17.53093
G1 X112.977 Y123.269 E17.55475
M205 X10 Y10
G1 F1500 E11.55475
G1 F600 Z0.375
G0 F6000 X112.797 Y126.584 Z0.375
M205 X8 Y8
G1 F600 Z0.3
G1 F1500 E17.55475
G1 F1200 X112.879 Y126.834 E17.56788
G1 X112.783 Y127.128 E17.58331
G1 X112.698 Y126.867 E17.597
G1 X112.797 Y126.584 E17.61196
M205 X10 Y10
G1 F1500 E11.61196
G1 F600 Z0.375
G0 F6000 X112.829 Y129.5 Z0.375
M205 X8 Y8
G1 F600 Z0.3
G1 F1500 E17.61196
G1 F1200 X112.935 Y129.974 E17.63619
G1 X112.791 Y130.024 E17.6438
G1 X112.699 Y129.9 E17.6515
G1 X112.829 Y129.5 E17.67249
M205 X10 Y10
G1 F1500 E11.67249
G1 F600 Z0.375
G0 F6000 X113.347 Y144.454 Z0.375
M205 X8 Y8
G1 F600 Z0.3
G1 F1500 E17.67249
G1 F1200 X114.214 Y145.085 E17.72598
G1 X114.545 Y146.1 E17.77925
G1 X114.214 Y147.115 E17.83251
G1 X113.347 Y147.746 E17.88601
G1 X112.281 Y147.746 E17.93919
G1 X111.414 Y147.115 E17.99269
G1 X111.083 Y146.1 E18.04595
G1 X111.414 Y145.085 E18.09921
G1 X112.281 Y144.454 E18.15271
G1 X113.347 Y144.454 E18.2059
M205 X10 Y10
G0 F6000 X113.218 Y144.854
M205 X8 Y8
G1 F1200 X113.874 Y145.332 E18.24639
G1 X114.124 Y146.1 E18.28668
G1 X113.874 Y146.868 E18.32698
G1 X113.218 Y147.346 E18.36747
G1 X112.41 Y147.346 E18.40779
G1 X111.754 Y146.868 E18.44828
G1 X111.504 Y146.1 E18.48857
G1 X111.754 Y145.332 E18.52887
G1 X112.41 Y144.854 E18.56936
G1 X113.218 Y144.854 E18.60968
M205 X10 Y10
