;FLAVOR:Marlin
;TIME:2288
;Filament used: 1.58796m
;Layer height: 0.2
;MINX:68.307
;MINY:62.964
;MINZ:0.3
;MAXX:156.69
;MAXY:156.832
;MAXZ:4.975
;Generated with Cura_SteamEngine 4.13.1
M140 S60
M105
M190 S60
M104 S200
M105
M109 S200
M82 ;absolute extrusion mode
G21                                        ; metric values
G90                                        ; absolute positioning
M82                                        ; set extruder to absolute mode
M107                                       ; start with the fan off
M190 S60                                   ; preheat and wait for bed
M109 S210                                  ; preheat and wait for hotend
M300 S1000 P500                            ; BEEP heating done
G28 X0 Y10 Z0                              ; move X/Y to min endstops
M420 S1                                    ; enable mesh leveling
G0 Z0.15                                   ; lift nozzle a bit
G0 X2                                      ; move away from clips
G92 E0                                     ; zero the extruded length
G1 Y50 E25 F500                            ; Extrude 25mm of filament in a 5cm line.
G92 E0                                     ; zero the extruded length again
G1 E-2 F500                                ; Retract a little
G1 Y120 F4000                              ; Quickly wipe away from the filament line
G92 E0
G92 E0
G1 F1500 E-6
;LAYER_COUNT:24
;LAYER:0
M107
M205 X10 Y10
G1 F600 Z0.375
G0 F6000 X80.201 Y79.863 Z0.375
M205 X8 Y8
;TYPE:SKIRT
G1 F600 Z0.3
G1 F1500 E0
G1 F1200 X82.257 Y77.808 E0.14503
G1 X82.739 Y77.341 E0.17851
G1 X83.186 Y76.94 E0.20847
G1 X83.521 Y76.66 E0.23025
G1 X85.734 Y74.865 E0.37241
G1 X86.295 Y74.424 E0.40801
G1 X86.734 Y74.104 E0.43511
G1 X87.154 Y73.824 E0.4603
G1 X89.475 Y72.309 E0.59858
G1 X90.095 Y71.916 E0.6352
G1 X90.641 Y71.601 E0.66665
G1 X90.974 Y71.425 E0.68544
G1 X93.505 Y70.126 E0.82737
G1 X94.181 Y69.791 E0.86501
G1 X94.712 Y69.553 E0.89404
G1 X95.122 Y69.388 E0.91609
G1 X97.75 Y68.367 E1.05675
G1 X99.337 Y67.776 E1.14124
G1 X100.345 Y67.415 E1.19466
G1 X102.785 Y66.466 E1.32527
G1 X105.237 Y65.43 E1.45807
G1 X107.934 Y64.195 E1.60606
G1 X108.755 Y63.804 E1.65143
G1 X109.677 Y63.45 E1.7007
G1 X110.372 Y63.283 E1.73636
G1 X110.836 Y63.216 E1.75975
G1 X111.832 Y63.111 E1.80972
G1 X112.136 Y63.084 E1.82495
G1 X112.985 Y62.997 E1.86752
G1 X113.7 Y62.964 E1.90323
G1 X114.413 Y63.011 E1.93888
G1 X115.117 Y63.137 E1.97456
G1 X115.803 Y63.341 E2.01027
G1 X116.496 Y63.638 E2.04788
G1 X117.516 Y64.147 E2.10476
G1 X119.964 Y65.327 E2.24034
G1 X122.36 Y66.4 E2.37131
G1 X124.811 Y67.415 E2.50366
G1 X127.266 Y68.352 E2.63476
G1 X128.187 Y68.69 E2.68371
G1 X128.362 Y68.757 E2.69306
G1 X129.239 Y69.109 E2.7402
G1 X130.088 Y69.465 E2.78613
G1 X130.593 Y69.685 E2.81361
G1 X130.774 Y69.767 E2.82353
G1 X131.673 Y70.193 E2.87316
G1 X132.436 Y70.568 E2.91557
G1 X133.007 Y70.859 E2.94755
G1 X133.172 Y70.946 E2.95685
G1 X133.996 Y71.397 E3.00372
G1 X134.761 Y71.832 E3.04762
G1 X135.31 Y72.154 E3.07938
G1 X135.475 Y72.255 E3.08903
G1 X136.25 Y72.742 E3.13469
G1 X137.022 Y73.244 E3.18064
G1 X137.495 Y73.561 E3.20904
G1 X137.655 Y73.671 E3.21873
G1 X138.493 Y74.271 E3.27015
G1 X139.121 Y74.735 E3.3091
G1 X139.634 Y75.124 E3.34122
G1 X139.791 Y75.247 E3.35117
G1 X140.59 Y75.895 E3.4025
G1 X141.234 Y76.433 E3.44436
G1 X141.687 Y76.823 E3.47419
G1 X141.828 Y76.948 E3.48359
G1 X142.531 Y77.592 E3.53115
G1 X143.166 Y78.189 E3.57463
G1 X143.607 Y78.616 E3.60526
G1 X143.751 Y78.76 E3.61542
G1 X144.438 Y79.47 E3.66471
G1 X144.983 Y80.048 E3.70434
G1 X145.465 Y80.575 E3.73997
G1 X145.591 Y80.716 E3.74941
G1 X146.178 Y81.399 E3.79434
G1 X146.751 Y82.087 E3.83901
G1 X147.117 Y82.537 E3.86795
G1 X147.24 Y82.693 E3.87786
G1 X147.847 Y83.489 E3.9278
G1 X148.344 Y84.163 E3.96958
G1 X148.704 Y84.666 E4.00044
G1 X148.815 Y84.826 E4.01015
G1 X149.397 Y85.694 E4.06229
G1 X149.803 Y86.32 E4.09952
G1 X150.178 Y86.915 E4.13461
G1 X150.281 Y87.084 E4.14448
G1 X150.733 Y87.853 E4.18898
G1 X151.211 Y88.697 E4.23737
G1 X151.495 Y89.216 E4.26689
G1 X151.578 Y89.372 E4.27571
G1 X151.969 Y90.138 E4.31861
G1 X152.405 Y91.026 E4.36797
G1 X152.64 Y91.523 E4.39539
G1 X152.715 Y91.689 E4.40448
G1 X153.128 Y92.632 E4.45584
G1 X153.447 Y93.395 E4.4971
G1 X153.691 Y94.003 E4.52979
G1 X153.757 Y94.175 E4.53898
G1 X154.048 Y94.965 E4.58098
G1 X154.373 Y95.895 E4.63013
G1 X154.565 Y96.468 E4.66028
G1 X154.623 Y96.65 E4.66981
G1 X154.908 Y97.596 E4.7191
G1 X155.136 Y98.403 E4.76094
G1 X155.31 Y99.049 E4.79431
G1 X155.358 Y99.239 E4.80409
G1 X155.554 Y100.069 E4.84664
G1 X155.753 Y100.971 E4.89272
G1 X155.881 Y101.59 E4.92426
G1 X155.918 Y101.784 E4.93411
G1 X156.079 Y102.71 E4.981
G1 X156.224 Y103.626 E5.02727
G1 X156.303 Y104.175 E5.05494
G1 X156.327 Y104.36 E5.06425
G1 X156.442 Y105.374 E5.11516
G1 X156.521 Y106.188 E5.15596
G1 X156.576 Y106.844 E5.18881
G1 X156.589 Y107.037 E5.19846
G1 X156.637 Y107.956 E5.24437
G1 X156.671 Y108.856 E5.2893
G1 X156.688 Y109.571 E5.32498
G1 X156.69 Y109.735 E5.33317
G1 X156.687 Y110.453 E5.36899
G1 X156.67 Y110.971 E5.39485
G1 X156.51 Y113.766 E5.53452
G1 X156.473 Y114.28 E5.56023
G1 X156.432 Y114.677 E5.58014
G1 X156.244 Y116.063 E5.64992
G1 X155.926 Y118.081 E5.75184
G1 X155.841 Y118.581 E5.77714
G1 X155.756 Y118.997 E5.79833
G1 X155.438 Y120.323 E5.86636
G1 X154.916 Y122.326 E5.96962
G1 X154.783 Y122.809 E5.99462
G1 X154.663 Y123.197 E6.01488
G1 X154.206 Y124.518 E6.08462
G1 X153.514 Y126.397 E6.18452
G1 X153.308 Y126.932 E6.21312
G1 X153.152 Y127.301 E6.2331
G1 X152.646 Y128.404 E6.29365
G1 X151.725 Y130.305 E6.39903
G1 X151.45 Y130.854 E6.42967
G1 X151.254 Y131.215 E6.45016
G1 X150.573 Y132.376 E6.51731
G1 X149.496 Y134.132 E6.62009
G1 X149.206 Y134.59 E6.64713
G1 X148.979 Y134.924 E6.66728
G1 X148.18 Y136.024 E6.73511
G1 X146.899 Y137.712 E6.84083
G1 X146.356 Y138.388 E6.88408
G1 X145.534 Y139.312 E6.94578
G1 X144.069 Y140.893 E7.05332
G1 X143.554 Y141.435 E7.09062
G1 X143.151 Y141.836 E7.11898
G1 X142.848 Y142.119 E7.13967
G1 X142.04 Y142.837 E7.19359
G1 X140.487 Y144.175 E7.29586
G1 X139.995 Y144.587 E7.32788
G1 X139.688 Y144.828 E7.34735
G1 X138.764 Y145.509 E7.40462
G1 X137.125 Y146.673 E7.50491
G1 X136.655 Y146.997 E7.53339
G1 X136.324 Y147.211 E7.55305
G1 X135.291 Y147.832 E7.61319
G1 X133.576 Y148.821 E7.71196
G1 X133.085 Y149.096 E7.74003
G1 X132.733 Y149.279 E7.75983
G1 X131.668 Y149.79 E7.81876
G1 X129.878 Y150.61 E7.91699
G1 X129.309 Y150.86 E7.94799
G1 X128.966 Y151 E7.96648
G1 X127.843 Y151.416 E8.02622
G1 X126.018 Y152.054 E8.12268
G1 X123.474 Y152.984 E8.25781
G1 X121.023 Y153.958 E8.38939
G1 X118.599 Y155.003 E8.52109
G1 X116.518 Y155.965 E8.63547
G1 X116.019 Y156.203 E8.66305
G1 X115.358 Y156.474 E8.69869
G1 X114.67 Y156.67 E8.73438
G1 X113.964 Y156.788 E8.77009
G1 X113.372 Y156.825 E8.79968
G1 X112.632 Y156.832 E8.8366
G1 X112.472 Y156.828 E8.84459
G1 X111.759 Y156.77 E8.88028
G1 X111.057 Y156.633 E8.91596
G1 X110.08 Y156.299 E8.96747
G1 X109.035 Y155.844 E9.02434
G1 X108.668 Y155.678 E9.04443
G1 X106.221 Y154.651 E9.17683
G1 X103.755 Y153.696 E9.30876
G1 X100.979 Y152.72 E9.45557
G1 X98.433 Y151.865 E9.58956
G1 X96.559 Y151.195 E9.68885
G1 X95.995 Y150.984 E9.71889
G1 X95.634 Y150.836 E9.73836
G1 X94.455 Y150.31 E9.80277
G1 X92.621 Y149.448 E9.90387
G1 X91.804 Y149.038 E9.94947
G1 X90.717 Y148.42 E10.01185
G1 X88.993 Y147.397 E10.11187
G1 X88.504 Y147.099 E10.14044
G1 X88.158 Y146.873 E10.16106
G1 X87.12 Y146.143 E10.22437
G1 X85.528 Y144.981 E10.3227
G1 X85.062 Y144.631 E10.35177
G1 X84.748 Y144.38 E10.37183
G1 X83.781 Y143.552 E10.43534
G1 X82.306 Y142.24 E10.53383
G1 X81.764 Y141.745 E10.57045
G1 X81.204 Y141.194 E10.60964
G1 X80.228 Y140.149 E10.68098
G1 X78.853 Y138.618 E10.78365
G1 X78.501 Y138.215 E10.81034
G1 X78.25 Y137.91 E10.83005
G1 X77.537 Y136.984 E10.88836
G1 X76.248 Y135.237 E10.99667
G1 X75.939 Y134.805 E11.02317
G1 X75.721 Y134.48 E11.04269
G1 X75.03 Y133.376 E11.10767
G1 X73.981 Y131.62 E11.20972
G1 X73.72 Y131.17 E11.23567
G1 X73.528 Y130.815 E11.25581
G1 X73.012 Y129.78 E11.31351
G1 X72.08 Y127.817 E11.42192
G1 X71.853 Y127.319 E11.44922
G1 X71.702 Y126.957 E11.46879
G1 X71.235 Y125.737 E11.53396
G1 X70.556 Y123.851 E11.63397
G1 X70.377 Y123.333 E11.66131
G1 X70.255 Y122.941 E11.68179
G1 X69.94 Y121.796 E11.74104
G1 X69.419 Y119.755 E11.84613
G1 X69.284 Y119.192 E11.87502
G1 X69.204 Y118.803 E11.89483
G1 X68.984 Y117.541 E11.95874
G1 X68.669 Y115.486 E12.06246
G1 X68.559 Y114.609 E12.10656
G1 X68.458 Y113.276 E12.17325
G1 X68.346 Y111.264 E12.27379
G1 X68.316 Y110.572 E12.30834
G1 X68.307 Y110.001 E12.33684
G1 X68.32 Y109.287 E12.37246
G1 X68.343 Y108.792 E12.39719
G1 X68.507 Y106.072 E12.53313
G1 X68.563 Y105.312 E12.57115
G1 X68.635 Y104.686 E12.60259
G1 X68.665 Y104.487 E12.61263
G1 X69.163 Y101.461 E12.76563
G1 X69.278 Y100.817 E12.79827
G1 X69.417 Y100.189 E12.83036
G1 X69.519 Y99.798 E12.85052
G1 X70.267 Y97.069 E12.99169
G1 X70.47 Y96.367 E13.02814
G1 X70.653 Y95.816 E13.05711
G1 X70.818 Y95.373 E13.0807
G1 X71.834 Y92.763 E13.22043
G1 X72.112 Y92.078 E13.25731
G1 X72.342 Y91.566 E13.28531
G1 X72.513 Y91.221 E13.30452
G1 X73.871 Y88.579 E13.45272
G1 X74.182 Y87.995 E13.48573
G1 X74.489 Y87.47 E13.51608
G1 X74.591 Y87.309 E13.52558
G1 X76.296 Y84.694 E13.68133
G1 X76.643 Y84.178 E13.71235
G1 X77.022 Y83.662 E13.74429
G1 X77.303 Y83.307 E13.76688
G1 X79.063 Y81.141 E13.90612
G1 X79.531 Y80.581 E13.94253
G1 X79.925 Y80.146 E13.97181
G1 X80.201 Y79.863 E13.99153
M205 X10 Y10
G0 F6000 X80.483 Y80.145
M205 X8 Y8
G1 F1200 X82.535 Y78.095 E14.13624
G1 X83.017 Y77.628 E14.16973
G1 X83.448 Y77.242 E14.19859
G1 X83.773 Y76.971 E14.2197
G1 X85.981 Y75.18 E14.36154
G1 X86.542 Y74.739 E14.39714
G1 X86.964 Y74.432 E14.42318
G1 X87.372 Y74.159 E14.44767
G1 X89.689 Y72.647 E14.5857
G1 X90.309 Y72.254 E14.62232
G1 X90.834 Y71.951 E14.65257
G1 X91.156 Y71.781 E14.67073
G1 X93.683 Y70.484 E14.81244
G1 X94.359 Y70.149 E14.85008
G1 X94.868 Y69.921 E14.87791
G1 X95.267 Y69.76 E14.89937
G1 X97.89 Y68.742 E15.03974
G1 X99.472 Y68.153 E15.12396
G1 X100.477 Y67.793 E15.17722
G1 X102.95 Y66.831 E15.30961
G1 X105.381 Y65.804 E15.44127
G1 X108.092 Y64.563 E15.59002
G1 X108.927 Y64.165 E15.63617
G1 X109.792 Y63.833 E15.68239
G1 X110.466 Y63.673 E15.71695
G1 X110.879 Y63.614 E15.73777
G1 X111.867 Y63.509 E15.78734
G1 X112.214 Y63.478 E15.80472
G1 X113.026 Y63.395 E15.84544
G1 X113.718 Y63.365 E15.87999
G1 X114.408 Y63.414 E15.91451
G1 X115.089 Y63.542 E15.94908
G1 X115.75 Y63.748 E15.98362
G1 X116.317 Y63.995 E16.01447
G1 X117.371 Y64.521 E16.07324
G1 X119.792 Y65.688 E16.20733
G1 X122.205 Y66.768 E16.33922
G1 X124.682 Y67.794 E16.47298
G1 X127.134 Y68.731 E16.60394
G1 X128.049 Y69.066 E16.65255
G1 X128.214 Y69.129 E16.66136
G1 X129.084 Y69.478 E16.70813
G1 X129.928 Y69.831 E16.75377
G1 X130.433 Y70.051 E16.78125
G1 X130.603 Y70.128 E16.79056
G1 X131.497 Y70.552 E16.83993
G1 X132.254 Y70.924 E16.88201
G1 X132.825 Y71.215 E16.91398
G1 X132.98 Y71.297 E16.92273
G1 X133.798 Y71.745 E16.96926
G1 X134.559 Y72.178 E17.01294
G1 X135.108 Y72.5 E17.04469
G1 X135.262 Y72.594 E17.05369
G1 X136.032 Y73.078 E17.09907
G1 X136.799 Y73.576 E17.14469
G1 X137.272 Y73.893 E17.1731
G1 X137.422 Y73.997 E17.18221
G1 X138.255 Y74.593 E17.23331
G1 X138.879 Y75.054 E17.27201
G1 X139.392 Y75.443 E17.30413
G1 X139.54 Y75.558 E17.31348
G1 X140.334 Y76.202 E17.36449
G1 X140.973 Y76.736 E17.40603
G1 X141.426 Y77.126 E17.43586
G1 X141.558 Y77.243 E17.44466
G1 X142.257 Y77.883 E17.49194
G1 X142.888 Y78.476 E17.53514
G1 X143.329 Y78.903 E17.56577
G1 X143.463 Y79.038 E17.57525
G1 X144.147 Y79.745 E17.62433
G1 X144.687 Y80.318 E17.66361
G1 X145.169 Y80.845 E17.69924
G1 X145.287 Y80.978 E17.70812
G1 X145.871 Y81.656 E17.75276
G1 X146.441 Y82.339 E17.79714
G1 X146.807 Y82.789 E17.82608
G1 X146.922 Y82.936 E17.83539
G1 X147.525 Y83.727 E17.88501
G1 X148.019 Y84.396 E17.9265
G1 X148.379 Y84.899 E17.95736
G1 X148.483 Y85.048 E17.96643
G1 X149.061 Y85.912 E18.01829
G1 X149.465 Y86.533 E18.05525
G1 X149.84 Y87.128 E18.09034
G1 X149.937 Y87.287 E18.09963
G1 X150.385 Y88.051 E18.14382
G1 X150.86 Y88.889 E18.19188
G1 X151.222 Y89.554 E18.22965
G1 X151.61 Y90.314 E18.27222
G1 X152.043 Y91.197 E18.32129
G1 X152.278 Y91.694 E18.34871
G1 X152.349 Y91.85 E18.35726
G1 X152.759 Y92.786 E18.40825
G1 X153.075 Y93.544 E18.44922
G1 X153.319 Y94.152 E18.4819
G1 X153.381 Y94.313 E18.49051
G1 X153.705 Y95.194 E18.53734
G1 X153.994 Y96.022 E18.58109
G1 X154.186 Y96.595 E18.61124
G1 X154.241 Y96.766 E18.6202
G1 X154.523 Y97.704 E18.66907
G1 X154.75 Y98.508 E18.71075
G1 X154.924 Y99.154 E18.74413
G1 X154.968 Y99.331 E18.75323
G1 X155.163 Y100.155 E18.79547
G1 X155.362 Y101.052 E18.84131
G1 X155.49 Y101.671 E18.87285
G1 X155.524 Y101.853 E18.88208
G1 X155.684 Y102.772 E18.92862
G1 X155.828 Y103.683 E18.97464
G1 X155.907 Y104.232 E19.00231
G1 X155.929 Y104.406 E19.01106
G1 X156.044 Y105.413 E19.06162
G1 X156.122 Y106.222 E19.10217
G1 X156.177 Y106.878 E19.13502
G1 X156.189 Y107.059 E19.14407
G1 X156.238 Y107.971 E19.18963
G1 X156.271 Y108.865 E19.23426
G1 X156.29 Y109.734 E19.27763
G1 X156.287 Y110.443 E19.313
G1 X156.27 Y110.949 E19.33826
G1 X156.112 Y113.737 E19.47758
G1 X156.075 Y114.251 E19.50329
G1 X156.036 Y114.623 E19.52195
G1 X155.867 Y115.874 E19.58493
G1 X155.532 Y118.014 E19.69299
G1 X155.447 Y118.514 E19.7183
G1 X155.367 Y118.904 E19.73816
G1 X155.051 Y120.222 E19.80578
G1 X154.531 Y122.22 E19.90878
G1 X154.398 Y122.703 E19.93377
G1 X154.285 Y123.067 E19.95279
G1 X153.831 Y124.38 E20.0221
G1 X153.14 Y126.253 E20.1217
G1 X152.934 Y126.788 E20.1503
G1 X152.789 Y127.134 E20.16902
G1 X152.283 Y128.237 E20.22956
G1 X151.329 Y130.204 E20.33863
G1 X151.093 Y130.674 E20.36487
G1 X150.909 Y131.013 E20.38411
G1 X150.232 Y132.167 E20.45086
G1 X149.158 Y133.918 E20.55334
G1 X148.868 Y134.376 E20.58038
G1 X148.655 Y134.689 E20.59927
G1 X147.861 Y135.782 E20.66667
G1 X146.583 Y137.467 E20.77218
G1 X146.057 Y138.122 E20.81409
G1 X145.152 Y139.137 E20.88194
G1 X143.779 Y140.618 E20.98269
G1 X143.264 Y141.16 E21.01999
G1 X142.876 Y141.546 E21.0473
G1 X142.582 Y141.82 E21.06735
G1 X141.779 Y142.534 E21.12096
G1 X140.23 Y143.868 E21.22294
G1 X139.738 Y144.28 E21.25496
G1 X139.451 Y144.506 E21.27318
G1 X138.532 Y145.183 E21.33013
G1 X136.898 Y146.344 E21.43013
G1 X136.428 Y146.668 E21.45861
G1 X136.117 Y146.869 E21.47709
G1 X135.091 Y147.485 E21.53679
G1 X133.381 Y148.472 E21.6353
G1 X132.89 Y148.747 E21.66337
G1 X132.56 Y148.919 E21.68194
G1 X131.502 Y149.427 E21.74049
G1 X129.718 Y150.244 E21.83839
G1 X129.149 Y150.494 E21.86939
G1 X128.826 Y150.625 E21.88678
G1 X127.711 Y151.038 E21.9461
G1 X125.874 Y151.68 E22.04319
G1 X123.337 Y152.607 E22.17794
G1 X120.883 Y153.583 E22.3097
G1 X118.402 Y154.652 E22.44448
G1 X116.39 Y155.583 E22.55508
G1 X115.847 Y155.842 E22.5851
G1 X115.206 Y156.103 E22.61963
G1 X114.539 Y156.289 E22.65417
G1 X113.855 Y156.397 E22.68872
G1 X112.894 Y156.433 E22.7367
G1 X112.482 Y156.428 E22.75726
G1 X111.792 Y156.371 E22.7918
G1 X111.113 Y156.235 E22.82635
G1 X110.239 Y155.932 E22.8725
G1 X109.2 Y155.479 E22.92904
G1 X108.839 Y155.315 E22.94883
G1 X106.372 Y154.281 E23.08228
G1 X103.906 Y153.325 E23.21423
G1 X101.113 Y152.343 E23.36193
G1 X98.567 Y151.488 E23.49593
G1 X96.7 Y150.821 E23.59484
G1 X96.136 Y150.61 E23.62488
G1 X95.797 Y150.471 E23.64316
G1 X94.625 Y149.948 E23.70719
G1 X92.795 Y149.088 E23.80807
G1 X92.002 Y148.69 E23.85233
G1 X90.921 Y148.076 E23.91436
G1 X89.201 Y147.056 E24.01412
G1 X88.712 Y146.758 E24.04269
G1 X88.388 Y146.545 E24.06204
G1 X87.356 Y145.82 E24.12496
G1 X85.769 Y144.662 E24.22297
G1 X85.303 Y144.312 E24.25205
G1 X85.008 Y144.075 E24.27093
G1 X84.047 Y143.253 E24.33402
G1 X82.576 Y141.944 E24.43225
G1 X82.034 Y141.449 E24.46888
G1 X81.496 Y140.921 E24.50648
G1 X80.607 Y139.971 E24.57139
G1 X79.154 Y138.355 E24.67981
G1 X78.802 Y137.952 E24.70651
G1 X78.567 Y137.665 E24.72502
G1 X77.78 Y136.642 E24.78941
G1 X76.573 Y135.005 E24.89088
G1 X76.264 Y134.573 E24.91738
G1 X76.06 Y134.268 E24.93568
G1 X75.374 Y133.171 E25.00023
