;FLAVOR:Marlin
;TIME:3886
;Filament used: 2.83424m
;Layer height: 0.2
;MINX:84.6
;MINY:76.6
;MINZ:0.3
;MAXX:140.4
;MAXY:143.4
;MAXZ:13.175
;Generated with Cura_SteamEngine 4.13.1
M140 S60
M105
M190 S60
M104 S200
M105
M109 S200
M82 ;absolute extrusion mode
G21                                        ; metric values
G90                                        ; absolute positioning
M82                                        ; set extruder to absolute mode
M107                                       ; start with the fan off
M190 S60                                   ; preheat and wait for bed
M109 S210                                  ; preheat and wait for hotend
M300 S1000 P500                            ; BEEP heating done
G28 X0 Y10 Z0                              ; move X/Y to min endstops
M420 S1                                    ; enable mesh leveling
G0 Z0.15                                   ; lift nozzle a bit
G0 X2                                      ; move away from clips
G92 E0                                     ; zero the extruded length
G1 Y50 E25 F500                            ; Extrude 25mm of filament in a 5cm line.
G92 E0                                     ; zero the extruded length again
G1 E-2 F500                                ; Retract a little
G1 Y120 F4000                              ; Quickly wipe away from the filament line
G92 E0
G92 E0
G1 F1500 E-6
;LAYER_COUNT:65
;LAYER:0
M107
M205 X10 Y10
G1 F600 Z0.375
G0 F6000 X86.05 Y78.963 Z0.375
M205 X8 Y8
;TYPE:SKIRT
G1 F600 Z0.3
G1 F1500 E0
G1 F1200 X86.533 Y78.435 E0.0357
G1 X87.071 Y77.964 E0.07137
G1 X87.659 Y77.556 E0.10708
G1 X88.288 Y77.216 E0.14275
G1 X88.952 Y76.949 E0.17846
G1 X89.641 Y76.757 E0.21414
G1 X90.347 Y76.643 E0.24982
G1 X91.151 Y76.603 E0.28998
G1 X91.33 Y76.6 E0.29891
G1 X133.293 Y76.6 E2.39246
G1 X134.083 Y76.611 E2.43187
G1 X134.796 Y76.661 E2.46753
G1 X135.5 Y76.79 E2.50324
G1 X136.184 Y76.998 E2.53891
G1 X136.841 Y77.28 E2.57458
G1 X137.463 Y77.634 E2.61028
G1 X138.041 Y78.055 E2.64596
G1 X138.569 Y78.538 E2.68166
G1 X139.039 Y79.076 E2.7173
G1 X139.447 Y79.664 E2.753
G1 X139.786 Y80.294 E2.7887
G1 X140.053 Y80.957 E2.82436
G1 X140.244 Y81.647 E2.86007
G1 X140.357 Y82.353 E2.89575
G1 X140.397 Y83.15 E2.93556
G1 X140.4 Y83.33 E2.94454
G1 X140.4 Y136.343 E5.58937
G1 X140.391 Y137.07 E5.62564
G1 X140.342 Y137.784 E5.66135
G1 X140.214 Y138.488 E5.69705
G1 X140.008 Y139.173 E5.73273
G1 X139.727 Y139.83 E5.76838
G1 X139.374 Y140.453 E5.80411
G1 X138.954 Y141.032 E5.83979
G1 X138.472 Y141.56 E5.87546
G1 X137.935 Y142.032 E5.91113
G1 X137.347 Y142.44 E5.94683
G1 X136.718 Y142.781 E5.98253
G1 X136.055 Y143.049 E6.01821
G1 X135.366 Y143.241 E6.05389
G1 X134.66 Y143.356 E6.08958
G1 X133.849 Y143.397 E6.13009
G1 X133.67 Y143.4 E6.13902
G1 X91.624 Y143.399 E8.23671
G1 X90.926 Y143.39 E8.27153
G1 X90.213 Y143.341 E8.30719
G1 X89.509 Y143.213 E8.34289
G1 X88.824 Y143.007 E8.37857
G1 X88.167 Y142.725 E8.41424
G1 X87.545 Y142.372 E8.44992
G1 X86.966 Y141.952 E8.48561
G1 X86.437 Y141.47 E8.52131
G1 X85.966 Y140.932 E8.55699
G1 X85.558 Y140.345 E8.59265
G1 X85.218 Y139.715 E8.62837
G1 X84.95 Y139.052 E8.66405
G1 X84.758 Y138.363 E8.69973
G1 X84.644 Y137.657 E8.73541
G1 X84.602 Y136.831 E8.77667
G1 X84.6 Y136.658 E8.7853
G1 X84.601 Y83.587 E11.43303
G1 X84.61 Y82.922 E11.46621
G1 X84.659 Y82.209 E11.50186
G1 X84.788 Y81.505 E11.53757
G1 X84.995 Y80.821 E11.57322
G1 X85.277 Y80.163 E11.60894
G1 X85.63 Y79.541 E11.64462
G1 X86.05 Y78.963 E11.68026
M205 X10 Y10
G0 F6000 X86.445 Y79.114
M205 X8 Y8
G1 F1200 X86.924 Y78.614 E11.71481
G1 X87.458 Y78.173 E11.74936
G1 X88.039 Y77.796 E11.78391
G1 X88.659 Y77.488 E11.81845
G1 X89.311 Y77.254 E11.85301
G1 X89.985 Y77.097 E11.88754
G1 X90.841 Y77.011 E11.93046
G1 X91.33 Y77 E11.95486
G1 X133.293 Y77 E14.04841
G1 X134.077 Y77.011 E14.08752
G1 X134.768 Y77.06 E14.12208
G1 X135.448 Y77.19 E14.15662
G1 X136.109 Y77.396 E14.19117
G1 X136.742 Y77.678 E14.22574
G1 X137.338 Y78.03 E14.26027
G1 X137.889 Y78.449 E14.29481
G1 X138.389 Y78.929 E14.32939
G1 X138.83 Y79.463 E14.36394
G1 X139.207 Y80.044 E14.39849
G1 X139.514 Y80.665 E14.43305
G1 X139.747 Y81.317 E14.4676
G1 X139.904 Y81.991 E14.50212
G1 X139.989 Y82.841 E14.54474
G1 X140 Y83.33 E14.56914
G1 X140 Y136.338 E17.21372
G1 X139.991 Y137.065 E17.24999
G1 X139.942 Y137.756 E17.28456
G1 X139.814 Y138.437 E17.31913
G1 X139.609 Y139.098 E17.35365
G1 X139.329 Y139.731 E17.38818
G1 X138.977 Y140.328 E17.42276
G1 X138.56 Y140.881 E17.45732
G1 X138.081 Y141.381 E17.49186
G1 X137.548 Y141.823 E17.52641
G1 X136.967 Y142.201 E17.56099
G1 X136.347 Y142.509 E17.59552
G1 X135.696 Y142.744 E17.63005
G1 X135.021 Y142.902 E17.66464
G1 X134.159 Y142.989 E17.70786
G1 X133.67 Y143 E17.73227
G1 X91.63 Y143 E19.82965
G1 X90.932 Y142.991 E19.86448
G1 X90.241 Y142.942 E19.89904
G1 X89.56 Y142.813 E19.93362
G1 X88.899 Y142.608 E19.96814
G1 X88.266 Y142.327 E20.0027
G1 X87.669 Y141.976 E20.03725
G1 X87.117 Y141.558 E20.07179
G1 X86.617 Y141.079 E20.10634
G1 X86.175 Y140.545 E20.14092
G1 X85.798 Y139.965 E20.17543
G1 X85.49 Y139.344 E20.21002
G1 X85.255 Y138.693 E20.24455
G1 X85.098 Y138.018 E20.27912
G1 X85.011 Y137.153 E20.32249
G1 X85 Y136.658 E20.34719
G1 X85.001 Y83.593 E22.99462
G1 X85.01 Y82.928 E23.0278
G1 X85.059 Y82.237 E23.06236
G1 X85.187 Y81.557 E23.09688
G1 X85.394 Y80.895 E23.13148
G1 X85.675 Y80.262 E23.16604
G1 X86.027 Y79.666 E23.20057
G1 X86.445 Y79.114 E23.23511
M205 X10 Y10
G0 F6000 X86.839 Y79.271
M205 X8 Y8
G1 F1200 X87.314 Y78.801 E23.26845
G1 X87.843 Y78.39 E23.30187
G1 X88.416 Y78.045 E23.33524
G1 X89.027 Y77.772 E23.36863
G1 X89.665 Y77.573 E23.40197
G1 X90.323 Y77.451 E23.43536
G1 X90.852 Y77.411 E23.46183
G1 X91.33 Y77.4 E23.48568
G1 X133.293 Y77.4 E25.57922
G1 X134.071 Y77.411 E25.61804
G1 X134.738 Y77.46 E25.65141
G1 X135.395 Y77.589 E25.68481
G1 X136.031 Y77.795 E25.71816
G1 X136.639 Y78.076 E25.75158
G1 X137.208 Y78.426 E25.78491
G1 X137.732 Y78.843 E25.81832
G1 X138.202 Y79.319 E25.85169
G1 X138.612 Y79.847 E25.88504
G1 X138.957 Y80.421 E25.91846
G1 X139.23 Y81.032 E25.95184
G1 X139.428 Y81.671 E25.98522
G1 X139.549 Y82.329 E26.0186
G1 X139.589 Y82.853 E26.04481
G1 X139.6 Y83.33 E26.06862
G1 X139.6 Y136.333 E28.71295
G1 X139.591 Y137.06 E28.74922
G1 X139.542 Y137.728 E28.78264
G1 X139.415 Y138.384 E28.81597
G1 X139.21 Y139.021 E28.84936
G1 X138.931 Y139.629 E28.88273
G1 X138.581 Y140.199 E28.9161
G1 X138.165 Y140.724 E28.94952
G1 X137.69 Y141.195 E28.9829
G1 X137.163 Y141.606 E29.01624
G1 X136.59 Y141.952 E29.04963
G1 X135.98 Y142.226 E29.08299
G1 X135.341 Y142.426 E29.1164
G1 X134.683 Y142.548 E29.14979
G1 X134.148 Y142.589 E29.17656
G1 X133.67 Y142.6 E29.20041
G1 X91.635 Y142.6 E31.29754
G1 X90.937 Y142.591 E31.33237
G1 X90.27 Y142.542 E31.36574
G1 X89.613 Y142.414 E31.39913
G1 X88.976 Y142.209 E31.43252
G1 X88.368 Y141.929 E31.46591
G1 X87.798 Y141.579 E31.49928
G1 X87.274 Y141.163 E31.53266
G1 X86.803 Y140.688 E31.56603
G1 X86.392 Y140.16 E31.59942
G1 X86.047 Y139.587 E31.63279
G1 X85.773 Y138.977 E31.66615
G1 X85.573 Y138.338 E31.69955
G1 X85.452 Y137.68 E31.73293
G1 X85.411 Y137.142 E31.75985
G1 X85.4 Y136.658 E31.784
G1 X85.401 Y83.598 E34.43118
G1 X85.41 Y82.933 E34.46436
G1 X85.459 Y82.266 E34.49772
G1 X85.587 Y81.609 E34.53112
G1 X85.792 Y80.973 E34.56446
G1 X86.072 Y80.365 E34.59785
G1 X86.423 Y79.795 E34.63125
G1 X86.839 Y79.271 E34.66463
M205 X10 Y10
G0 F6000 X86.819 Y79.929
M205 X8 Y8
G1 F1200 X87.232 Y79.435 E34.69675
G1 X87.703 Y78.995 E34.72891
G1 X88.226 Y78.617 E34.7611
G1 X88.79 Y78.306 E34.79323
G1 X89.389 Y78.068 E34.82539
G1 X90.013 Y77.905 E34.85757
G1 X90.863 Y77.811 E34.90023
G1 X91.33 Y77.8 E34.92354
G1 X133.293 Y77.8 E37.01708
G1 X134.065 Y77.811 E37.0556
G1 X134.708 Y77.86 E37.08777
G1 X135.34 Y77.988 E37.11994
G1 X135.951 Y78.194 E37.15211
G1 X136.532 Y78.473 E37.18427
G1 X137.074 Y78.822 E37.21643
G1 X137.568 Y79.236 E37.24858
G1 X138.008 Y79.708 E37.28078
G1 X138.386 Y80.23 E37.31293
G1 X138.696 Y80.795 E37.34508
G1 X138.934 Y81.394 E37.37724
G1 X139.096 Y82.018 E37.4094
G1 X139.189 Y82.864 E37.45186
G1 X139.2 Y83.33 E37.47512
G1 X139.2 Y136.328 E40.1192
G1 X139.191 Y137.055 E40.15547
G1 X139.143 Y137.698 E40.18764
G1 X139.016 Y138.33 E40.2198
G1 X138.811 Y138.942 E40.252
G1 X138.533 Y139.523 E40.28414
G1 X138.185 Y140.066 E40.31631
G1 X137.772 Y140.561 E40.34848
G1 X137.301 Y141.001 E40.38063
G1 X136.779 Y141.38 E40.41281
G1 X136.215 Y141.691 E40.44495
G1 X135.616 Y141.93 E40.47712
G1 X134.993 Y142.094 E40.50926
G1 X134.137 Y142.189 E40.55223
G1 X133.67 Y142.2 E40.57554
G1 X91.64 Y142.2 E42.67242
G1 X90.942 Y142.191 E42.70725
G1 X90.299 Y142.142 E42.73942
G1 X89.667 Y142.015 E42.77158
G1 X89.056 Y141.81 E42.80373
G1 X88.475 Y141.532 E42.83587
G1 X87.932 Y141.183 E42.86807
G1 X87.437 Y140.77 E42.90023
G1 X86.997 Y140.299 E42.93239
G1 X86.618 Y139.777 E42.96457
G1 X86.307 Y139.213 E42.99671
G1 X86.069 Y138.614 E43.02886
G1 X85.906 Y137.99 E43.06104
G1 X85.811 Y137.131 E43.10416
G1 X85.8 Y136.658 E43.12776
G1 X85.8 Y83.604 E45.77463
G1 X85.809 Y82.939 E45.80781
G1 X85.858 Y82.296 E45.83999
G1 X85.986 Y81.664 E45.87216
G1 X86.191 Y81.053 E45.90431
G1 X86.47 Y80.472 E45.93647
G1 X86.819 Y79.929 E45.96867
M205 X10 Y10
G1 F1500 E39.96867
G1 F600 Z0.375
;MESH:06_gyrskp-fussteil.stl
G0 F6000 X94 Y86 Z0.375
M205 X8 Y8
;TYPE:WALL-INNER
G1 F600 Z0.3
G1 F1500 E45.96867
G1 F1200 X94 Y132 E48.26362
G1 X107 Y132 E48.91219
G1 X107 Y86 E51.20714
G1 X94 Y86 E51.85571
M205 X10 Y10
G0 F6000 X94.4 Y86.4
M205 X8 Y8
G1 F1200 X94.4 Y131.6 E54.11075
G1 X106.6 Y131.6 E54.71941
G1 X106.6 Y86.4 E56.97445
G1 X94.4 Y86.4 E57.58311
M205 X10 Y10
G0 F6000 X94.8 Y86.8
M205 X8 Y8
;TYPE:WALL-OUTER
G1 F1200 X94.8 Y131.2 E59.79823
G1 X106.2 Y131.2 E60.36698
G1 X106.2 Y86.8 E62.58211
G1 X94.8 Y86.8 E63.15085
M205 X10 Y10
G0 F6000 X94.8 Y87
G0 X94.36 Y87
G1 F1500 E57.15085
G1 F600 Z0.375
G0 F6000 X118 Y86 Z0.375
M205 X8 Y8
;TYPE:WALL-INNER
G1 F600 Z0.3
G1 F1500 E63.15085
G1 F1200 X118 Y132 E65.4458
G1 X131 Y132 E66.09438
G1 X131 Y86 E68.38933
G1 X118 Y86 E69.0379
M205 X10 Y10
G0 F6000 X118.4 Y86.4
M205 X8 Y8
G1 F1200 X118.4 Y131.6 E71.29294
G1 X130.6 Y131.6 E71.9016
G1 X130.6 Y86.4 E74.15663
G1 X118.4 Y86.4 E74.76529
M205 X10 Y10
G0 F6000 X118.8 Y86.8
M205 X8 Y8
;TYPE:WALL-OUTER
G1 F1200 X118.8 Y131.2 E76.98042
G1 X130.2 Y131.2 E77.54917
G1 X130.2 Y86.8 E79.76429
G1 X118.8 Y86.8 E80.33304
M205 X10 Y10
G0 F6000 X118.8 Y87
G0 X118.36 Y87
G1 F1500 E74.33304
G1 F600 Z0.375
G0 F6000 X133 Y136 Z0.375
M205 X8 Y8
;TYPE:WALL-INNER
G1 F600 Z0.3
G1 F1500 E80.33304
G1 F1200 X92 Y136 E82.37854
G1 X92 Y84 E84.97283
G1 X133 Y84 E87.01833
G1 X133 Y136 E89.61262
M205 X10 Y10
G0 F6000 X133.4 Y136.4
M205 X8 Y8
G1 F1200 X91.6 Y136.4 E91.69803
G1 X91.6 Y83.6 E94.33223
G1 X133.4 Y83.6 E96.41764
G1 X133.4 Y136.4 E99.05184
M205 X10 Y10
G0 F6000 X133.8 Y136.8
M205 X8 Y8
;TYPE:WALL-OUTER
G1 F1200 X91.2 Y136.8 E101.17717
G1 X91.2 Y83.2 E103.85128
G1 X133.8 Y83.2 E105.9766
G1 X133.8 Y136.8 E108.65072
M205 X10 Y10
G0 F6000 X133.6 Y136.8
G0 X133.36 Y136.36
G0 X132.61 Y135.61
M205 X8 Y8
;TYPE:SKIN
G1 F1200 X92.39 Y135.61 E110.6573
G1 X92.39 Y84.39 E113.21268
G1 X132.61 Y84.39 E115.21926
G1 X132.61 Y135.61 E117.77464
M205 X10 Y10
G1 F1500 E111.77464
G1 F600 Z0.375
G0 F6000 X131.39 Y132.39 Z0.375
M205 X8 Y8
G1 F600 Z0.3
G1 F1500 E117.77464
G1 F1200 X131.39 Y85.61 E120.1085
G1 X117.61 Y85.61 E120.79599
G1 X117.61 Y132.39 E123.12985
G1 X131.39 Y132.39 E123.81734
M205 X10 Y10
G1 F1500 E117.81734
G1 F600 Z0.375
G0 F6000 X107.39 Y132.39 Z0.375
M205 X8 Y8
G1 F600 Z0.3
G1 F1500 E123.81734
G1 F1200 X107.39 Y85.61 E126.1512
G1 X93.61 Y85.61 E126.83869
G1 X93.61 Y132.39 E129.17256
G1 X107.39 Y132.39 E129.86004
M205 X10 Y10
G1 F1500 E123.86004
G1 F600 Z0.375
G0 F6000 X93.002 Y135.429 Z0.375
M205 X8 Y8
G1 F600 Z0.3
G1 F1500 E129.86004
G1 F1200 X92.569 Y134.995 E129.89063
M205 X10 Y10
G0 F6000 X92.569 Y134.43
M205 X8 Y8
G1 F1200 X93.568 Y135.429 E129.96111
M205 X10 Y10
G0 F6000 X94.134 Y135.429
M205 X8 Y8
G1 F1200 X92.569 Y133.864 E130.07153
M205 X10 Y10
G0 F6000 X92.569 Y133.298
M205 X8 Y8
G1 F1200 X94.699 Y135.429 E130.22185
M205 X10 Y10
G0 F6000 X95.265 Y135.429
M205 X8 Y8
G1 F1200 X92.569 Y132.733 E130.41207
M205 X10 Y10
G0 F6000 X92.569 Y132.167
M205 X8 Y8
G1 F1200 X95.831 Y135.429 E130.64222
M205 X10 Y10
G0 F6000 X96.397 Y135.429
M205 X8 Y8
G1 F1200 X93.537 Y132.569 E130.84401
G1 X93.43 Y132.462
G1 X92.569 Y131.601 E130.90476
M205 X10 Y10
G0 F6000 X92.569 Y131.036
M205 X8 Y8
G1 F1200 X93.43 Y131.896 E130.96547
M205 X10 Y10
G0 F6000 X93.43 Y131.33
M205 X8 Y8
G1 F1200 X92.569 Y130.47 E131.02618
M205 X10 Y10
G0 F6000 X92.569 Y129.904
M205 X8 Y8
G1 F1200 X93.43 Y130.765 E131.08693
M205 X10 Y10
G0 F6000 X93.43 Y130.199
M205 X8 Y8
G1 F1200 X92.569 Y129.339 E131.14764
M205 X10 Y10
G0 F6000 X92.569 Y128.773
M205 X8 Y8
G1 F1200 X93.43 Y129.633 E131.20836
M205 X10 Y10
G0 F6000 X93.43 Y129.068
M205 X8 Y8
G1 F1200 X92.569 Y128.207 E131.2691
M205 X10 Y10
G0 F6000 X92.569 Y127.641
M205 X8 Y8
G1 F1200 X93.43 Y128.502 E131.32985
M205 X10 Y10
G0 F6000 X93.43 Y127.936
M205 X8 Y8
G1 F1200 X92.569 Y127.076 E131.39057
M205 X10 Y10
G0 F6000 X92.569 Y126.51
M205 X8 Y8
G1 F1200 X93.43 Y127.371 E131.45131
M205 X10 Y10
G0 F6000 X93.43 Y126.805
M205 X8 Y8
G1 F1200 X92.569 Y125.944 E131.51206
M205 X10 Y10
G0 F6000 X92.569 Y125.379
M205 X8 Y8
G1 F1200 X93.43 Y126.239 E131.57278
M205 X10 Y10
G0 F6000 X93.43 Y125.674
M205 X8 Y8
G1 F1200 X92.569 Y124.813 E131.63352
M205 X10 Y10
G0 F6000 X92.569 Y124.247
M205 X8 Y8
G1 F1200 X93.43 Y125.108 E131.69427
M205 X10 Y10
G0 F6000 X93.43 Y124.542
M205 X8 Y8
G1 F1200 X92.569 Y123.682 E131.75498
M205 X10 Y10
G0 F6000 X92.569 Y123.116
M205 X8 Y8
G1 F1200 X93.43 Y123.977 E131.81573
M205 X10 Y10
G0 F6000 X93.43 Y123.411
M205 X8 Y8
G1 F1200 X92.569 Y122.55 E131.87648
M205 X10 Y10
G0 F6000 X92.569 Y121.985
M205 X8 Y8
G1 F1200 X93.43 Y122.845 E131.93719
M205 X10 Y10
G0 F6000 X93.43 Y122.279
M205 X8 Y8
G1 F1200 X92.569 Y121.419 E131.99791
M205 X10 Y10
G0 F6000 X92.569 Y120.853
M205 X8 Y8
G1 F1200 X93.43 Y121.714 E132.05865
M205 X10 Y10
G0 F6000 X93.43 Y121.148
M205 X8 Y8
G1 F1200 X92.569 Y120.288 E132.11937
M205 X10 Y10
G0 F6000 X92.569 Y119.722
M205 X8 Y8
G1 F1200 X93.43 Y120.582 E132.18008
M205 X10 Y10
G0 F6000 X93.43 Y120.017
M205 X8 Y8
G1 F1200 X92.569 Y119.156 E132.24083
M205 X10 Y10
G0 F6000 X92.569 Y118.59
M205 X8 Y8
G1 F1200 X93.43 Y119.451 E132.30158
M205 X10 Y10
G0 F6000 X93.43 Y118.885
M205 X8 Y8
G1 F1200 X92.569 Y118.025 E132.36229
M205 X10 Y10
G0 F6000 X92.569 Y117.459
M205 X8 Y8
G1 F1200 X93.43 Y118.32 E132.42304
M205 X10 Y10
G0 F6000 X93.43 Y117.754
M205 X8 Y8
G1 F1200 X92.569 Y116.893 E132.48379
M205 X10 Y10
G0 F6000 X92.569 Y116.328
M205 X8 Y8
G1 F1200 X93.43 Y117.188 E132.5445
M205 X10 Y10
G0 F6000 X93.43 Y116.623
M205 X8 Y8
G1 F1200 X92.569 Y115.762 E132.60525
M205 X10 Y10
G0 F6000 X92.569 Y115.196
M205 X8 Y8
G1 F1200 X93.43 Y116.057 E132.666
M205 X10 Y10
G0 F6000 X93.43 Y115.491
M205 X8 Y8
G1 F1200 X92.569 Y114.631 E132.72671
M205 X10 Y10
G0 F6000 X92.569 Y114.065
M205 X8 Y8
G1 F1200 X93.43 Y114.926 E132.78746
M205 X10 Y10
G0 F6000 X93.43 Y114.36
M205 X8 Y8
G1 F1200 X92.569 Y113.499 E132.84821
M205 X10 Y10
G0 F6000 X92.569 Y112.934
M205 X8 Y8
G1 F1200 X93.43 Y113.794 E132.90892
M205 X10 Y10
G0 F6000 X93.43 Y113.229
M205 X8 Y8
G1 F1200 X92.569 Y112.368 E132.96967
M205 X10 Y10
G0 F6000 X92.569 Y111.802
M205 X8 Y8
G1 F1200 X93.43 Y112.663 E133.03041
M205 X10 Y10
G0 F6000 X93.43 Y112.097
M205 X8 Y8
G1 F1200 X92.569 Y111.237 E133.09113
M205 X10 Y10
G0 F6000 X92.569 Y110.671
M205 X8 Y8
G1 F1200 X93.43 Y111.531 E133.15184
M205 X10 Y10
G0 F6000 X93.43 Y110.966
M205 X8 Y8
G1 F1200 X92.569 Y110.105 E133.21259
M205 X10 Y10
G0 F6000 X92.568 Y109.539
M205 X8 Y8
G1 F1200 X93.43 Y110.4 E133.27337
M205 X10 Y10
G0 F6000 X93.43 Y109.834
M205 X8 Y8
G1 F1200 X92.568 Y108.973 E133.33416
M205 X10 Y10
G0 F6000 X92.568 Y108.407
M205 X8 Y8
G1 F1200 X93.43 Y109.269 E133.39497
M205 X10 Y10
G0 F6000 X93.43 Y108.703
M205 X8 Y8
G1 F1200 X92.568 Y107.842 E133.45576
M205 X10 Y10
