;FLAVOR:Marlin
;TIME:2706
;Filament used: 1.93368m
;Layer height: 0.2
;MINX:76.013
;MINY:73.512
;MINZ:0.3
;MAXX:148.984
;MAXY:146.486
;MAXZ:4.775
;Generated with Cura_SteamEngine 4.13.1
M140 S60
M105
M190 S60
M104 S200
M105
M109 S200
M82 ;absolute extrusion mode
G21                                        ; metric values
G90                                        ; absolute positioning
M82                                        ; set extruder to absolute mode
M107                                       ; start with the fan off
M190 S60                                   ; preheat and wait for bed
M109 S210                                  ; preheat and wait for hotend
M300 S1000 P500                            ; BEEP heating done
G28 X0 Y10 Z0                              ; move X/Y to min endstops
M420 S1                                    ; enable mesh leveling
G0 Z0.15                                   ; lift nozzle a bit
G0 X2                                      ; move away from clips
G92 E0                                     ; zero the extruded length
G1 Y50 E25 F500                            ; Extrude 25mm of filament in a 5cm line.
G92 E0                                     ; zero the extruded length again
G1 E-2 F500                                ; Retract a little
G1 Y120 F4000                              ; Quickly wipe away from the filament line
G92 E0
G92 E0
G1 F1500 E-6
;LAYER_COUNT:23
;LAYER:0
M107
M205 X10 Y10
G1 F600 Z0.375
G0 F6000 X85.964 Y84.963 Z0.375
M205 X8 Y8
;TYPE:SKIRT
G1 F600 Z0.3
G1 F1500 E0
G1 F1200 X87.616 Y83.335 E0.11571
G1 X88.126 Y82.847 E0.15093
G1 X88.571 Y82.455 E0.18052
G1 X88.909 Y82.179 E0.20229
G1 X90.54 Y80.88 E0.30631
G1 X91.099 Y80.448 E0.34156
G1 X91.556 Y80.123 E0.36954
G1 X91.985 Y79.84 E0.39518
G1 X93.705 Y78.744 E0.49693
G1 X94.301 Y78.376 E0.53187
G1 X94.807 Y78.089 E0.5609
G1 X95.011 Y77.982 E0.57239
G1 X97.093 Y76.941 E0.68852
G1 X97.675 Y76.661 E0.72074
G1 X98.176 Y76.442 E0.74802
G1 X98.688 Y76.242 E0.77544
G1 X100.604 Y75.523 E0.87754
G1 X101.236 Y75.296 E0.91105
G1 X101.76 Y75.129 E0.93848
G1 X102.205 Y75.006 E0.96152
G1 X104.213 Y74.483 E1.06504
G1 X104.888 Y74.317 E1.09972
G1 X105.498 Y74.193 E1.13077
G1 X105.94 Y74.12 E1.15312
G1 X108.006 Y73.806 E1.25738
G1 X108.67 Y73.716 E1.29081
G1 X109.252 Y73.66 E1.31998
G1 X109.752 Y73.63 E1.34497
G1 X111.729 Y73.537 E1.44371
G1 X112.457 Y73.513 E1.48005
G1 X112.811 Y73.512 E1.49771
G1 X113.449 Y73.535 E1.52956
G1 X115.598 Y73.659 E1.63696
G1 X116.279 Y73.709 E1.67102
G1 X116.787 Y73.765 E1.69652
G1 X117.324 Y73.846 E1.72362
G1 X119.295 Y74.168 E1.82325
G1 X120.022 Y74.297 E1.86009
G1 X120.613 Y74.428 E1.89029
G1 X121.033 Y74.537 E1.91194
G1 X123.022 Y75.08 E2.0148
G1 X123.716 Y75.281 E2.05085
G1 X124.214 Y75.445 E2.07701
G1 X124.732 Y75.638 E2.10458
G1 X126.601 Y76.365 E2.20463
G1 X127.26 Y76.633 E2.24013
G1 X127.768 Y76.863 E2.26795
G1 X128.24 Y77.098 E2.29425
G1 X129.988 Y77.997 E2.39232
G1 X130.644 Y78.345 E2.42937
G1 X131.17 Y78.653 E2.45978
G1 X131.557 Y78.9 E2.48268
G1 X133.252 Y80.009 E2.58374
G1 X133.844 Y80.407 E2.61933
G1 X134.242 Y80.698 E2.64392
G1 X134.722 Y81.078 E2.67447
G1 X136.267 Y82.338 E2.77393
G1 X136.814 Y82.798 E2.80959
G1 X137.262 Y83.205 E2.83979
G1 X137.557 Y83.493 E2.86035
G1 X139.061 Y85.005 E2.96675
G1 X139.518 Y85.48 E2.99964
G1 X139.913 Y85.923 E3.02925
G1 X140.192 Y86.26 E3.05108
G1 X141.469 Y87.844 E3.15258
G1 X141.917 Y88.416 E3.18883
G1 X142.281 Y88.923 E3.21997
G1 X142.514 Y89.271 E3.24086
G1 X143.656 Y91.04 E3.34591
G1 X144.009 Y91.605 E3.37915
G1 X144.314 Y92.14 E3.40987
G1 X144.485 Y92.463 E3.42811
G1 X145.479 Y94.424 E3.53779
G1 X145.755 Y94.989 E3.56916
G1 X145.993 Y95.529 E3.59861
G1 X146.156 Y95.937 E3.62053
G1 X146.896 Y97.876 E3.72407
G1 X147.144 Y98.555 E3.76013
G1 X147.304 Y99.049 E3.78604
G1 X147.444 Y99.547 E3.81185
G1 X147.979 Y101.551 E3.91533
G1 X148.146 Y102.215 E3.94949
G1 X148.259 Y102.754 E3.97696
G1 X148.344 Y103.25 E4.00207
G1 X148.658 Y105.244 E4.10278
G1 X148.76 Y105.952 E4.13846
G1 X148.82 Y106.527 E4.16731
G1 X148.851 Y107.008 E4.19135
G1 X148.956 Y109.024 E4.29207
G1 X148.984 Y109.754 E4.32851
G1 X148.984 Y110.348 E4.35815
G1 X148.977 Y110.571 E4.36928
G1 X148.857 Y112.896 E4.48543
G1 X148.816 Y113.516 E4.51643
G1 X148.75 Y114.132 E4.54734
G1 X148.684 Y114.595 E4.57067
G1 X148.373 Y116.577 E4.67076
G1 X148.259 Y117.248 E4.70472
G1 X148.124 Y117.878 E4.73686
G1 X148.013 Y118.316 E4.7594
G1 X147.505 Y120.234 E4.85839
G1 X147.308 Y120.935 E4.89472
G1 X147.122 Y121.511 E4.92492
G1 X146.967 Y121.933 E4.94735
G1 X146.256 Y123.807 E5.04735
G1 X145.996 Y124.465 E5.08264
G1 X145.744 Y125.034 E5.11369
G1 X145.556 Y125.418 E5.13502
G1 X144.64 Y127.236 E5.23658
G1 X144.315 Y127.86 E5.27168
G1 X144.035 Y128.352 E5.29993
G1 X143.79 Y128.745 E5.32303
G1 X142.673 Y130.487 E5.42627
G1 X142.292 Y131.061 E5.46064
G1 X141.984 Y131.493 E5.48711
G1 X141.672 Y131.895 E5.5125
G1 X140.39 Y133.501 E5.61502
G1 X139.959 Y134.024 E5.64883
G1 X139.557 Y134.476 E5.67901
G1 X139.403 Y134.639 E5.6902
G1 X137.828 Y136.242 E5.80232
G1 X137.325 Y136.738 E5.83756
G1 X136.879 Y137.144 E5.86765
G1 X136.722 Y137.278 E5.87795
G1 X134.933 Y138.757 E5.99375
G1 X134.413 Y139.172 E6.02694
G1 X133.951 Y139.513 E6.05559
G1 X133.55 Y139.787 E6.07982
G1 X131.901 Y140.882 E6.17858
G1 X131.307 Y141.266 E6.21387
G1 X130.776 Y141.579 E6.24462
G1 X130.377 Y141.793 E6.26721
G1 X128.626 Y142.711 E6.36584
G1 X127.955 Y143.051 E6.40337
G1 X127.419 Y143.296 E6.43277
G1 X126.945 Y143.491 E6.45834
G1 X125.125 Y144.215 E6.55606
G1 X124.46 Y144.47 E6.5916
G1 X123.908 Y144.656 E6.62066
G1 X123.449 Y144.792 E6.64454
G1 X121.485 Y145.347 E6.74636
G1 X120.797 Y145.53 E6.78188
G1 X120.266 Y145.65 E6.80904
G1 X119.843 Y145.73 E6.83052
G1 X117.92 Y146.064 E6.92789
G1 X117.075 Y146.197 E6.97057
G1 X116.545 Y146.261 E6.9972
G1 X116.087 Y146.299 E7.02013
G1 X114.085 Y146.436 E7.12024
G1 X113.328 Y146.477 E7.15807
G1 X112.982 Y146.486 E7.17533
G1 X112.023 Y146.486 E7.22318
G1 X111.608 Y146.474 E7.24389
G1 X110.895 Y146.435 E7.27952
G1 X109.015 Y146.305 E7.37353
G1 X108.344 Y146.249 E7.40713
G1 X107.734 Y146.174 E7.43779
G1 X107.338 Y146.11 E7.4578
G1 X105.269 Y145.747 E7.5626
G1 X104.56 Y145.613 E7.5986
G1 X104.024 Y145.489 E7.62605
G1 X103.512 Y145.349 E7.65253
G1 X101.622 Y144.81 E7.75058
G1 X100.911 Y144.596 E7.78763
G1 X100.356 Y144.406 E7.81689
G1 X99.951 Y144.25 E7.83854
G1 X98 Y143.465 E7.94346
G1 X97.381 Y143.206 E7.97694
G1 X96.849 Y142.959 E8.0062
G1 X96.456 Y142.758 E8.02823
G1 X94.602 Y141.778 E8.13285
G1 X94.025 Y141.464 E8.16562
G1 X93.486 Y141.14 E8.197
G1 X93.122 Y140.903 E8.21867
G1 X91.381 Y139.735 E8.32326
G1 X90.833 Y139.357 E8.35648
G1 X90.329 Y138.977 E8.38797
G1 X90.004 Y138.712 E8.40889
G1 X88.443 Y137.412 E8.51024
G1 X87.879 Y136.928 E8.54731
G1 X87.499 Y136.577 E8.57312
G1 X87.084 Y136.161 E8.60244
G1 X85.714 Y134.751 E8.70052
G1 X85.182 Y134.187 E8.7392
G1 X84.874 Y133.835 E8.76254
G1 X84.487 Y133.359 E8.79314
G1 X83.291 Y131.839 E8.88964
G1 X82.828 Y131.233 E8.92768
G1 X82.534 Y130.819 E8.95302
G1 X82.259 Y130.397 E8.97815
G1 X81.15 Y128.638 E9.08189
G1 X80.768 Y128.012 E9.11848
G1 X80.451 Y127.438 E9.15119
G1 X80.261 Y127.061 E9.17225
G1 X79.395 Y125.303 E9.27002
G1 X79.072 Y124.623 E9.30758
G1 X78.871 Y124.16 E9.33276
G1 X78.666 Y123.63 E9.36111
G1 X77.971 Y121.745 E9.46134
G1 X77.737 Y121.084 E9.49633
G1 X77.57 Y120.549 E9.52429
G1 X77.44 Y120.065 E9.54929
G1 X76.938 Y118.097 E9.65062
G1 X76.769 Y117.39 E9.68689
G1 X76.657 Y116.823 E9.71572
G1 X76.587 Y116.388 E9.7377
G1 X76.287 Y114.339 E9.84102
G1 X76.191 Y113.606 E9.8779
G1 X76.14 Y113.047 E9.9059
G1 X76.128 Y112.841 E9.9162
G1 X76.031 Y110.519 E10.03214
G1 X76.013 Y109.835 E10.06628
G1 X76.022 Y109.213 E10.09732
G1 X76.042 Y108.81 E10.11745
G1 X76.172 Y106.774 E10.21923
G1 X76.228 Y106.043 E10.25581
G1 X76.294 Y105.47 E10.28458
G1 X76.373 Y104.966 E10.31003
G1 X76.714 Y102.958 E10.41165
G1 X76.839 Y102.277 E10.44619
G1 X76.973 Y101.688 E10.47633
G1 X77.105 Y101.193 E10.50188
G1 X77.623 Y99.336 E10.59807
G1 X77.839 Y98.6 E10.63634
G1 X78.017 Y98.069 E10.66428
G1 X78.205 Y97.577 E10.69055
G1 X78.929 Y95.748 E10.78869
G1 X79.212 Y95.06 E10.82581
G1 X79.469 Y94.503 E10.85641
G1 X79.66 Y94.123 E10.87763
G1 X80.622 Y92.281 E10.9813
G1 X80.96 Y91.657 E11.01671
G1 X81.242 Y91.179 E11.0444
G1 X81.504 Y90.769 E11.06867
G1 X82.642 Y89.054 E11.17136
G1 X83.031 Y88.484 E11.20579
G1 X83.358 Y88.043 E11.23318
G1 X83.71 Y87.604 E11.26125
G1 X84.955 Y86.096 E11.35881
G1 X85.446 Y85.518 E11.39665
G1 X85.799 Y85.131 E11.42278
G1 X85.964 Y84.963 E11.43453
M205 X10 Y10
G0 F6000 X86.244 Y85.247
M205 X8 Y8
G1 F1200 X87.829 Y83.685 E11.54555
G1 X88.403 Y83.136 E11.58518
G1 X88.83 Y82.76 E11.61356
G1 X89.158 Y82.492 E11.63469
G1 X90.785 Y81.196 E11.73847
G1 X91.344 Y80.764 E11.77372
G1 X91.781 Y80.454 E11.80045
G1 X92.201 Y80.177 E11.82555
G1 X93.915 Y79.085 E11.92694
G1 X94.511 Y78.717 E11.96189
G1 X94.999 Y78.44 E11.98988
G1 X95.19 Y78.34 E12.00064
G1 X97.267 Y77.301 E12.1165
G1 X97.849 Y77.021 E12.14872
G1 X98.33 Y76.811 E12.17491
G1 X98.828 Y76.617 E12.20157
G1 X100.739 Y75.899 E12.30342
G1 X101.371 Y75.672 E12.33692
G1 X101.875 Y75.512 E12.3633
G1 X102.306 Y75.393 E12.38561
G1 X104.308 Y74.872 E12.48882
G1 X104.983 Y74.706 E12.5235
G1 X105.571 Y74.586 E12.55344
G1 X106 Y74.515 E12.57513
G1 X108.06 Y74.202 E12.67908
G1 X108.724 Y74.112 E12.71251
G1 X109.285 Y74.058 E12.74063
G1 X109.771 Y74.03 E12.76492
G1 X111.742 Y73.937 E12.86336
G1 X112.47 Y73.913 E12.8997
G1 X112.802 Y73.912 E12.91626
G1 X113.43 Y73.934 E12.94761
G1 X115.568 Y74.058 E13.05446
G1 X116.249 Y74.108 E13.08853
G1 X116.908 Y74.186 E13.12163
G1 X117.26 Y74.241 E13.13941
G1 X119.225 Y74.562 E13.23874
G1 X119.952 Y74.691 E13.27558
G1 X120.519 Y74.816 E13.30454
G1 X120.928 Y74.923 E13.32564
G1 X122.911 Y75.464 E13.42818
G1 X123.605 Y75.665 E13.46423
G1 X124.083 Y75.822 E13.48933
G1 X124.588 Y76.011 E13.51623
G1 X126.45 Y76.736 E13.61592
G1 X127.109 Y77.004 E13.65141
G1 X127.598 Y77.224 E13.67817
G1 X128.057 Y77.453 E13.70376
G1 X129.801 Y78.351 E13.80162
G1 X130.457 Y78.699 E13.83867
G1 X130.962 Y78.994 E13.86785
G1 X131.338 Y79.234 E13.8901
G1 X133.029 Y80.341 E13.99094
G1 X133.621 Y80.739 E14.02653
G1 X133.994 Y81.011 E14.04956
G1 X134.469 Y81.388 E14.07981
G1 X136.01 Y82.644 E14.179
G1 X136.557 Y83.104 E14.21465
G1 X136.989 Y83.497 E14.24379
G1 X137.274 Y83.775 E14.26365
G1 X138.773 Y85.282 E14.3697
G1 X139.23 Y85.757 E14.40258
G1 X139.611 Y86.185 E14.43117
G1 X139.881 Y86.511 E14.45229
G1 X141.154 Y88.09 E14.55348
G1 X141.602 Y88.662 E14.58973
G1 X141.952 Y89.15 E14.61969
G1 X142.178 Y89.488 E14.63997
G1 X143.316 Y91.252 E14.7447
G1 X143.669 Y91.817 E14.77794
G1 X143.964 Y92.333 E14.80759
G1 X144.128 Y92.644 E14.82513
G1 X145.119 Y94.599 E14.93449
G1 X145.395 Y95.164 E14.96586
G1 X145.624 Y95.685 E14.99425
G1 X145.782 Y96.08 E15.01547
G1 X146.52 Y98.014 E15.11875
G1 X146.768 Y98.693 E15.15481
G1 X146.96 Y99.301 E15.18662
G1 X147.074 Y99.71 E15.20781
G1 X147.591 Y101.649 E15.30792
G1 X147.758 Y102.313 E15.34208
G1 X147.866 Y102.829 E15.36838
G1 X147.96 Y103.381 E15.39632
G1 X148.262 Y105.301 E15.49328
G1 X148.364 Y106.009 E15.52897
G1 X148.421 Y106.562 E15.55671
G1 X148.452 Y107.029 E15.58006
G1 X148.557 Y109.039 E15.68047
G1 X148.585 Y109.769 E15.71692
G1 X148.584 Y110.342 E15.74551
G1 X148.577 Y110.55 E15.75589
G1 X148.458 Y112.87 E15.87179
G1 X148.417 Y113.49 E15.90279
G1 X148.353 Y114.082 E15.93249
G1 X148.289 Y114.533 E15.95522
G1 X147.978 Y116.51 E16.05507
G1 X147.864 Y117.181 E16.08902
G1 X147.734 Y117.788 E16.11999
G1 X147.627 Y118.214 E16.1419
G1 X147.12 Y120.126 E16.24059
G1 X146.923 Y120.827 E16.27692
G1 X146.743 Y121.381 E16.30598
G1 X146.593 Y121.791 E16.32776
G1 X145.884 Y123.66 E16.42749
G1 X145.624 Y124.318 E16.46279
G1 X145.381 Y124.865 E16.49265
G1 X145.199 Y125.238 E16.51336
G1 X144.285 Y127.052 E16.6147
G1 X143.96 Y127.676 E16.6498
G1 X143.691 Y128.148 E16.6769
G1 X143.453 Y128.529 E16.69931
G1 X142.34 Y130.266 E16.80224
G1 X141.959 Y130.84 E16.83661
G1 X141.662 Y131.256 E16.86211
G1 X141.359 Y131.646 E16.88675
G1 X140.081 Y133.247 E16.98895
G1 X139.65 Y133.77 E17.02276
G1 X139.262 Y134.206 E17.05188
G1 X139.118 Y134.358 E17.06232
G1 X137.547 Y135.957 E17.17416
G1 X137.044 Y136.453 E17.2094
G1 X136.614 Y136.845 E17.23843
G1 X136.468 Y136.97 E17.24802
G1 X134.684 Y138.445 E17.36351
G1 X134.164 Y138.86 E17.3967
G1 X133.719 Y139.187 E17.42425
G1 X133.328 Y139.454 E17.44787
G1 X131.683 Y140.546 E17.54638
G1 X131.089 Y140.93 E17.58166
G1 X130.579 Y141.23 E17.61118
G1 X130.192 Y141.439 E17.63313
G1 X128.445 Y142.354 E17.73152
G1 X127.774 Y142.694 E17.76904
G1 X127.26 Y142.929 E17.79724
G1 X126.797 Y143.119 E17.82221
G1 X124.982 Y143.841 E17.91966
G1 X124.317 Y144.096 E17.95519
G1 X123.787 Y144.275 E17.9831
G1 X123.34 Y144.407 E18.00636
G1 X121.382 Y144.96 E18.10786
G1 X120.694 Y145.143 E18.14338
G1 X120.185 Y145.259 E18.16943
G1 X119.775 Y145.335 E18.19023
G1 X117.757 Y145.685 E18.29241
G1 X117.013 Y145.802 E18.32999
G1 X116.503 Y145.864 E18.35562
G1 X116.06 Y145.9 E18.37779
G1 X114.063 Y146.036 E18.47765
G1 X113.306 Y146.077 E18.51547
G1 X112.982 Y146.086 E18.53165
G1 X112.023 Y146.086 E18.57949
G1 X111.63 Y146.075 E18.5991
G1 X110.922 Y146.036 E18.63448
G1 X109.048 Y145.906 E18.7282
G1 X108.377 Y145.85 E18.76179
G1 X107.789 Y145.777 E18.79135
G1 X107.407 Y145.716 E18.81065
G1 X105.344 Y145.354 E18.91515
G1 X104.635 Y145.22 E18.95115
G1 X104.122 Y145.101 E18.97742
G1 X103.622 Y144.965 E19.00327
G1 X101.738 Y144.427 E19.10102
G1 X101.027 Y144.213 E19.13807
G1 X100.492 Y144.029 E19.16629
G1 X100.1 Y143.879 E19.18723
G1 X98.154 Y143.096 E19.29188
G1 X97.535 Y142.837 E19.32536
G1 X97.023 Y142.599 E19.35353
G1 X96.643 Y142.405 E19.37481
G1 X94.793 Y141.426 E19.47924
G1 X94.216 Y141.112 E19.51201
G1 X93.699 Y140.801 E19.54211
G1 X93.345 Y140.57 E19.5632
G1 X91.608 Y139.406 E19.66752
G1 X91.06 Y139.028 E19.70073
G1 X90.576 Y138.663 E19.73097
G1 X90.26 Y138.405 E19.75133
G1 X88.704 Y137.108 E19.85239
G1 X88.14 Y136.624 E19.88947
G1 X87.663 Y136.177 E19.92208
G1 X87.33 Y135.841 E19.94568
G1 X86.005 Y134.477 E20.04055
G1 X85.473 Y133.913 E20.07923
G1 X85.184 Y133.583 E20.10112
G1 X84.801 Y133.111 E20.13144
G1 X83.609 Y131.597 E20.22758
G1 X83.146 Y130.991 E20.26563
G1 X82.767 Y130.447 E20.2987
G1 X82.569 Y130.138 E20.31701
G1 X81.491 Y128.429 E20.41782
G1 X81.109 Y127.803 E20.45441
G1 X80.808 Y127.258 E20.48547
G1 X80.62 Y126.884 E20.50635
G1 X79.756 Y125.131 E20.60385
G1 X79.433 Y124.451 E20.64141
G1 X79.178 Y123.848 E20.67408
G1 X79.041 Y123.491 E20.69315
G1 X78.348 Y121.611 E20.79312
G1 X78.114 Y120.95 E20.8281
G1 X77.954 Y120.437 E20.85491
G1 X77.827 Y119.966 E20.87925
G1 X77.327 Y118.004 E20.98026
G1 X77.158 Y117.297 E21.01653
G1 X77.05 Y116.752 E21.04424
G1 X76.982 Y116.33 E21.06557
G1 X76.684 Y114.287 E21.16857
G1 X76.588 Y113.554 E21.20546
G1 X76.538 Y113.017 E21.23236
G1 X76.527 Y112.824 E21.24201
G1 X76.431 Y110.509 E21.3576
G1 X76.413 Y109.825 E21.39174
G1 X76.422 Y109.226 E21.42163
G1 X76.441 Y108.836 E21.44111
G1 X76.571 Y106.805 E21.54264
G1 X76.627 Y106.074 E21.57922
G1 X76.691 Y105.524 E21.60684
G1 X76.767 Y105.033 E21.63163
G1 X77.108 Y103.03 E21.733
G1 X77.233 Y102.349 E21.76754
G1 X77.361 Y101.785 E21.79639
G1 X77.49 Y101.301 E21.82138
G1 X78.007 Y99.448 E21.91736
G1 X78.223 Y98.712 E21.95563
G1 X78.394 Y98.204 E21.98237
G1 X78.577 Y97.725 E22.00795
G1 X79.299 Y95.901 E22.10582
G1 X79.582 Y95.213 E22.14294
G1 X79.829 Y94.676 E22.17243
G1 X80.015 Y94.308 E22.193
G1 X80.973 Y92.471 E22.29636
G1 X81.311 Y91.847 E22.33177
G1 X81.583 Y91.388 E22.35838
G1 X81.838 Y90.99 E22.38197
G1 X82.972 Y89.28 E22.48433
G1 X83.361 Y88.71 E22.51876
G1 X83.674 Y88.287 E22.54501
G1 X84.019 Y87.859 E22.57244
G1 X85.26 Y86.354 E22.66976
G1 X85.751 Y85.776 E22.7076
G1 X86.09 Y85.405 E22.73267
G1 X86.244 Y85.247 E22.74368
M205 X10 Y10
G0 F6000 X86.525 Y85.532
M205 X8 Y8
G1 F1200 X88.169 Y83.913 E22.85879
G1 X88.679 Y83.425 E22.89401
G1 X89.088 Y83.065 E22.92119
