;FLAVOR:Marlin
;TIME:1222
;Filament used: 0.768946m
;Layer height: 0.2
;MINX:77.073
;MINY:88.525
;MINZ:0.3
;MAXX:147.782
;MAXY:131.475
;MAXZ:7.975
;Generated with Cura_SteamEngine 4.13.1
M140 S60
M105
M190 S60
M104 S200
M105
M109 S200
M82 ;absolute extrusion mode
G21                                        ; metric values
G90                                        ; absolute positioning
M82                                        ; set extruder to absolute mode
M107                                       ; start with the fan off
M190 S60                                   ; preheat and wait for bed
M109 S210                                  ; preheat and wait for hotend
M300 S1000 P500                            ; BEEP heating done
G28 X0 Y10 Z0                              ; move X/Y to min endstops
M420 S1                                    ; enable mesh leveling
G0 Z0.15                                   ; lift nozzle a bit
G0 X2                                      ; move away from clips
G92 E0                                     ; zero the extruded length
G1 Y50 E25 F500                            ; Extrude 25mm of filament in a 5cm line.
G92 E0                                     ; zero the extruded length again
G1 E-2 F500                                ; Retract a little
G1 Y120 F4000                              ; Quickly wipe away from the filament line
G92 E0
G92 E0
G1 F1500 E-6
;LAYER_COUNT:39
;LAYER:0
M106 S76.5
M205 X10 Y10
G1 F600 Z0.375
G0 F6000 X79.829 Y104.355 Z0.375
M205 X8 Y8
;TYPE:SKIRT
G1 F600 Z0.3
G1 F1500 E0
G1 F1200 X80.32 Y103.989 E0.03055
G1 X80.546 Y103.829 E0.04437
G1 X81.152 Y103.449 E0.08005
G1 X81.797 Y103.138 E0.11578
G1 X82.473 Y102.892 E0.15167
G1 X84.514 Y102.218 E0.2589
G1 X87.006 Y101.318 E0.39109
G1 X89.436 Y100.361 E0.52138
G1 X91.899 Y99.309 E0.655
G1 X94.286 Y98.21 E0.78611
G1 X96.695 Y97.017 E0.92022
G1 X99.014 Y95.786 E1.05121
G1 X101.291 Y94.492 E1.18187
G1 X103.588 Y93.099 E1.31589
G1 X105.803 Y91.671 E1.44738
G1 X108.022 Y90.148 E1.58165
G1 X108.646 Y89.707 E1.61977
G1 X109.253 Y89.327 E1.6555
G1 X109.898 Y89.018 E1.69118
G1 X110.573 Y88.783 E1.72684
G1 X111.27 Y88.624 E1.76251
G1 X112.231 Y88.535 E1.81065
G1 X112.822 Y88.525 E1.84014
G1 X113.317 Y88.529 E1.86484
G1 X114.03 Y88.578 E1.9005
G1 X114.734 Y88.707 E1.9362
G1 X115.419 Y88.913 E1.97189
G1 X116.076 Y89.195 E2.00756
G1 X116.917 Y89.695 E2.05637
G1 X119.53 Y91.536 E2.21584
G1 X121.754 Y93.017 E2.34915
G1 X123.989 Y94.417 E2.48072
G1 X126.253 Y95.746 E2.6117
G1 X128.577 Y97.026 E2.74407
G1 X130.967 Y98.252 E2.87808
G1 X133.301 Y99.37 E3.00719
G1 X135.783 Y100.472 E3.14267
G1 X138.199 Y101.465 E3.27299
G1 X140.635 Y102.386 E3.40292
G1 X141.333 Y102.623 E3.4397
G1 X141.555 Y102.713 E3.45165
G1 X142.724 Y103.126 E3.5135
G1 X143.384 Y103.402 E3.54919
G1 X144.215 Y103.885 E3.59715
G1 X144.65 Y104.19 E3.62365
G1 X145.008 Y104.459 E3.64599
G1 X145.554 Y104.92 E3.68164
G1 X146.047 Y105.439 E3.71736
G1 X146.478 Y106.01 E3.75305
G1 X146.842 Y106.626 E3.78874
G1 X147.215 Y107.494 E3.83588
G1 X147.417 Y108.092 E3.86737
G1 X147.501 Y108.364 E3.88157
G1 X147.674 Y109.058 E3.91725
G1 X147.768 Y109.767 E3.95294
G1 X147.782 Y110.482 E3.98861
G1 X147.716 Y111.194 E4.02429
G1 X147.572 Y111.895 E4.05999
G1 X147.372 Y112.534 E4.0934
G1 X147.277 Y112.802 E4.10758
G1 X147.061 Y113.369 E4.13785
G1 X146.769 Y114.023 E4.17359
G1 X146.406 Y114.639 E4.20926
G1 X145.977 Y115.211 E4.24493
G1 X145.487 Y115.732 E4.28061
G1 X144.942 Y116.195 E4.31629
G1 X144.251 Y116.65 E4.35757
G1 X143.569 Y117.039 E4.39674
G1 X143.08 Y117.301 E4.42441
G1 X142.43 Y117.598 E4.46007
G1 X142.089 Y117.72 E4.47814
G1 X140.933 Y118.098 E4.53881
G1 X140.334 Y118.285 E4.57012
G1 X137.849 Y119.138 E4.7012
G1 X135.358 Y120.073 E4.83394
G1 X132.913 Y121.069 E4.96565
G1 X130.501 Y122.134 E5.0972
G1 X128.108 Y123.271 E5.22938
G1 X125.73 Y124.485 E5.36258
G1 X123.415 Y125.75 E5.4942
G1 X121.139 Y127.08 E5.62571
G1 X118.882 Y128.484 E5.75832
G1 X116.685 Y129.94 E5.88982
G1 X116.025 Y130.389 E5.92964
G1 X115.409 Y130.752 E5.96531
G1 X114.756 Y131.044 E6.001
G1 X114.075 Y131.262 E6.03667
G1 X113.373 Y131.402 E6.07239
G1 X112.579 Y131.465 E6.11212
G1 X111.985 Y131.475 E6.14176
G1 X111.487 Y131.471 E6.16661
G1 X110.773 Y131.422 E6.20231
G1 X110.069 Y131.294 E6.23801
G1 X109.385 Y131.087 E6.27367
G1 X108.727 Y130.806 E6.30936
G1 X108.105 Y130.453 E6.34504
G1 X107.851 Y130.287 E6.36018
G1 X106.225 Y129.18 E6.45832
G1 X103.998 Y127.755 E6.59022
G1 X101.73 Y126.394 E6.72218
G1 X99.413 Y125.088 E6.85488
G1 X97.068 Y123.854 E6.98708
G1 X94.699 Y122.691 E7.11874
G1 X92.308 Y121.601 E7.24984
G1 X89.84 Y120.559 E7.3835
G1 X87.371 Y119.596 E7.51571
G1 X84.869 Y118.705 E7.64822
G1 X84.382 Y118.545 E7.67379
G1 X83.454 Y118.226 E7.72275
G1 X82.792 Y117.956 E7.75842
G1 X81.991 Y117.503 E7.80433
G1 X81.527 Y117.188 E7.83231
G1 X80.683 Y116.571 E7.88446
G1 X80.273 Y116.257 E7.91023
G1 X79.685 Y115.785 E7.94785
G1 X79.154 Y115.305 E7.98356
G1 X78.68 Y114.77 E8.01922
G1 X78.269 Y114.185 E8.05489
G1 X78.001 Y113.711 E8.08205
G1 X77.597 Y112.776 E8.13287
G1 X77.36 Y112.042 E8.17135
G1 X77.186 Y111.349 E8.207
G1 X77.09 Y110.64 E8.24269
G1 X77.073 Y109.925 E8.27837
G1 X77.137 Y109.212 E8.31409
G1 X77.351 Y108.261 E8.36272
G1 X77.51 Y107.742 E8.3898
G1 X77.63 Y107.382 E8.40873
G1 X77.9 Y106.72 E8.4444
G1 X78.243 Y106.092 E8.4801
G1 X78.653 Y105.506 E8.51578
G1 X79.126 Y104.97 E8.55145
G1 X79.829 Y104.355 E8.59805
M205 X10 Y10
G0 F6000 X80.07 Y104.675
M205 X8 Y8
G1 F1200 X80.551 Y104.315 E8.62802
G1 X80.777 Y104.155 E8.64184
G1 X81.364 Y103.788 E8.67637
G1 X82.283 Y103.381 E8.72652
G1 X82.685 Y103.243 E8.74772
G1 X84.638 Y102.599 E8.85032
G1 X87.137 Y101.696 E8.98288
G1 X89.603 Y100.725 E9.11511
G1 X92.058 Y99.677 E9.24828
G1 X94.482 Y98.56 E9.38144
G1 X96.839 Y97.393 E9.51265
G1 X99.219 Y96.129 E9.6471
G1 X101.49 Y94.839 E9.7774
G1 X103.807 Y93.434 E9.91259
G1 X106 Y92.02 E10.04277
G1 X108.275 Y90.458 E10.18045
G1 X108.877 Y90.033 E10.21721
G1 X109.465 Y89.667 E10.25177
G1 X110.091 Y89.371 E10.28631
G1 X110.747 Y89.149 E10.32086
G1 X111.424 Y89.004 E10.35541
G1 X112.237 Y88.935 E10.39611
G1 X112.828 Y88.925 E10.4256
G1 X113.311 Y88.929 E10.4497
G1 X114.002 Y88.978 E10.48426
G1 X114.683 Y89.106 E10.51883
G1 X115.344 Y89.312 E10.55337
G1 X115.977 Y89.593 E10.58792
G1 X116.687 Y90.022 E10.62931
G1 X119.299 Y91.863 E10.78874
G1 X121.541 Y93.356 E10.92312
G1 X123.764 Y94.748 E11.05398
G1 X126.081 Y96.109 E11.18804
G1 X128.381 Y97.375 E11.31902
G1 X130.761 Y98.596 E11.45248
G1 X133.173 Y99.751 E11.5859
G1 X135.604 Y100.831 E11.71861
G1 X138.043 Y101.833 E11.85016
G1 X140.518 Y102.769 E11.98217
G1 X141.204 Y103.002 E12.01832
G1 X141.411 Y103.086 E12.02946
G1 X142.591 Y103.503 E12.0919
G1 X143.229 Y103.771 E12.12643
G1 X143.988 Y104.214 E12.17027
G1 X144.409 Y104.51 E12.19595
G1 X144.767 Y104.779 E12.21829
G1 X145.296 Y105.226 E12.25284
G1 X145.77 Y105.732 E12.28743
G1 X146.182 Y106.288 E12.32196
G1 X146.527 Y106.888 E12.35649
G1 X146.837 Y107.624 E12.39633
G1 X147.035 Y108.21 E12.42719
G1 X147.119 Y108.482 E12.44139
G1 X147.285 Y109.154 E12.47592
G1 X147.372 Y109.841 E12.51047
G1 X147.379 Y110.533 E12.545
G1 X147.307 Y111.222 E12.57956
G1 X147.082 Y112.137 E12.62657
G1 X146.903 Y112.66 E12.65415
G1 X146.687 Y113.227 E12.68442
G1 X146.403 Y113.859 E12.71899
G1 X146.049 Y114.454 E12.75353
G1 X145.628 Y115.004 E12.78808
G1 X145.147 Y115.502 E12.82263
G1 X144.612 Y115.941 E12.85715
G1 X144.053 Y116.303 E12.89038
G1 X143.371 Y116.692 E12.92955
G1 X142.894 Y116.947 E12.95653
G1 X141.965 Y117.34 E13.00686
G1 X140.814 Y117.716 E13.06727
G1 X140.233 Y117.897 E13.09763
G1 X137.716 Y118.761 E13.23039
G1 X135.216 Y119.7 E13.36363
G1 X132.755 Y120.702 E13.49619
G1 X130.316 Y121.779 E13.62921
G1 X127.905 Y122.924 E13.76237
G1 X125.563 Y124.121 E13.89359
G1 X123.228 Y125.397 E14.02634
G1 X120.921 Y126.744 E14.15962
G1 X118.681 Y128.138 E14.29125
G1 X116.438 Y129.625 E14.42551
G1 X115.803 Y130.056 E14.4638
G1 X115.206 Y130.407 E14.49835
G1 X114.572 Y130.686 E14.53291
G1 X113.911 Y130.891 E14.56744
G1 X113.23 Y131.018 E14.602
G1 X112.572 Y131.065 E14.63491
G1 X111.978 Y131.075 E14.66455
G1 X111.492 Y131.071 E14.6888
G1 X110.801 Y131.023 E14.72335
G1 X110.12 Y130.894 E14.75793
G1 X109.459 Y130.688 E14.79247
G1 X108.826 Y130.408 E14.82701
G1 X108.321 Y130.116 E14.85611
G1 X108.076 Y129.956 E14.87071
G1 X106.444 Y128.845 E14.9692
G1 X104.229 Y127.427 E15.10042
G1 X101.91 Y126.035 E15.23535
G1 X99.616 Y124.743 E15.36671
G1 X97.238 Y123.491 E15.50078
G1 X94.876 Y122.332 E15.63205
G1 X92.463 Y121.232 E15.76435
G1 X89.992 Y120.188 E15.89818
G1 X87.503 Y119.218 E16.03145
G1 X85.013 Y118.331 E16.16333
G1 X84.513 Y118.167 E16.18958
G1 X83.585 Y117.848 E16.23854
G1 X82.944 Y117.586 E16.27308
G1 X82.212 Y117.17 E16.31509
G1 X81.756 Y116.86 E16.3426
G1 X81.646 Y116.782 E16.34933
G1 X80.919 Y116.249 E16.3943
G1 X80.518 Y115.941 E16.41953
G1 X79.936 Y115.473 E16.45679
G1 X79.423 Y115.008 E16.49133
G1 X78.967 Y114.487 E16.52587
G1 X78.574 Y113.917 E16.56041
G1 X78.354 Y113.524 E16.58288
G1 X77.976 Y112.647 E16.63053
G1 X77.742 Y111.923 E16.66849
G1 X77.575 Y111.251 E16.70303
G1 X77.485 Y110.564 E16.7376
G1 X77.476 Y109.872 E16.77213
G1 X77.546 Y109.183 E16.80668
G1 X77.733 Y108.378 E16.84791
G1 X77.892 Y107.859 E16.87499
G1 X78.008 Y107.512 E16.89324
G1 X78.271 Y106.872 E16.92777
G1 X78.606 Y106.266 E16.96231
G1 X79.008 Y105.702 E16.99686
G1 X79.473 Y105.189 E17.03141
G1 X80.07 Y104.675 E17.07071
M205 X10 Y10
G0 F6000 X80.31 Y104.994
M205 X8 Y8
G1 F1200 X80.782 Y104.641 E17.10012
G1 X81.008 Y104.481 E17.11393
G1 X81.576 Y104.128 E17.1473
G1 X82.414 Y103.759 E17.19298
G1 X82.811 Y103.623 E17.21391
G1 X84.752 Y102.983 E17.31588
G1 X87.283 Y102.068 E17.45015
G1 X89.758 Y101.094 E17.58284
G1 X92.233 Y100.037 E17.71711
G1 X94.618 Y98.938 E17.84812
G1 X97.067 Y97.726 E17.98445
G1 X99.371 Y96.502 E18.11461
G1 X101.716 Y95.17 E18.24916
G1 X104.01 Y93.779 E18.383
G1 X106.238 Y92.342 E18.51527
G1 X108.493 Y90.794 E18.65173
G1 X109.108 Y90.36 E18.68929
G1 X109.676 Y90.007 E18.72265
G1 X110.283 Y89.725 E18.75604
G1 X110.919 Y89.517 E18.78943
G1 X111.575 Y89.386 E18.8228
G1 X112.244 Y89.335 E18.85627
G1 X112.835 Y89.325 E18.88576
G1 X113.306 Y89.328 E18.90926
G1 X113.973 Y89.377 E18.94263
G1 X114.63 Y89.505 E18.97602
G1 X115.267 Y89.711 E19.00942
G1 X115.874 Y89.991 E19.04277
G1 X116.457 Y90.35 E19.07693
G1 X119.087 Y92.202 E19.23741
G1 X121.312 Y93.685 E19.37081
G1 X123.57 Y95.099 E19.50373
G1 X125.865 Y96.446 E19.63649
G1 X128.211 Y97.738 E19.77011
G1 X130.584 Y98.956 E19.90319
G1 X133.003 Y100.114 E20.03699
G1 X135.439 Y101.195 E20.16995
G1 X137.897 Y102.206 E20.30254
G1 X140.391 Y103.149 E20.43557
G1 X141.075 Y103.381 E20.4716
G1 X141.265 Y103.458 E20.48183
G1 X142.458 Y103.88 E20.54496
G1 X143.074 Y104.14 E20.57832
G1 X143.762 Y104.544 E20.61813
G1 X144.527 Y105.099 E20.66528
G1 X145.037 Y105.532 E20.69866
G1 X145.492 Y106.023 E20.73205
G1 X145.884 Y106.565 E20.76542
G1 X146.21 Y107.149 E20.79879
G1 X146.458 Y107.754 E20.83141
G1 X146.653 Y108.328 E20.86166
G1 X146.737 Y108.6 E20.87586
G1 X146.896 Y109.249 E20.9092
G1 X146.976 Y109.914 E20.94261
G1 X146.976 Y110.583 E20.97599
G1 X146.897 Y111.247 E21.00935
G1 X146.703 Y112.011 E21.04868
G1 X146.529 Y112.518 E21.07542
G1 X146.313 Y113.085 E21.10569
G1 X146.038 Y113.694 E21.13903
G1 X145.692 Y114.267 E21.17242
G1 X145.28 Y114.794 E21.20579
G1 X144.809 Y115.269 E21.23917
G1 X144.284 Y115.684 E21.27255
G1 X143.855 Y115.955 E21.29787
G1 X143.173 Y116.344 E21.33704
G1 X142.708 Y116.593 E21.36336
G1 X141.84 Y116.96 E21.41037
G1 X140.695 Y117.334 E21.47047
G1 X140.121 Y117.513 E21.50046
G1 X137.551 Y118.395 E21.63602
G1 X135.073 Y119.326 E21.76809
G1 X132.608 Y120.33 E21.90088
G1 X130.132 Y121.423 E22.03591
G1 X127.758 Y122.55 E22.16701
G1 X125.383 Y123.764 E22.30009
G1 X123.041 Y125.044 E22.43324
G1 X120.714 Y126.403 E22.56768
G1 X118.429 Y127.824 E22.70193
G1 X116.252 Y129.267 E22.83223
G1 X115.581 Y129.723 E22.87271
G1 X115.003 Y130.061 E22.90611
G1 X114.389 Y130.327 E22.9395
G1 X113.748 Y130.518 E22.97287
G1 X113.089 Y130.632 E23.00623
G1 X112.565 Y130.665 E23.03243
G1 X111.804 Y130.676 E23.0704
G1 X111.497 Y130.672 E23.08571
G1 X110.83 Y130.623 E23.11908
G1 X110.173 Y130.495 E23.15247
G1 X109.536 Y130.29 E23.18586
G1 X108.929 Y130.01 E23.21921
G1 X108.42 Y129.704 E23.24884
G1 X108.301 Y129.626 E23.25594
G1 X106.638 Y128.494 E23.3563
G1 X104.445 Y127.09 E23.48621
G1 X102.118 Y125.694 E23.6216
G1 X99.807 Y124.391 E23.75396
G1 X97.421 Y123.136 E23.88846
G1 X95.039 Y121.967 E24.02083
G1 X92.636 Y120.871 E24.1526
G1 X90.157 Y119.824 E24.28686
G1 X87.616 Y118.834 E24.42291
G1 X85.157 Y117.958 E24.55314
G1 X84.643 Y117.789 E24.58014
G1 X83.715 Y117.47 E24.62909
G1 X83.096 Y117.215 E24.66249
G1 X82.434 Y116.837 E24.70053
G1 X81.985 Y116.532 E24.72761
G1 X81.156 Y115.926 E24.77884
G1 X80.677 Y115.557 E24.809
G1 X80.187 Y115.162 E24.8404
G1 X79.693 Y114.712 E24.87374
G1 X79.255 Y114.206 E24.90713
G1 X78.753 Y113.422 E24.95358
G1 X78.708 Y113.337 E24.95837
G1 X78.355 Y112.519 E25.00282
G1 X78.124 Y111.804 E25.04031
G1 X77.963 Y111.154 E25.07372
G1 X77.881 Y110.491 E25.10705
G1 X77.879 Y109.821 E25.14047
G1 X77.956 Y109.157 E25.17382
G1 X78.116 Y108.496 E25.20775
G1 X78.275 Y107.977 E25.23483
G1 X78.386 Y107.643 E25.25239
G1 X78.641 Y107.024 E25.28579
G1 X78.969 Y106.441 E25.31917
G1 X79.363 Y105.9 E25.35256
G1 X79.819 Y105.411 E25.38591
G1 X80.31 Y104.994 E25.41805
M205 X10 Y10
G0 F6000 X80.551 Y105.313
M205 X8 Y8
G1 F1200 X81.013 Y104.968 E25.44682
G1 X81.239 Y104.808 E25.46063
G1 X81.788 Y104.469 E25.49282
G1 X82.545 Y104.138 E25.53404
G1 X82.936 Y104.003 E25.55468
G1 X84.876 Y103.363 E25.6566
G1 X87.417 Y102.445 E25.79139
G1 X89.925 Y101.458 E25.92585
G1 X92.378 Y100.41 E26.05894
G1 X94.827 Y99.282 E26.19345
G1 X97.212 Y98.101 E26.32623
G1 X99.577 Y96.845 E26.45983
G1 X101.914 Y95.518 E26.59391
G1 X104.228 Y94.114 E26.72894
G1 X106.459 Y92.676 E26.86136
G1 X108.759 Y91.097 E27.00055
G1 X109.339 Y90.687 E27.03599
G1 X109.887 Y90.348 E27.06813
G1 X110.474 Y90.08 E27.10033
G1 X111.088 Y89.887 E27.13244
G1 X111.723 Y89.771 E27.16464
G1 X112.251 Y89.735 E27.19105
G1 X112.999 Y89.724 E27.22837
G1 X113.301 Y89.728 E27.24344
G1 X113.944 Y89.777 E27.27561
G1 X114.576 Y89.905 E27.30778
G1 X115.187 Y90.109 E27.33992
G1 X115.768 Y90.388 E27.37207
G1 X116.226 Y90.677 E27.39909
G1 X118.839 Y92.517 E27.55853
G1 X121.1 Y94.024 E27.69409
G1 X123.362 Y95.44 E27.82723
G1 X125.676 Y96.799 E27.96111
G1 X128.015 Y98.087 E28.09433
G1 X130.408 Y99.315 E28.22852
G1 X132.819 Y100.469 E28.36187
G1 X135.304 Y101.572 E28.49751
G1 X137.74 Y102.574 E28.62893
G1 X140.239 Y103.518 E28.7622
G1 X140.947 Y103.759 E28.79951
G1 X141.142 Y103.839 E28.81003
G1 X142.324 Y104.257 E28.87258
G1 X142.918 Y104.509 E28.90477
G1 X143.535 Y104.874 E28.94053
G1 X144.287 Y105.419 E28.98687
G1 X144.777 Y105.837 E29.019
G1 X145.212 Y106.313 E29.05117
G1 X145.585 Y106.839 E29.08334
G1 X145.889 Y107.407 E29.11548
G1 X146.08 Y107.884 E29.14112
G1 X146.27 Y108.446 E29.17072
G1 X146.354 Y108.718 E29.18492
G1 X146.506 Y109.344 E29.21706
G1 X146.579 Y109.985 E29.24924
G1 X146.572 Y110.629 E29.28137
G1 X146.486 Y111.268 E29.31354
G1 X146.323 Y111.885 E29.34538
G1 X146.155 Y112.375 E29.37122
G1 X145.939 Y112.942 E29.40149
G1 X145.673 Y113.529 E29.43365
G1 X145.336 Y114.079 E29.46583
G1 X144.934 Y114.582 E29.49795
G1 X144.472 Y115.032 E29.53013
G1 X143.958 Y115.422 E29.56232
G1 X143.656 Y115.608 E29.58001
G1 X142.974 Y115.997 E29.61918
G1 X142.521 Y116.239 E29.64481
G1 X141.716 Y116.58 E29.68842
G1 X140.576 Y116.953 E29.74826
G1 X139.946 Y117.149 E29.78118
G1 X137.448 Y118.007 E29.91295
G1 X134.929 Y118.952 E30.04718
G1 X132.445 Y119.965 E30.18102
G1 X129.978 Y121.054 E30.31555
G1 X127.57 Y122.198 E30.44856
G1 X125.188 Y123.414 E30.58198
G1 X122.827 Y124.705 E30.71623
G1 X120.507 Y126.06 E30.85027
G1 X118.243 Y127.468 E30.98329
G1 X115.982 Y128.966 E31.1186
G1 X115.359 Y129.391 E31.15623
G1 X114.801 Y129.715 E31.18842
G1 X114.208 Y129.967 E31.22056
