;FLAVOR:Marlin
;TIME:1980
;Filament used: 1.40607m
;Layer height: 0.2
;MINX:69.822
;MINY:70.008
;MINZ:0.3
;MAXX:155.396
;MAXY:149.992
;MAXZ:4.975
;Generated with Cura_SteamEngine 4.13.1
M140 S60
M105
M190 S60
M104 S200
M105
M109 S200
M82 ;absolute extrusion mode
G21                                        ; metric values
G90                                        ; absolute positioning
M82                                        ; set extruder to absolute mode
M107                                       ; start with the fan off
M190 S60                                   ; preheat and wait for bed
M109 S210                                  ; preheat and wait for hotend
M300 S1000 P500                            ; BEEP heating done
G28 X0 Y10 Z0                              ; move X/Y to min endstops
M420 S1                                    ; enable mesh leveling
G0 Z0.15                                   ; lift nozzle a bit
G0 X2                                      ; move away from clips
G92 E0                                     ; zero the extruded length
G1 Y50 E25 F500                            ; Extrude 25mm of filament in a 5cm line.
G92 E0                                     ; zero the extruded length again
G1 E-2 F500                                ; Retract a little
G1 Y120 F4000                              ; Quickly wipe away from the filament line
G92 E0
G92 E0
G1 F1500 E-6
;LAYER_COUNT:24
;LAYER:0
M107
M205 X10 Y10
G1 F600 Z0.375
G0 F6000 X84.141 Y81.805 Z0.375
M205 X8 Y8
;TYPE:SKIRT
G1 F600 Z0.3
G1 F1500 E0
G1 F1200 X84.284 Y81.668 E0.00988
G1 X85.313 Y80.706 E0.08016
G1 X86.585 Y79.563 E0.16547
G1 X87.252 Y78.998 E0.20909
G1 X88.277 Y78.211 E0.27356
G1 X89.59 Y77.243 E0.35494
G1 X90.041 Y76.921 E0.38259
G1 X90.36 Y76.708 E0.40172
G1 X91.436 Y76.035 E0.46504
G1 X92.828 Y75.203 E0.54595
G1 X93.331 Y74.912 E0.57494
G1 X93.681 Y74.724 E0.59476
G1 X94.801 Y74.167 E0.65717
G1 X96.285 Y73.463 E0.73911
G1 X96.791 Y73.232 E0.76686
G1 X97.155 Y73.079 E0.78656
G1 X98.333 Y72.628 E0.84949
G1 X99.886 Y72.069 E0.93184
G1 X100.372 Y71.9 E0.95751
G1 X100.774 Y71.775 E0.97851
G1 X102.039 Y71.428 E1.04396
G1 X103.533 Y71.047 E1.12088
G1 X104.125 Y70.904 E1.15126
G1 X104.524 Y70.821 E1.17159
G1 X105.752 Y70.607 E1.23378
G1 X107.385 Y70.355 E1.31622
G1 X107.937 Y70.278 E1.34402
G1 X108.325 Y70.236 E1.36349
G1 X109.576 Y70.14 E1.42609
G1 X111.268 Y70.045 E1.51064
G1 X111.909 Y70.018 E1.54265
G1 X112.473 Y70.008 E1.57079
G1 X113.282 Y70.022 E1.61115
G1 X113.483 Y70.031 E1.62119
G1 X115.839 Y70.168 E1.73893
G1 X116.376 Y70.207 E1.76579
G1 X116.774 Y70.248 E1.78576
G1 X118.11 Y70.431 E1.85303
G1 X119.774 Y70.695 E1.93709
G1 X120.661 Y70.86 E1.9821
G1 X121.851 Y71.145 E2.04315
G1 X123.56 Y71.59 E2.13125
G1 X124.06 Y71.727 E2.15712
G1 X124.456 Y71.849 E2.17779
G1 X125.749 Y72.296 E2.24604
G1 X127.279 Y72.86 E2.3274
G1 X127.788 Y73.056 E2.35461
G1 X128.16 Y73.214 E2.37477
G1 X129.366 Y73.769 E2.44101
G1 X130.778 Y74.453 E2.51928
G1 X131.308 Y74.718 E2.54884
G1 X131.68 Y74.919 E2.56994
G1 X132.773 Y75.559 E2.63313
G1 X134.231 Y76.452 E2.71843
G1 X134.686 Y76.739 E2.74527
G1 X135.03 Y76.971 E2.76597
G1 X136.064 Y77.721 E2.8297
G1 X137.443 Y78.765 E2.91599
G1 X137.845 Y79.077 E2.94137
G1 X138.17 Y79.347 E2.96245
G1 X139.175 Y80.241 E3.02956
G1 X140.394 Y81.369 E3.11242
G1 X140.889 Y81.84 E3.14651
G1 X141.263 Y82.216 E3.17297
G1 X141.68 Y82.656 E3.20321
G1 X142.07 Y83.098 E3.23262
G1 X143.714 Y85.037 E3.35945
G1 X144.184 Y85.607 E3.3963
G1 X144.53 Y86.063 E3.42486
G1 X144.833 Y86.497 E3.45127
G1 X146.199 Y88.51 E3.57264
G1 X146.606 Y89.128 E3.60956
G1 X146.877 Y89.574 E3.63559
G1 X147.136 Y90.044 E3.66237
G1 X148.324 Y92.273 E3.78838
G1 X148.636 Y92.881 E3.82247
G1 X148.855 Y93.346 E3.84812
G1 X149.058 Y93.83 E3.8743
G1 X149.965 Y96.081 E3.99538
G1 X150.374 Y97.14 E4.05202
G1 X151.392 Y99.669 E4.18803
G1 X152.456 Y102.106 E4.32069
G1 X153.582 Y104.503 E4.45282
G1 X154.43 Y106.203 E4.54759
G1 X154.696 Y106.722 E4.57669
G1 X154.985 Y107.376 E4.61236
G1 X155.2 Y108.059 E4.64809
G1 X155.338 Y108.76 E4.68373
G1 X155.396 Y109.473 E4.71942
G1 X155.374 Y110.188 E4.75511
G1 X155.321 Y110.625 E4.77707
G1 X155.213 Y111.316 E4.81196
G1 X155.13 Y111.776 E4.83528
G1 X154.96 Y112.471 E4.87098
G1 X154.713 Y113.142 E4.90665
G1 X154.413 Y113.761 E4.94097
G1 X153.232 Y116.161 E5.07442
G1 X152.133 Y118.565 E5.20629
G1 X151.088 Y121.03 E5.33987
G1 X150.133 Y123.472 E5.47068
G1 X150.045 Y123.715 E5.48358
G1 X149.605 Y124.896 E5.54645
G1 X149.453 Y125.27 E5.56659
G1 X148.997 Y126.292 E5.62243
G1 X148.259 Y127.864 E5.70907
G1 X148.026 Y128.346 E5.73578
G1 X147.831 Y128.718 E5.75673
G1 X147.21 Y129.812 E5.81949
G1 X146.393 Y131.192 E5.8995
G1 X146.111 Y131.656 E5.92659
G1 X145.887 Y132 E5.94707
G1 X145.174 Y133.018 E6.00908
G1 X144.287 Y134.236 E6.08425
G1 X143.888 Y134.768 E6.11742
G1 X143.64 Y135.078 E6.13723
G1 X142.806 Y136.056 E6.20136
G1 X141.731 Y137.268 E6.28218
G1 X141.293 Y137.748 E6.3146
G1 X140.859 Y138.195 E6.34568
G1 X140.716 Y138.332 E6.35556
G1 X139.687 Y139.294 E6.42584
G1 X138.415 Y140.437 E6.51116
G1 X137.748 Y141.002 E6.55477
G1 X136.723 Y141.789 E6.61924
G1 X135.41 Y142.757 E6.70062
G1 X134.959 Y143.079 E6.72827
G1 X134.638 Y143.294 E6.74755
G1 X133.574 Y143.959 E6.81014
G1 X132.172 Y144.797 E6.89163
G1 X131.669 Y145.088 E6.92062
G1 X131.319 Y145.276 E6.94044
G1 X130.199 Y145.833 E7.00285
G1 X128.715 Y146.537 E7.0848
G1 X128.209 Y146.768 E7.11255
G1 X127.847 Y146.92 E7.13213
G1 X126.675 Y147.369 E7.19475
G1 X125.114 Y147.931 E7.27752
G1 X124.628 Y148.1 E7.30319
G1 X124.226 Y148.225 E7.3242
G1 X122.961 Y148.572 E7.38964
G1 X121.467 Y148.953 E7.46656
G1 X120.875 Y149.096 E7.49694
G1 X120.476 Y149.179 E7.51728
G1 X119.248 Y149.393 E7.57947
G1 X117.615 Y149.645 E7.6619
G1 X117.063 Y149.722 E7.68971
G1 X116.675 Y149.764 E7.70918
G1 X115.424 Y149.86 E7.77177
G1 X113.732 Y149.955 E7.85632
G1 X113.091 Y149.982 E7.88833
G1 X112.527 Y149.992 E7.91647
G1 X111.747 Y149.979 E7.95539
G1 X111.539 Y149.97 E7.96578
G1 X109.15 Y149.831 E8.08517
G1 X108.615 Y149.792 E8.11193
G1 X108.215 Y149.75 E8.13199
G1 X106.862 Y149.564 E8.20013
G1 X105.229 Y149.305 E8.28262
G1 X104.736 Y149.221 E8.30757
G1 X104.321 Y149.136 E8.3287
G1 X102.985 Y148.815 E8.39725
G1 X101.375 Y148.393 E8.48029
G1 X100.527 Y148.146 E8.52436
G1 X99.177 Y147.678 E8.59564
G1 X97.668 Y147.118 E8.67594
G1 X97.199 Y146.938 E8.701
G1 X96.812 Y146.775 E8.72195
G1 X95.56 Y146.196 E8.79077
G1 X94.113 Y145.492 E8.87105
G1 X93.619 Y145.243 E8.89865
G1 X93.258 Y145.046 E8.91917
G1 X92.066 Y144.344 E8.98819
G1 X90.687 Y143.495 E9.06898
G1 X90.26 Y143.225 E9.09418
G1 X89.913 Y142.99 E9.11509
G1 X88.887 Y142.243 E9.17841
G1 X87.511 Y141.198 E9.26461
G1 X87.086 Y140.866 E9.29152
G1 X86.768 Y140.6 E9.3122
G1 X85.732 Y139.675 E9.38149
G1 X84.544 Y138.569 E9.46247
G1 X84.032 Y138.08 E9.49779
G1 X83.667 Y137.711 E9.52369
G1 X83.46 Y137.487 E9.5389
G1 X82.46 Y136.35 E9.61445
G1 X81.212 Y134.872 E9.71095
G1 X80.774 Y134.339 E9.74537
G1 X80.393 Y133.832 E9.77701
G1 X80.086 Y133.388 E9.80394
G1 X78.759 Y131.426 E9.92212
G1 X78.368 Y130.831 E9.95764
G1 X78.087 Y130.363 E9.98487
G1 X77.818 Y129.872 E10.0128
G1 X76.673 Y127.72 E10.13442
G1 X76.347 Y127.085 E10.17003
G1 X76.069 Y126.478 E10.20334
G1 X75.864 Y125.98 E10.2302
G1 X74.982 Y123.783 E10.34832
G1 X74.447 Y122.395 E10.42253
G1 X73.455 Y119.926 E10.55528
G1 X72.407 Y117.521 E10.68616
G1 X71.277 Y115.109 E10.81905
G1 X70.859 Y114.271 E10.86577
G1 X70.658 Y113.855 E10.88882
G1 X70.361 Y113.13 E10.92791
G1 X70.17 Y112.559 E10.95794
G1 X70.107 Y112.356 E10.96855
G1 X69.933 Y111.662 E11.00424
G1 X69.829 Y110.814 E11.04687
G1 X69.822 Y110.688 E11.05316
G1 X69.822 Y109.973 E11.08884
G1 X69.902 Y109.262 E11.12453
G1 X70.092 Y108.461 E11.1656
G1 X70.257 Y107.931 E11.1933
G1 X70.33 Y107.715 E11.20467
G1 X70.595 Y107.054 E11.2402
G1 X70.753 Y106.716 E11.25881
G1 X71.861 Y104.285 E11.3921
G1 X72.896 Y101.833 E11.52488
G1 X73.854 Y99.38 E11.65627
G1 X74.313 Y98.081 E11.725
G1 X74.379 Y97.923 E11.73354
G1 X75.199 Y95.63 E11.85504
G1 X75.396 Y95.102 E11.88315
G1 X75.546 Y94.733 E11.90302
G1 X76.002 Y93.71 E11.9589
G1 X76.741 Y92.136 E12.04565
G1 X76.974 Y91.654 E12.07236
G1 X77.169 Y91.282 E12.09332
G1 X77.79 Y90.188 E12.15608
G1 X78.607 Y88.808 E12.23609
G1 X78.889 Y88.344 E12.26318
G1 X79.113 Y88 E12.28366
G1 X79.755 Y87.082 E12.33954
G1 X80.767 Y85.693 E12.42528
G1 X81.111 Y85.234 E12.4539
G1 X81.36 Y84.922 E12.47382
G1 X82.194 Y83.944 E12.53794
G1 X83.269 Y82.732 E12.61877
G1 X83.707 Y82.252 E12.65118
G1 X84.141 Y81.805 E12.68227
M205 X10 Y10
G0 F6000 X84.418 Y82.093
M205 X8 Y8
G1 F1200 X84.557 Y81.96 E12.69186
G1 X85.58 Y81.003 E12.76175
G1 X86.848 Y79.864 E12.84679
G1 X87.495 Y79.315 E12.88912
G1 X88.42 Y78.604 E12.94733
G1 X89.747 Y77.624 E13.02963
G1 X90.274 Y77.247 E13.06196
G1 X90.572 Y77.047 E13.07986
G1 X91.641 Y76.378 E13.14278
G1 X93.028 Y75.55 E13.22337
G1 X93.531 Y75.259 E13.25236
G1 X93.859 Y75.082 E13.27095
G1 X94.973 Y74.528 E13.33302
G1 X96.451 Y73.827 E13.41464
G1 X96.957 Y73.596 E13.44239
G1 X97.299 Y73.453 E13.46088
G1 X98.469 Y73.005 E13.52338
G1 X100.017 Y72.447 E13.60548
G1 X100.503 Y72.278 E13.63115
G1 X100.88 Y72.161 E13.65084
G1 X102.138 Y71.815 E13.71594
G1 X103.627 Y71.436 E13.79259
G1 X104.219 Y71.293 E13.82298
G1 X104.593 Y71.215 E13.84204
G1 X105.813 Y71.002 E13.90382
G1 X107.352 Y70.764 E13.98152
G1 X107.992 Y70.675 E14.01375
G1 X108.356 Y70.635 E14.03202
G1 X109.475 Y70.548 E14.08802
G1 X111.284 Y70.444 E14.17842
G1 X111.925 Y70.417 E14.21043
G1 X112.47 Y70.408 E14.23762
G1 X113.272 Y70.422 E14.27764
G1 X113.46 Y70.43 E14.28703
G1 X115.81 Y70.567 E14.40447
G1 X116.347 Y70.606 E14.43133
G1 X116.72 Y70.645 E14.45004
G1 X118.047 Y70.826 E14.51686
G1 X119.707 Y71.089 E14.60071
G1 X120.567 Y71.249 E14.64435
G1 X121.872 Y71.563 E14.71131
G1 X123.455 Y71.975 E14.79292
G1 X123.955 Y72.112 E14.81879
G1 X124.326 Y72.227 E14.83816
G1 X125.494 Y72.63 E14.89981
G1 X127.135 Y73.234 E14.98705
G1 X127.644 Y73.43 E15.01426
G1 X127.993 Y73.577 E15.03315
G1 X129.192 Y74.129 E15.099
G1 X130.671 Y74.846 E15.18101
G1 X131.129 Y75.075 E15.20655
G1 X131.478 Y75.264 E15.22635
G1 X132.674 Y75.966 E15.29554
G1 X134.018 Y76.79 E15.37419
G1 X134.473 Y77.077 E15.40103
G1 X134.795 Y77.295 E15.42043
G1 X135.829 Y78.045 E15.48416
G1 X137.198 Y79.081 E15.56981
G1 X137.6 Y79.393 E15.5952
G1 X137.905 Y79.646 E15.61497
G1 X138.904 Y80.535 E15.68169
G1 X140.118 Y81.658 E15.76419
G1 X140.613 Y82.129 E15.79828
G1 X140.974 Y82.492 E15.82382
G1 X141.384 Y82.924 E15.85354
G1 X141.767 Y83.359 E15.88245
G1 X143.405 Y85.292 E16.00886
G1 X143.875 Y85.862 E16.04572
G1 X144.206 Y86.298 E16.07303
G1 X144.502 Y86.721 E16.09878
G1 X145.865 Y88.73 E16.2199
G1 X146.272 Y89.348 E16.25682
G1 X146.608 Y89.911 E16.28953
G1 X146.783 Y90.232 E16.30777
G1 X147.968 Y92.456 E16.43349
G1 X148.28 Y93.064 E16.46759
G1 X148.565 Y93.685 E16.50168
G1 X148.708 Y94.031 E16.52036
G1 X149.624 Y96.309 E16.64285
G1 X150.003 Y97.289 E16.69527
G1 X151.031 Y99.842 E16.83258
G1 X152.085 Y102.257 E16.96404
G1 X153.228 Y104.69 E17.09815
G1 X154.052 Y106.341 E17.19021
G1 X154.34 Y106.904 E17.22176
G1 X154.619 Y107.538 E17.25631
G1 X154.823 Y108.2 E17.29087
G1 X154.95 Y108.881 E17.32543
G1 X154.998 Y109.572 E17.35999
G1 X154.926 Y110.564 E17.40961
G1 X154.818 Y111.255 E17.44451
G1 X154.737 Y111.703 E17.46722
G1 X154.571 Y112.375 E17.50175
G1 X154.198 Y113.299 E17.55147
G1 X154.056 Y113.581 E17.56722
G1 X152.874 Y115.983 E17.70078
G1 X151.758 Y118.421 E17.83455
G1 X150.731 Y120.846 E17.96593
G1 X149.753 Y123.346 E18.09986
G1 X149.67 Y123.576 E18.11206
G1 X149.23 Y124.757 E18.17494
G1 X149.087 Y125.107 E18.1938
G1 X148.583 Y126.234 E18.25539
G1 X147.899 Y127.69 E18.33565
G1 X147.666 Y128.172 E18.36236
G1 X147.483 Y128.52 E18.38198
G1 X146.866 Y129.608 E18.44438
G1 X146.051 Y130.984 E18.52416
G1 X145.769 Y131.448 E18.55125
G1 X145.559 Y131.771 E18.57047
G1 X144.917 Y132.689 E18.62636
G1 X143.913 Y134.068 E18.71146
G1 X143.568 Y134.528 E18.74015
G1 X143.336 Y134.818 E18.75868
G1 X142.506 Y135.791 E18.82248
G1 X141.435 Y136.998 E18.90299
G1 X140.997 Y137.478 E18.93541
G1 X140.582 Y137.907 E18.96519
G1 X140.443 Y138.04 E18.97479
G1 X139.42 Y138.997 E19.04467
G1 X138.152 Y140.136 E19.12971
G1 X137.505 Y140.685 E19.17204
G1 X136.58 Y141.396 E19.23025
G1 X135.253 Y142.376 E19.31255
G1 X134.726 Y142.753 E19.34488
G1 X134.425 Y142.955 E19.36296
G1 X133.472 Y143.552 E19.41907
G1 X131.972 Y144.45 E19.50629
G1 X131.469 Y144.741 E19.53528
G1 X131.141 Y144.918 E19.55387
G1 X130.027 Y145.472 E19.61594
G1 X128.549 Y146.173 E19.69756
G1 X128.043 Y146.404 E19.72531
G1 X127.703 Y146.547 E19.74371
G1 X126.539 Y146.993 E19.8059
G1 X124.983 Y147.553 E19.8884
G1 X124.497 Y147.722 E19.91407
G1 X124.12 Y147.839 E19.93377
G1 X122.862 Y148.185 E19.99886
G1 X121.373 Y148.564 E20.07551
G1 X120.781 Y148.707 E20.1059
G1 X120.407 Y148.785 E20.12496
G1 X119.187 Y148.998 E20.18674
G1 X117.648 Y149.236 E20.26444
G1 X117.008 Y149.325 E20.29668
G1 X116.644 Y149.365 E20.31494
G1 X115.525 Y149.452 E20.37094
G1 X113.716 Y149.556 E20.46134
G1 X113.075 Y149.583 E20.49335
G1 X112.53 Y149.592 E20.52054
G1 X111.757 Y149.579 E20.55911
G1 X111.562 Y149.571 E20.56885
G1 X109.179 Y149.432 E20.68794
G1 X108.644 Y149.393 E20.7147
G1 X108.269 Y149.354 E20.73351
G1 X106.924 Y149.169 E20.80125
G1 X105.296 Y148.911 E20.88348
G1 X104.803 Y148.827 E20.90843
G1 X104.414 Y148.747 E20.92824
G1 X103.086 Y148.428 E20.99638
G1 X101.481 Y148.008 E21.07915
G1 X100.658 Y147.768 E21.12192
G1 X99.44 Y147.347 E21.18622
G1 X97.811 Y146.745 E21.27286
G1 X97.342 Y146.565 E21.29792
G1 X96.979 Y146.411 E21.3176
G1 X95.735 Y145.836 E21.38597
G1 X94.293 Y145.135 E21.46596
G1 X93.799 Y144.886 E21.49356
G1 X93.461 Y144.701 E21.51278
G1 X92.276 Y144.004 E21.58137
G1 X90.9 Y143.157 E21.66198
G1 X90.473 Y142.887 E21.68719
G1 X90.148 Y142.667 E21.70677
G1 X89.122 Y141.92 E21.77009
G1 X87.819 Y140.93 E21.85173
G1 X87.332 Y140.55 E21.88254
G1 X87.034 Y140.302 E21.90189
G1 X86.098 Y139.468 E21.96443
G1 X84.878 Y138.335 E22.0475
G1 X84.308 Y137.791 E22.08681
G1 X83.955 Y137.433 E22.11189
G1 X83.76 Y137.222 E22.12622
G1 X82.766 Y136.091 E22.20135
G1 X81.521 Y134.618 E22.29757
G1 X81.083 Y134.085 E22.33198
G1 X80.722 Y133.604 E22.36199
G1 X80.417 Y133.163 E22.38874
G1 X79.094 Y131.206 E22.50659
G1 X78.703 Y130.611 E22.54211
G1 X78.433 Y130.164 E22.56817
G1 X78.171 Y129.685 E22.5954
G1 X77.029 Y127.537 E22.71677
G1 X76.703 Y126.902 E22.75238
G1 X76.439 Y126.325 E22.78404
G1 X76.235 Y125.831 E22.81071
G1 X75.355 Y123.639 E22.92855
G1 X74.82 Y122.251 E23.00276
G1 X73.829 Y119.783 E23.13545
G1 X72.771 Y117.354 E23.26763
G1 X71.631 Y114.924 E23.40154
G1 X71.22 Y114.097 E23.44761
G1 X71.019 Y113.681 E23.47066
G1 X70.74 Y113.002 E23.50729
G1 X70.552 Y112.44 E23.53685
G1 X70.489 Y112.237 E23.54745
G1 X70.322 Y111.565 E23.582
G1 X70.228 Y110.792 E23.62085
G1 X70.221 Y110.666 E23.62715
G1 X70.223 Y109.973 E23.66172
G1 X70.304 Y109.286 E23.69623
G1 X70.475 Y108.578 E23.73257
G1 X70.636 Y108.059 E23.75968
G1 X70.709 Y107.843 E23.77106
G1 X70.958 Y107.223 E23.80439
G1 X71.116 Y106.885 E23.823
G1 X72.222 Y104.457 E23.95611
G1 X73.26 Y101.998 E24.08927
G1 X74.248 Y99.467 E24.22483
G1 X74.691 Y98.215 E24.29108
G1 X74.752 Y98.07 E24.29893
G1 X75.574 Y95.77 E24.42079
G1 X75.771 Y95.242 E24.4489
G1 X75.912 Y94.896 E24.46754
G1 X76.417 Y93.766 E24.52929
G1 X77.101 Y92.31 E24.60955
G1 X77.334 Y91.828 E24.63626
G1 X77.517 Y91.48 E24.65587
G1 X78.134 Y90.392 E24.71828
G1 X78.949 Y89.016 E24.79806
G1 X79.231 Y88.552 E24.82515
G1 X79.441 Y88.229 E24.84437
G1 X80.15 Y87.217 E24.90602
G1 X81.087 Y85.933 E24.98532
G1 X81.431 Y85.474 E25.01394
G1 X81.664 Y85.182 E25.03258
G1 X82.494 Y84.209 E25.09638
G1 X83.565 Y83.002 E25.17689
G1 X84.003 Y82.522 E25.20931
G1 X84.418 Y82.093 E25.23908
M205 X10 Y10
G0 F6000 X84.696 Y82.381
M205 X8 Y8
G1 F1200 X84.831 Y82.252 E25.2484
G1 X85.848 Y81.301 E25.31787
G1 X87.111 Y80.166 E25.40258
G1 X87.739 Y79.632 E25.44371
G1 X88.752 Y78.855 E25.5074
G1 X90.055 Y77.894 E25.58818
