;FLAVOR:Marlin
;TIME:2462
;Filament used: 1.7602m
;Layer height: 0.2
;MINX:64.109
;MINY:61.614
;MINZ:0.3
;MAXX:160.891
;MAXY:158.39
;MAXZ:4.975
;Generated with Cura_SteamEngine 4.13.1
M140 S60
M105
M190 S60
M104 S200
M105
M109 S200
M82 ;absolute extrusion mode
G21                                        ; metric values
G90                                        ; absolute positioning
M82                                        ; set extruder to absolute mode
M107                                       ; start with the fan off
M190 S60                                   ; preheat and wait for bed
M109 S210                                  ; preheat and wait for hotend
M300 S1000 P500                            ; BEEP heating done
G28 X0 Y10 Z0                              ; move X/Y to min endstops
M420 S1                                    ; enable mesh leveling
G0 Z0.15                                   ; lift nozzle a bit
G0 X2                                      ; move away from clips
G92 E0                                     ; zero the extruded length
G1 Y50 E25 F500                            ; Extrude 25mm of filament in a 5cm line.
G92 E0                                     ; zero the extruded length again
G1 E-2 F500                                ; Retract a little
G1 Y120 F4000                              ; Quickly wipe away from the filament line
G92 E0
G92 E0
G1 F1500 E-6
;LAYER_COUNT:24
;LAYER:0
M107
M205 X10 Y10
G1 F600 Z0.375
G0 F6000 X77.712 Y76.363 Z0.375
M205 X8 Y8
;TYPE:SKIRT
G1 F600 Z0.3
G1 F1500 E0
G1 F1200 X78.348 Y75.721 E0.04509
G1 X78.973 Y75.105 E0.08887
G1 X79.385 Y74.716 E0.11714
G1 X80.12 Y74.041 E0.16692
G1 X80.757 Y73.474 E0.20947
G1 X81.155 Y73.134 E0.23558
G1 X81.919 Y72.501 E0.28508
G1 X82.594 Y71.956 E0.32836
G1 X83.06 Y71.597 E0.35771
G1 X83.826 Y71.024 E0.40544
G1 X84.666 Y70.414 E0.45723
G1 X84.994 Y70.188 E0.4771
G1 X85.805 Y69.64 E0.52593
G1 X86.522 Y69.17 E0.56871
G1 X86.983 Y68.883 E0.5958
G1 X87.831 Y68.372 E0.64519
G1 X88.607 Y67.917 E0.69007
G1 X89.064 Y67.663 E0.71616
G1 X89.965 Y67.179 E0.76718
G1 X90.702 Y66.795 E0.80864
G1 X91.173 Y66.563 E0.83484
G1 X92.097 Y66.123 E0.8859
G1 X92.865 Y65.771 E0.92804
G1 X93.425 Y65.529 E0.95848
G1 X94.247 Y65.187 E1.0029
G1 X95.27 Y64.78 E1.05783
G1 X95.665 Y64.633 E1.07885
G1 X96.58 Y64.305 E1.12735
G1 X97.519 Y63.985 E1.17684
G1 X97.934 Y63.855 E1.19854
G1 X98.867 Y63.572 E1.24718
G1 X99.823 Y63.298 E1.29679
G1 X100.278 Y63.18 E1.32024
G1 X101.164 Y62.958 E1.36581
G1 X102.028 Y62.754 E1.4101
G1 X102.549 Y62.644 E1.43667
G1 X103.509 Y62.454 E1.48549
G1 X104.544 Y62.266 E1.53797
G1 X104.985 Y62.198 E1.56024
G1 X105.885 Y62.066 E1.60562
G1 X106.769 Y61.949 E1.6501
G1 X107.33 Y61.888 E1.67826
G1 X108.284 Y61.796 E1.72607
G1 X109.114 Y61.727 E1.76763
G1 X109.752 Y61.689 E1.79951
G1 X110.689 Y61.646 E1.84631
G1 X111.6 Y61.617 E1.89178
G1 X111.809 Y61.614 E1.90221
G1 X113.111 Y61.616 E1.96717
G1 X113.792 Y61.628 E2.00115
G1 X114.625 Y61.655 E2.04273
G1 X115.249 Y61.688 E2.0739
G1 X116.111 Y61.747 E2.11701
G1 X117.049 Y61.823 E2.16396
G1 X117.524 Y61.872 E2.18778
G1 X118.508 Y61.986 E2.2372
G1 X119.393 Y62.102 E2.28173
G1 X119.903 Y62.179 E2.30747
G1 X120.825 Y62.333 E2.3541
G1 X121.748 Y62.5 E2.4009
G1 X122.22 Y62.596 E2.42493
G1 X123.162 Y62.8 E2.47301
G1 X124.056 Y63.008 E2.51881
G1 X124.563 Y63.138 E2.54492
G1 X125.449 Y63.376 E2.59069
G1 X126.325 Y63.625 E2.63613
G1 X126.824 Y63.778 E2.66216
G1 X127.699 Y64.061 E2.70804
G1 X128.758 Y64.421 E2.76385
G1 X129.092 Y64.542 E2.78157
G1 X129.979 Y64.878 E2.82889
G1 X130.828 Y65.212 E2.87441
G1 X131.286 Y65.405 E2.8992
G1 X132.216 Y65.81 E2.94981
G1 X132.96 Y66.146 E2.99054
G1 X133.483 Y66.396 E3.01946
G1 X134.32 Y66.81 E3.06605
G1 X135.141 Y67.232 E3.1121
G1 X135.567 Y67.461 E3.13623
G1 X136.427 Y67.941 E3.18537
G1 X137.176 Y68.372 E3.22848
G1 X137.636 Y68.65 E3.25529
G1 X138.312 Y69.07 E3.295
G1 X139.332 Y69.728 E3.35556
G1 X139.624 Y69.924 E3.3731
G1 X140.467 Y70.509 E3.42429
G1 X141.129 Y70.983 E3.46491
G1 X141.56 Y71.307 E3.49182
G1 X142.343 Y71.91 E3.54112
G1 X143.017 Y72.443 E3.58399
G1 X143.437 Y72.791 E3.6112
G1 X144.177 Y73.421 E3.65969
G1 X144.927 Y74.08 E3.7095
G1 X145.241 Y74.368 E3.73076
G1 X145.909 Y74.994 E3.77643
G1 X146.562 Y75.624 E3.8217
G1 X146.948 Y76.014 E3.84907
G1 X147.589 Y76.679 E3.89515
G1 X148.198 Y77.327 E3.93952
G1 X148.589 Y77.762 E3.9687
G1 X149.175 Y78.434 E4.01318
G1 X149.764 Y79.126 E4.05852
G1 X150.136 Y79.583 E4.08792
G1 X150.688 Y80.282 E4.13235
G1 X151.227 Y80.982 E4.17643
G1 X151.541 Y81.409 E4.20287
G1 X152.104 Y82.198 E4.25123
G1 X152.695 Y83.053 E4.30309
G1 X152.894 Y83.355 E4.32113
G1 X153.418 Y84.171 E4.36951
G1 X153.966 Y85.054 E4.42136
G1 X154.155 Y85.373 E4.43986
G1 X154.662 Y86.253 E4.49053
G1 X155.05 Y86.95 E4.53032
G1 X155.324 Y87.467 E4.55952
G1 X155.75 Y88.3 E4.60619
G1 X156.149 Y89.107 E4.65111
G1 X156.391 Y89.625 E4.67963
G1 X156.748 Y90.417 E4.72297
G1 X157.137 Y91.311 E4.77161
G1 X157.315 Y91.748 E4.79516
G1 X157.675 Y92.662 E4.84416
G1 X157.972 Y93.445 E4.88594
G1 X158.159 Y93.973 E4.91389
G1 X158.444 Y94.814 E4.95819
G1 X158.738 Y95.725 E5.00595
G1 X158.897 Y96.257 E5.03365
G1 X159.152 Y97.153 E5.08013
G1 X159.422 Y98.164 E5.13233
G1 X159.531 Y98.618 E5.15563
G1 X159.713 Y99.402 E5.19578
G1 X159.952 Y100.512 E5.25243
G1 X160.014 Y100.84 E5.26908
G1 X160.188 Y101.799 E5.31771
G1 X160.358 Y102.832 E5.36994
G1 X160.408 Y103.184 E5.38768
G1 X160.534 Y104.152 E5.43638
G1 X160.635 Y105.027 E5.48032
G1 X160.687 Y105.572 E5.50763
G1 X160.762 Y106.498 E5.55398
G1 X160.822 Y107.396 E5.59889
G1 X160.847 Y107.948 E5.62645
G1 X160.875 Y108.863 E5.67212
G1 X160.891 Y109.873 E5.72252
G1 X160.887 Y110.687 E5.76313
G1 X160.881 Y110.968 E5.77715
G1 X160.851 Y111.908 E5.82407
G1 X160.809 Y112.821 E5.86967
G1 X160.771 Y113.388 E5.89802
G1 X160.701 Y114.257 E5.94152
G1 X160.605 Y115.257 E5.99164
G1 X160.547 Y115.744 E6.01611
G1 X160.419 Y116.726 E6.06551
G1 X160.305 Y117.513 E6.10519
G1 X160.207 Y118.1 E6.13488
G1 X160.048 Y118.972 E6.1791
G1 X159.867 Y119.903 E6.22642
G1 X159.752 Y120.429 E6.25328
G1 X159.555 Y121.277 E6.29671
G1 X159.325 Y122.215 E6.34489
G1 X159.187 Y122.725 E6.37125
G1 X158.922 Y123.654 E6.41945
G1 X158.676 Y124.475 E6.46221
G1 X158.503 Y125.007 E6.49012
G1 X158.195 Y125.917 E6.53805
G1 X157.907 Y126.732 E6.58117
G1 X157.717 Y127.235 E6.608
G1 X157.348 Y128.173 E6.65829
G1 X157.032 Y128.942 E6.69977
G1 X156.826 Y129.411 E6.72532
G1 X156.424 Y130.301 E6.77404
G1 X156.045 Y131.108 E6.81852
G1 X155.796 Y131.609 E6.84644
G1 X155.412 Y132.359 E6.88847
G1 X154.889 Y133.345 E6.94416
G1 X154.682 Y133.715 E6.96531
G1 X154.203 Y134.542 E7.01299
G1 X153.676 Y135.424 E7.06425
G1 X153.52 Y135.672 E7.07886
G1 X152.926 Y136.594 E7.13358
G1 X152.418 Y137.356 E7.17927
G1 X152.163 Y137.722 E7.20153
G1 X151.616 Y138.485 E7.24837
G1 X150.995 Y139.325 E7.30048
G1 X150.767 Y139.619 E7.31904
G1 X150.163 Y140.381 E7.36755
G1 X149.619 Y141.05 E7.41057
G1 X149.269 Y141.459 E7.43743
G1 X148.636 Y142.182 E7.48537
G1 X148.062 Y142.82 E7.52819
G1 X147.628 Y143.28 E7.55974
G1 X147.023 Y143.906 E7.60317
G1 X146.387 Y144.547 E7.64822
G1 X146.001 Y144.919 E7.67497
G1 X145.301 Y145.574 E7.72279
G1 X144.525 Y146.28 E7.77513
G1 X144.259 Y146.51 E7.79268
G1 X143.535 Y147.125 E7.84007
G1 X142.841 Y147.699 E7.885
G1 X142.41 Y148.04 E7.91242
G1 X141.663 Y148.614 E7.95942
G1 X140.944 Y149.151 E8.00419
G1 X140.528 Y149.447 E8.02967
G1 X139.707 Y150.016 E8.0795
G1 X139.033 Y150.47 E8.12004
G1 X138.493 Y150.817 E8.15207
G1 X137.85 Y151.218 E8.18987
G1 X136.934 Y151.77 E8.24323
G1 X136.754 Y151.875 E8.25363
G1 X135.687 Y152.471 E8.3146
G1 X134.913 Y152.889 E8.35849
G1 X134.426 Y153.137 E8.38575
G1 X133.58 Y153.556 E8.43285
G1 X132.779 Y153.938 E8.47713
G1 X132.232 Y154.184 E8.50705
G1 X131.424 Y154.534 E8.55098
G1 X130.429 Y154.949 E8.60477
G1 X130.096 Y155.079 E8.6226
G1 X129.197 Y155.417 E8.67052
G1 X128.384 Y155.711 E8.71365
G1 X127.854 Y155.89 E8.74156
G1 X126.983 Y156.17 E8.7872
G1 X126.131 Y156.433 E8.83169
G1 X125.566 Y156.593 E8.86098
G1 X124.719 Y156.82 E8.90473
G1 X123.623 Y157.096 E8.96112
G1 X123.248 Y157.18 E8.98029
G1 X122.35 Y157.375 E9.02614
G1 X121.337 Y157.578 E9.07768
G1 X120.95 Y157.647 E9.09729
G1 X119.991 Y157.805 E9.14578
G1 X119.157 Y157.931 E9.18786
G1 X118.583 Y158.005 E9.21674
G1 X117.64 Y158.115 E9.2641
G1 X116.784 Y158.202 E9.30703
G1 X116.235 Y158.246 E9.33451
G1 X115.302 Y158.307 E9.38115
G1 X114.399 Y158.354 E9.42626
G1 X113.863 Y158.371 E9.45302
G1 X112.885 Y158.387 E9.50182
G1 X112.086 Y158.39 E9.54168
G1 X111.871 Y158.387 E9.55241
G1 X110.461 Y158.344 E9.62279
G1 X109.848 Y158.315 E9.6534
G1 X108.817 Y158.251 E9.70494
G1 X108.335 Y158.21 E9.72907
G1 X107.48 Y158.127 E9.77193
G1 X106.378 Y158.003 E9.82725
G1 X105.97 Y157.947 E9.8478
G1 X105.03 Y157.809 E9.8952
G1 X104.185 Y157.673 E9.9379
G1 X103.68 Y157.58 E9.96352
G1 X102.658 Y157.377 E10.0155
G1 X101.823 Y157.199 E10.0581
G1 X101.324 Y157.082 E10.08367
G1 X100.33 Y156.833 E10.13479
G1 X99.319 Y156.562 E10.18701
G1 X98.942 Y156.452 E10.2066
G1 X98.02 Y156.172 E10.25468
G1 X97.17 Y155.9 E10.2992
G1 X96.658 Y155.723 E10.32623
G1 X95.705 Y155.381 E10.37674
G1 X94.954 Y155.099 E10.41676
G1 X94.308 Y154.841 E10.45147
G1 X93.529 Y154.514 E10.49362
G1 X92.678 Y154.146 E10.53987
G1 X92.216 Y153.934 E10.56523
G1 X91.299 Y153.497 E10.61591
G1 X90.39 Y153.046 E10.66654
G1 X90.027 Y152.855 E10.687
G1 X89.155 Y152.385 E10.73642
G1 X88.396 Y151.963 E10.77975
G1 X87.961 Y151.707 E10.80493
G1 X87.107 Y151.191 E10.85471
G1 X86.365 Y150.728 E10.89834
G1 X85.818 Y150.368 E10.93101
G1 X85.088 Y149.874 E10.97499
G1 X84.351 Y149.361 E11.01979
G1 X83.924 Y149.05 E11.04614
G1 X83.13 Y148.455 E11.09564
G1 X82.456 Y147.935 E11.13812
G1 X82.004 Y147.57 E11.1671
G1 X81.272 Y146.962 E11.21457
G1 X80.555 Y146.349 E11.26164
G1 X80.171 Y146.006 E11.28732
G1 X79.452 Y145.345 E11.33605
G1 X78.811 Y144.74 E11.38003
G1 X78.422 Y144.356 E11.4073
G1 X77.744 Y143.667 E11.45552
G1 X77.121 Y143.017 E11.50044
G1 X76.77 Y142.635 E11.52632
G1 X76.092 Y141.873 E11.57721
G1 X75.418 Y141.092 E11.62868
G1 X75.178 Y140.8 E11.64753
G1 X74.567 Y140.04 E11.69618
G1 X74.022 Y139.345 E11.74025
G1 X73.71 Y138.929 E11.76619
G1 X73.117 Y138.114 E11.81647
G1 X72.61 Y137.397 E11.86029
G1 X72.31 Y136.951 E11.8871
G1 X71.755 Y136.102 E11.93771
G1 X71.319 Y135.415 E11.9783
G1 X71.011 Y134.905 E12.00802
G1 X70.546 Y134.108 E12.05406
G1 X70.019 Y133.177 E12.10743
G1 X69.805 Y132.777 E12.13006
G1 X69.362 Y131.921 E12.17815
G1 X68.91 Y131.017 E12.22858
G1 X68.738 Y130.651 E12.24875
G1 X68.351 Y129.806 E12.29512
G1 X67.966 Y128.934 E12.34267
G1 X67.782 Y128.49 E12.36665
G1 X67.402 Y127.54 E12.4177
G1 X67.099 Y126.752 E12.45982
G1 X66.925 Y126.268 E12.48548
G1 X66.589 Y125.286 E12.53726
G1 X66.27 Y124.304 E12.58877
G1 X66.149 Y123.898 E12.60991
G1 X65.893 Y123.005 E12.65625
G1 X65.655 Y122.133 E12.70135
G1 X65.514 Y121.569 E12.73035
G1 X65.297 Y120.645 E12.77771
G1 X65.124 Y119.864 E12.81762
G1 X64.982 Y119.138 E12.85452
G1 X64.828 Y118.296 E12.89723
G1 X64.679 Y117.409 E12.9421
G1 X64.6 Y116.864 E12.96957
G1 X64.471 Y115.883 E13.01894
G1 X64.371 Y115.036 E13.06149
G1 X64.322 Y114.516 E13.08755
G1 X64.239 Y113.5 E13.1384
G1 X64.172 Y112.491 E13.18885
G1 X64.155 Y112.095 E13.20863
G1 X64.123 Y111.063 E13.26014
G1 X64.109 Y110.186 E13.3039
G1 X64.112 Y109.314 E13.3474
G1 X64.117 Y109.081 E13.35903
G1 X64.154 Y107.983 E13.41384
G1 X64.193 Y107.138 E13.45604
G1 X64.232 Y106.565 E13.4847
G1 X64.309 Y105.643 E13.53085
G1 X64.399 Y104.71 E13.57762
G1 X64.459 Y104.199 E13.60329
G1 X64.594 Y103.187 E13.65422
G1 X64.71 Y102.393 E13.69426
G1 X64.817 Y101.764 E13.72609
G1 X64.993 Y100.806 E13.77468
G1 X65.182 Y99.859 E13.82286
G1 X65.274 Y99.45 E13.84378
G1 X65.494 Y98.515 E13.8917
G1 X65.754 Y97.491 E13.94441
G1 X65.873 Y97.059 E13.96676
G1 X66.135 Y96.154 E14.01377
G1 X66.38 Y95.347 E14.05584
G1 X66.557 Y94.806 E14.08424
G1 X66.864 Y93.913 E14.13135
G1 X67.172 Y93.055 E14.17683
G1 X67.375 Y92.527 E14.20505
G1 X67.726 Y91.649 E14.25223
G1 X68.065 Y90.836 E14.29617
G1 X68.304 Y90.297 E14.32559
G1 X68.712 Y89.408 E14.37439
G1 X69.14 Y88.513 E14.42388
G1 X69.33 Y88.138 E14.44486
G1 X69.766 Y87.303 E14.49185
G1 X70.266 Y86.377 E14.54436
G1 X70.494 Y85.978 E14.56728
G1 X70.977 Y85.155 E14.61489
G1 X71.412 Y84.436 E14.65682
G1 X71.692 Y83.994 E14.68292
G1 X72.223 Y83.182 E14.73132
G1 X72.739 Y82.416 E14.7774
G1 X73.031 Y82.002 E14.80268
G1 X73.619 Y81.195 E14.85249
G1 X74.165 Y80.466 E14.89793
G1 X74.487 Y80.058 E14.92386
G1 X75.087 Y79.313 E14.97159
G1 X75.681 Y78.597 E15.018
G1 X76.042 Y78.182 E15.04544
G1 X76.725 Y77.418 E15.09657
G1 X77.351 Y76.738 E15.14268
G1 X77.712 Y76.363 E15.16865
M205 X10 Y10
G0 F6000 X77.997 Y76.644
M205 X8 Y8
G1 F1200 X78.629 Y76.006 E15.21345
G1 X79.254 Y75.39 E15.25723
G1 X79.656 Y75.011 E15.2848
G1 X80.386 Y74.34 E15.33427
G1 X81.122 Y73.687 E15.38335
G1 X81.41 Y73.442 E15.40222
G1 X82.17 Y72.813 E15.45144
G1 X82.966 Y72.172 E15.50242
G1 X83.252 Y71.953 E15.52039
G1 X84.061 Y71.347 E15.57082
G1 X84.774 Y70.828 E15.61482
G1 X85.218 Y70.52 E15.64178
G1 X86.025 Y69.975 E15.69036
G1 X86.742 Y69.505 E15.73314
G1 X87.189 Y69.226 E15.75942
G1 X88.033 Y68.717 E15.8086
G1 X88.809 Y68.262 E15.85347
G1 X89.254 Y68.016 E15.87884
G1 X90.15 Y67.534 E15.9296
G1 X90.887 Y67.15 E15.97106
G1 X91.396 Y66.899 E15.99938
G1 X92.264 Y66.487 E16.04731
G1 X93.165 Y66.075 E16.09674
G1 X93.642 Y65.871 E16.12262
G1 X94.395 Y65.558 E16.16331
G1 X95.287 Y65.202 E16.21122
G1 X95.801 Y65.009 E16.23861
G1 X96.71 Y64.683 E16.28679
G1 X97.502 Y64.412 E16.32855
G1 X98.051 Y64.237 E16.3573
G1 X98.977 Y63.956 E16.40558
G1 X99.786 Y63.723 E16.44758
G1 X100.309 Y63.584 E16.47458
G1 X101.256 Y63.348 E16.52327
G1 X102.12 Y63.144 E16.56756
G1 X102.627 Y63.036 E16.59342
G1 X103.581 Y62.847 E16.64194
G1 X104.449 Y62.688 E16.68597
G1 X105.043 Y62.594 E16.71597
G1 X105.938 Y62.463 E16.7611
G1 X106.976 Y62.327 E16.81333
G1 X107.429 Y62.28 E16.83605
G1 X108.317 Y62.195 E16.88055
G1 X109.309 Y62.114 E16.93021
G1 X109.834 Y62.085 E16.95644
G1 X110.702 Y62.046 E16.99979
G1 X111.613 Y62.017 E17.04526
G1 X111.809 Y62.014 E17.05504
G1 X113.104 Y62.016 E17.11965
G1 X113.779 Y62.028 E17.15333
G1 X114.612 Y62.055 E17.19491
G1 X115.222 Y62.087 E17.22539
G1 X116.079 Y62.146 E17.26824
G1 X117.164 Y62.235 E17.32256
G1 X117.478 Y62.269 E17.33831
G1 X118.456 Y62.383 E17.38744
G1 X119.469 Y62.517 E17.43842
G1 X119.838 Y62.574 E17.45704
G1 X120.754 Y62.727 E17.50338
G1 X121.829 Y62.923 E17.55789
G1 X122.135 Y62.987 E17.57349
G1 X123.072 Y63.19 E17.62132
G1 X123.966 Y63.398 E17.66711
G1 X124.46 Y63.524 E17.69255
G1 X125.339 Y63.761 E17.73797
G1 X126.358 Y64.052 E17.79084
G1 X126.763 Y64.178 E17.812
G1 X127.571 Y64.44 E17.85438
G1 X128.622 Y64.797 E17.90975
G1 X128.95 Y64.916 E17.92716
G1 X129.833 Y65.251 E17.97428
G1 X130.682 Y65.585 E18.0198
G1 X131.127 Y65.772 E18.04388
G1 X132.052 Y66.175 E18.09422
G1 X132.796 Y66.511 E18.13494
G1 X133.255 Y66.73 E18.16032
G1 X134.137 Y67.166 E18.2094
G1 X135.073 Y67.648 E18.26193
G1 X135.372 Y67.811 E18.27892
G1 X136.228 Y68.288 E18.32781
G1 X136.977 Y68.719 E18.37092
G1 X137.468 Y69.017 E18.39957
G1 X138.18 Y69.46 E18.44141
G1 X139.008 Y69.993 E18.49054
G1 X139.396 Y70.253 E18.51384
G1 X140.234 Y70.835 E18.56474
G1 X141.018 Y71.398 E18.6129
G1 X141.316 Y71.624 E18.63156
G1 X142.095 Y72.224 E18.68061
G1 X142.769 Y72.757 E18.72348
G1 X143.178 Y73.096 E18.74998
G1 X143.914 Y73.722 E18.79819
G1 X144.657 Y74.375 E18.84754
G1 X144.967 Y74.66 E18.86855
G1 X145.631 Y75.282 E18.91394
G1 X146.284 Y75.912 E18.95921
G1 X146.66 Y76.291 E18.98584
G1 X147.297 Y76.953 E19.03168
G1 X147.906 Y77.601 E19.07604
G1 X148.243 Y77.975 E19.10116
G1 X148.87 Y78.693 E19.14871
G1 X149.554 Y79.499 E19.20145
G1 X149.822 Y79.831 E19.22274
G1 X150.371 Y80.526 E19.26693
G1 X150.91 Y81.226 E19.311
G1 X151.218 Y81.645 E19.33695
G1 X151.775 Y82.426 E19.38481
G1 X152.361 Y83.274 E19.43623
G1 X152.558 Y83.571 E19.45401
G1 X153.078 Y84.382 E19.50208
G1 X153.622 Y85.259 E19.55356
