;FLAVOR:Marlin
;TIME:76
;Filament used: 0.0510789m
;Layer height: 0.2
;MINX:99.31
;MINY:96.812
;MINZ:0.3
;MAXX:125.687
;MAXY:123.188
;MAXZ:1.175
;Generated with Cura_SteamEngine 4.13.1
M140 S60
M105
M190 S60
M104 S200
M105
M109 S200
M82 ;absolute extrusion mode
G21                                        ; metric values
G90                                        ; absolute positioning
M82                                        ; set extruder to absolute mode
M107                                       ; start with the fan off
M190 S60                                   ; preheat and wait for bed
M109 S210                                  ; preheat and wait for hotend
M300 S1000 P500                            ; BEEP heating done
G28 X0 Y10 Z0                              ; move X/Y to min endstops
M420 S1                                    ; enable mesh leveling
G0 Z0.15                                   ; lift nozzle a bit
G0 X2                                      ; move away from clips
G92 E0                                     ; zero the extruded length
G1 Y50 E25 F500                            ; Extrude 25mm of filament in a 5cm line.
G92 E0                                     ; zero the extruded length again
G1 E-2 F500                                ; Retract a little
G1 Y120 F4000                              ; Quickly wipe away from the filament line
G92 E0
G92 E0
G1 F1500 E-6
;LAYER_COUNT:5
;LAYER:0
M107
M205 X10 Y10
G1 F600 Z0.375
G0 F6000 X102.143 Y99.363 Z0.375
M205 X8 Y8
;TYPE:SKIRT
G1 F600 Z0.3
G1 F1500 E0
G1 F1200 X102.641 Y98.921 E0.03322
G1 X103.093 Y98.571 E0.06174
G1 X103.32 Y98.411 E0.0756
G1 X103.883 Y98.057 E0.10878
G1 X104.57 Y97.692 E0.14759
G1 X105.127 Y97.453 E0.17783
G1 X105.607 Y97.277 E0.20333
G1 X106.098 Y97.131 E0.22889
G1 X106.658 Y96.999 E0.25759
G1 X107.319 Y96.886 E0.29105
G1 X108.008 Y96.825 E0.32556
G1 X108.715 Y96.812 E0.36084
G1 X111.285 Y96.881 E0.4891
G1 X113.918 Y96.877 E0.62046
G1 X116.329 Y96.812 E0.74079
G1 X117.06 Y96.83 E0.77727
G1 X117.586 Y96.877 E0.80362
G1 X117.843 Y96.911 E0.81655
G1 X118.499 Y97.033 E0.84984
G1 X118.782 Y97.101 E0.86436
G1 X119.413 Y97.287 E0.89718
G1 X120.11 Y97.549 E0.93433
G1 X120.725 Y97.84 E0.96827
G1 X121.248 Y98.135 E0.99823
G1 X121.78 Y98.482 E1.02992
G1 X122.331 Y98.9 E1.06442
G1 X122.962 Y99.47 E1.10685
G1 X123.125 Y99.636 E1.11845
G1 X123.473 Y100.02 E1.14431
G1 X123.644 Y100.225 E1.15763
G1 X124.044 Y100.76 E1.19095
G1 X124.207 Y101.003 E1.20555
G1 X124.549 Y101.574 E1.23876
G1 X124.694 Y101.848 E1.25422
G1 X124.996 Y102.507 E1.29039
G1 X125.101 Y102.775 E1.30475
G1 X125.311 Y103.406 E1.33793
G1 X125.39 Y103.692 E1.35273
G1 X125.531 Y104.326 E1.38513
G1 X125.638 Y105.048 E1.42155
G1 X125.683 Y105.744 E1.45634
G1 X125.687 Y106.108 E1.47451
G1 X125.675 Y106.772 E1.50764
G1 X125.62 Y108.733 E1.60551
G1 X125.62 Y111.387 E1.73792
G1 X125.686 Y113.801 E1.8584
G1 X125.673 Y114.484 E1.89248
G1 X125.627 Y115.054 E1.92101
G1 X125.53 Y115.693 E1.95326
G1 X125.394 Y116.296 E1.9841
G1 X125.222 Y116.882 E2.01456
G1 X125.028 Y117.414 E2.04282
G1 X124.785 Y117.971 E2.07313
G1 X124.524 Y118.473 E2.10136
G1 X124.147 Y119.091 E2.13748
G1 X124.016 Y119.283 E2.14907
G1 X123.638 Y119.783 E2.18034
G1 X123.469 Y119.985 E2.19348
G1 X123.065 Y120.424 E2.22325
G1 X122.843 Y120.644 E2.23884
G1 X122.465 Y120.989 E2.26437
G1 X121.96 Y121.389 E2.29652
G1 X121.334 Y121.813 E2.33424
G1 X121.158 Y121.919 E2.34449
G1 X120.673 Y122.184 E2.37206
G1 X120.416 Y122.31 E2.38634
G1 X119.822 Y122.565 E2.41859
G1 X119.123 Y122.806 E2.45548
G1 X118.441 Y122.981 E2.4906
G1 X117.667 Y123.114 E2.52979
G1 X117.091 Y123.17 E2.55866
G1 X116.508 Y123.188 E2.58776
G1 X115.823 Y123.18 E2.62193
G1 X114.024 Y123.127 E2.71173
G1 X111.359 Y123.122 E2.84468
G1 X108.838 Y123.185 E2.9705
G1 X108.16 Y123.184 E3.00432
G1 X107.447 Y123.127 E3.04001
G1 X106.788 Y123.028 E3.07325
G1 X106.194 Y122.896 E3.10361
G1 X105.618 Y122.725 E3.13359
G1 X104.873 Y122.443 E3.17333
G1 X104.669 Y122.352 E3.18447
G1 X104.2 Y122.119 E3.2106
G1 X103.585 Y121.765 E3.246
G1 X103.027 Y121.382 E3.27977
G1 X102.562 Y121.012 E3.30942
G1 X102.347 Y120.824 E3.32366
G1 X101.893 Y120.385 E3.35517
G1 X101.376 Y119.807 E3.39386
G1 X100.964 Y119.26 E3.42803
G1 X100.582 Y118.665 E3.4633
G1 X100.266 Y118.085 E3.49625
G1 X100.02 Y117.542 E3.52599
G1 X99.796 Y116.951 E3.55753
G1 X99.612 Y116.34 E3.58936
G1 X99.469 Y115.702 E3.62198
G1 X99.383 Y115.148 E3.64995
G1 X99.319 Y114.428 E3.68601
G1 X99.31 Y113.971 E3.70882
G1 X99.321 Y113.277 E3.74345
G1 X99.376 Y111.342 E3.84002
G1 X99.376 Y108.661 E3.97378
G1 X99.321 Y106.504 E4.08143
G1 X99.313 Y105.833 E4.11491
G1 X99.323 Y105.54 E4.12953
G1 X99.369 Y104.96 E4.15856
G1 X99.395 Y104.753 E4.16897
G1 X99.49 Y104.198 E4.19706
G1 X99.551 Y103.916 E4.21145
G1 X99.717 Y103.299 E4.24333
G1 X99.805 Y103.027 E4.25759
G1 X100.051 Y102.387 E4.2918
G1 X100.16 Y102.143 E4.30513
G1 X100.45 Y101.571 E4.33713
G1 X100.859 Y100.891 E4.37672
G1 X101.299 Y100.29 E4.41388
G1 X101.645 Y99.878 E4.44072
G1 X102.143 Y99.363 E4.47646
M205 X10 Y10
G0 F6000 X102.419 Y99.652
M205 X8 Y8
G1 F1200 X102.9 Y99.226 E4.50852
G1 X103.323 Y98.898 E4.53522
G1 X103.55 Y98.738 E4.54908
G1 X104.078 Y98.406 E4.58019
G1 X104.739 Y98.055 E4.61753
G1 X105.279 Y97.823 E4.64685
G1 X105.99 Y97.578 E4.68437
G1 X106.208 Y97.516 E4.69568
G1 X106.732 Y97.392 E4.72254
G1 X107.369 Y97.283 E4.75479
G1 X108.034 Y97.224 E4.78809
G1 X108.705 Y97.212 E4.82158
G1 X111.276 Y97.281 E4.94989
G1 X113.93 Y97.277 E5.0823
G1 X116.34 Y97.212 E5.20258
G1 X117.041 Y97.229 E5.23756
G1 X117.791 Y97.308 E5.27519
G1 X118.406 Y97.422 E5.30639
G1 X118.689 Y97.49 E5.32091
G1 X119.28 Y97.665 E5.35166
G1 X119.951 Y97.916 E5.3874
G1 X120.545 Y98.198 E5.42021
G1 X121.035 Y98.474 E5.44827
G1 X121.548 Y98.808 E5.47881
G1 X122.081 Y99.213 E5.5122
G1 X122.676 Y99.75 E5.55219
G1 X123.165 Y100.277 E5.58806
G1 X123.336 Y100.482 E5.60138
G1 X123.712 Y100.983 E5.63263
G1 X123.875 Y101.226 E5.64723
G1 X124.195 Y101.762 E5.67837
G1 X124.34 Y102.036 E5.69384
G1 X124.624 Y102.653 E5.72772
G1 X124.729 Y102.921 E5.74208
G1 X124.925 Y103.512 E5.77315
G1 X125.004 Y103.798 E5.78795
G1 X125.137 Y104.393 E5.81837
G1 X125.24 Y105.088 E5.85342
G1 X125.283 Y105.76 E5.88701
G1 X125.287 Y106.101 E5.90403
G1 X125.276 Y106.761 E5.93696
G1 X125.22 Y108.743 E6.03588
G1 X125.22 Y111.398 E6.16834
G1 X125.286 Y113.812 E6.28882
G1 X125.274 Y114.457 E6.321
G1 X125.23 Y115.006 E6.34848
G1 X125.136 Y115.625 E6.37972
G1 X125.009 Y116.189 E6.40856
G1 X124.843 Y116.755 E6.43799
G1 X124.658 Y117.261 E6.46487
G1 X124.425 Y117.797 E6.49403
G1 X124.172 Y118.283 E6.52136
G1 X123.816 Y118.866 E6.55544
G1 X123.685 Y119.058 E6.56704
G1 X123.331 Y119.526 E6.59631
G1 X123.162 Y119.728 E6.60945
G1 X122.783 Y120.14 E6.63738
G1 X122.207 Y120.684 E6.67691
G1 X121.719 Y121.07 E6.70795
G1 X121.128 Y121.471 E6.74358
G1 X120.952 Y121.577 E6.75383
G1 X120.497 Y121.824 E6.77966
G1 X120.24 Y121.95 E6.79394
G1 X119.683 Y122.189 E6.82418
G1 X119.011 Y122.422 E6.85966
G1 X118.352 Y122.591 E6.89361
G1 X117.622 Y122.716 E6.93056
G1 X117.067 Y122.771 E6.95838
G1 X116.503 Y122.788 E6.98653
G1 X115.83 Y122.78 E7.02011
G1 X114.037 Y122.727 E7.1096
G1 X111.351 Y122.722 E7.24361
G1 X108.999 Y122.78 E7.36099
G1 X108.494 Y122.789 E7.38618
G1 X107.744 Y122.755 E7.42364
G1 X107.164 Y122.688 E7.45277
G1 X106.666 Y122.595 E7.47804
G1 X105.941 Y122.408 E7.5154
G1 X105.417 Y122.232 E7.54298
G1 X104.832 Y121.987 E7.57462
G1 X104.153 Y121.637 E7.61273
G1 X103.712 Y121.372 E7.6384
G1 X103.261 Y121.057 E7.66584
G1 X102.825 Y120.711 E7.69361
G1 X102.61 Y120.523 E7.70786
G1 X102.185 Y120.112 E7.73736
G1 X101.687 Y119.556 E7.7746
G1 X101.29 Y119.027 E7.80759
G1 X100.929 Y118.465 E7.84092
G1 X100.626 Y117.91 E7.87246
G1 X100.386 Y117.383 E7.90135
G1 X100.176 Y116.828 E7.93096
G1 X99.999 Y116.241 E7.96155
G1 X99.862 Y115.623 E7.99313
G1 X99.781 Y115.104 E8.01933
G1 X99.718 Y114.412 E8.054
G1 X99.71 Y113.977 E8.07571
G1 X99.72 Y113.289 E8.11003
G1 X99.776 Y111.318 E8.20841
G1 X99.776 Y108.661 E8.34097
G1 X99.719 Y106.423 E8.45266
G1 X99.712 Y105.846 E8.48145
G1 X99.722 Y105.553 E8.49607
G1 X99.766 Y105.01 E8.52325
G1 X99.792 Y104.803 E8.53366
G1 X99.881 Y104.282 E8.56003
G1 X99.942 Y104 E8.57442
G1 X100.097 Y103.422 E8.60428
G1 X100.185 Y103.15 E8.61854
G1 X100.416 Y102.55 E8.65062
G1 X100.525 Y102.306 E8.66395
G1 X100.797 Y101.77 E8.69394
G1 X101.191 Y101.115 E8.73207
G1 X101.616 Y100.534 E8.76799
G1 X101.943 Y100.145 E8.79334
G1 X102.419 Y99.652 E8.82753
M205 X10 Y10
G0 F6000 X102.74 Y99.898
M205 X8 Y8
G1 F1200 X103.158 Y99.531 E8.85528
G1 X103.554 Y99.225 E8.88025
G1 X103.781 Y99.065 E8.8941
G1 X104.273 Y98.755 E8.92311
G1 X104.908 Y98.418 E8.95898
G1 X105.431 Y98.193 E8.98738
G1 X106.099 Y97.963 E9.02263
G1 X106.317 Y97.901 E9.03394
G1 X106.807 Y97.785 E9.05906
G1 X107.418 Y97.68 E9.08999
G1 X108.06 Y97.623 E9.12215
G1 X108.694 Y97.612 E9.15378
G1 X111.265 Y97.681 E9.28209
G1 X113.941 Y97.677 E9.4156
G1 X116.351 Y97.612 E9.53588
G1 X117.021 Y97.629 E9.56932
G1 X117.738 Y97.704 E9.60528
G1 X118.312 Y97.811 E9.63441
G1 X118.595 Y97.879 E9.64894
G1 X119.147 Y98.042 E9.67765
G1 X119.792 Y98.283 E9.712
G1 X120.365 Y98.555 E9.74365
G1 X120.823 Y98.813 E9.76987
G1 X121.316 Y99.133 E9.7992
G1 X121.831 Y99.525 E9.83149
G1 X122.391 Y100.03 E9.86911
G1 X122.858 Y100.533 E9.90335
G1 X123.029 Y100.738 E9.91667
G1 X123.38 Y101.205 E9.94581
G1 X123.543 Y101.448 E9.96041
G1 X123.842 Y101.949 E9.98952
G1 X123.987 Y102.223 E10.00499
G1 X124.251 Y102.799 E10.0366
G1 X124.356 Y103.067 E10.05096
G1 X124.54 Y103.619 E10.07999
G1 X124.619 Y103.905 E10.09479
G1 X124.742 Y104.46 E10.12315
G1 X124.842 Y105.128 E10.15685
G1 X124.884 Y105.776 E10.18924
G1 X124.887 Y106.094 E10.20511
G1 X124.876 Y106.75 E10.23784
G1 X124.82 Y108.732 E10.33676
G1 X124.82 Y111.409 E10.47032
G1 X124.886 Y113.823 E10.5908
G1 X124.875 Y114.431 E10.62114
G1 X124.833 Y114.959 E10.64756
G1 X124.742 Y115.556 E10.67769
G1 X124.623 Y116.083 E10.70465
G1 X124.464 Y116.627 E10.73292
G1 X124.289 Y117.107 E10.75841
G1 X124.065 Y117.622 E10.78643
G1 X123.821 Y118.092 E10.81285
G1 X123.486 Y118.64 E10.84489
G1 X123.355 Y118.832 E10.85649
G1 X123.024 Y119.269 E10.88384
G1 X122.855 Y119.471 E10.89698
G1 X122.502 Y119.856 E10.92304
G1 X121.949 Y120.378 E10.96098
G1 X121.477 Y120.751 E10.99099
G1 X120.921 Y121.128 E11.02451
G1 X120.321 Y121.465 E11.05884
G1 X120.064 Y121.591 E11.07312
G1 X119.544 Y121.814 E11.10135
G1 X118.899 Y122.038 E11.13541
G1 X118.262 Y122.201 E11.16822
G1 X117.577 Y122.319 E11.20289
G1 X117.043 Y122.372 E11.22967
G1 X116.497 Y122.388 E11.25692
G1 X115.836 Y122.38 E11.2899
G1 X114.014 Y122.327 E11.38084
G1 X111.341 Y122.322 E11.51419
G1 X109.085 Y122.377 E11.62678
G1 X108.489 Y122.389 E11.65652
G1 X107.784 Y122.357 E11.69173
G1 X107.226 Y122.292 E11.71975
G1 X106.4 Y122.123 E11.76182
G1 X105.86 Y121.962 E11.78993
G1 X105.199 Y121.712 E11.82519
G1 X104.584 Y121.418 E11.8592
G1 X104.017 Y121.092 E11.89183
G1 X103.495 Y120.733 E11.92343
G1 X103.089 Y120.41 E11.94932
G1 X102.874 Y120.222 E11.96357
G1 X102.476 Y119.838 E11.99116
G1 X101.999 Y119.306 E12.0268
G1 X101.615 Y118.795 E12.05869
G1 X101.275 Y118.265 E12.09011
G1 X100.985 Y117.735 E12.12025
G1 X100.753 Y117.223 E12.14829
G1 X100.557 Y116.705 E12.17593
G1 X100.387 Y116.142 E12.20527
G1 X100.254 Y115.544 E12.23583
G1 X100.147 Y114.78 E12.27432
G1 X100.11 Y113.983 E12.31412
G1 X100.12 Y113.3 E12.3482
G1 X100.176 Y111.329 E12.44658
G1 X100.176 Y108.653 E12.58008
G1 X100.119 Y106.412 E12.69192
G1 X100.112 Y105.86 E12.71946
G1 X100.122 Y105.567 E12.73409
G1 X100.163 Y105.06 E12.75947
G1 X100.272 Y104.367 E12.79447
G1 X100.333 Y104.085 E12.80886
G1 X100.478 Y103.545 E12.83675
G1 X100.566 Y103.273 E12.85102
G1 X100.781 Y102.713 E12.88094
G1 X100.89 Y102.469 E12.89428
G1 X101.144 Y101.969 E12.92226
G1 X101.522 Y101.339 E12.95891
G1 X101.933 Y100.778 E12.99361
G1 X102.376 Y100.266 E13.02738
G1 X102.74 Y99.898 E13.05321
M205 X10 Y10
G0 F6000 X103.017 Y100.187
M205 X8 Y8
G1 F1200 X103.417 Y99.836 E13.07976
G1 X104.011 Y99.392 E13.11676
G1 X104.468 Y99.104 E13.14371
G1 X105.076 Y98.78 E13.17808
G1 X105.583 Y98.563 E13.20559
G1 X106.209 Y98.347 E13.23863
G1 X106.881 Y98.178 E13.2732
G1 X107.468 Y98.077 E13.30292
G1 X108.086 Y98.022 E13.33387
G1 X108.683 Y98.012 E13.36366
G1 X111.255 Y98.081 E13.49202
G1 X113.953 Y98.077 E13.62663
G1 X116.362 Y98.012 E13.74686
G1 X117.001 Y98.028 E13.77875
G1 X117.686 Y98.101 E13.81311
G1 X118.219 Y98.2 E13.84016
G1 X118.502 Y98.268 E13.85468
G1 X119.014 Y98.419 E13.88131
G1 X119.634 Y98.651 E13.91434
G1 X120.186 Y98.913 E13.94482
G1 X120.825 Y99.286 E13.98174
G1 X121.421 Y99.709 E14.0182
G1 X121.818 Y100.039 E14.04395
G1 X122.268 Y100.477 E14.07528
G1 X122.722 Y100.994 E14.10961
G1 X123.047 Y101.428 E14.13666
G1 X123.21 Y101.671 E14.15126
G1 X123.488 Y102.136 E14.17829
G1 X123.633 Y102.41 E14.19375
G1 X123.879 Y102.945 E14.22313
G1 X123.984 Y103.213 E14.23749
G1 X124.154 Y103.725 E14.26441
G1 X124.233 Y104.011 E14.27921
G1 X124.348 Y104.527 E14.30558
G1 X124.444 Y105.168 E14.33792
G1 X124.484 Y105.792 E14.36912
G1 X124.487 Y106.088 E14.38388
G1 X124.476 Y106.739 E14.41637
G1 X124.42 Y108.722 E14.51534
G1 X124.42 Y111.418 E14.64984
G1 X124.486 Y113.834 E14.77042
G1 X124.476 Y114.405 E14.79891
G1 X124.436 Y114.912 E14.82429
G1 X124.348 Y115.487 E14.85331
G1 X124.238 Y115.976 E14.87831
G1 X124.085 Y116.5 E14.90555
G1 X123.829 Y117.171 E14.94138
G1 X123.566 Y117.722 E14.97184
G1 X123.286 Y118.213 E15.00004
G1 X123.024 Y118.607 E15.02364
G1 X122.717 Y119.013 E15.04904
G1 X122.22 Y119.572 E15.08636
G1 X121.691 Y120.072 E15.12267
G1 X121.236 Y120.432 E15.15162
G1 X120.715 Y120.785 E15.18301
G1 X120.145 Y121.106 E15.21565
G1 X119.888 Y121.232 E15.22993
G1 X119.405 Y121.439 E15.25615
G1 X118.787 Y121.655 E15.28881
G1 X118.173 Y121.811 E15.32041
G1 X117.531 Y121.921 E15.35291
G1 X117.019 Y121.972 E15.37858
G1 X116.492 Y121.989 E15.40489
G1 X115.772 Y121.979 E15.44081
G1 X114.027 Y121.927 E15.52791
G1 X111.332 Y121.922 E15.66236
G1 X109.065 Y121.977 E15.7755
G1 X108.484 Y121.989 E15.80449
G1 X107.825 Y121.959 E15.8374
G1 X107.288 Y121.897 E15.86437
G1 X106.503 Y121.736 E15.90435
G1 X105.98 Y121.581 E15.93156
G1 X105.362 Y121.347 E15.96453
G1 X104.777 Y121.067 E15.99689
G1 X104.233 Y120.755 E16.02818
G1 X103.73 Y120.409 E16.05863
G1 X103.137 Y119.921 E16.09695
G1 X102.768 Y119.564 E16.12256
G1 X102.311 Y119.055 E16.15669
G1 X101.941 Y118.562 E16.18744
G1 X101.622 Y118.066 E16.21687
G1 X101.345 Y117.56 E16.24564
G1 X101.12 Y117.063 E16.27286
G1 X100.938 Y116.582 E16.29852
G1 X100.774 Y116.043 E16.32663
G1 X100.646 Y115.465 E16.35616
G1 X100.545 Y114.736 E16.39288
G1 X100.51 Y113.989 E16.43019
G1 X100.52 Y113.311 E16.46402
G1 X100.576 Y111.34 E16.56239
G1 X100.576 Y108.643 E16.69695
G1 X100.52 Y106.46 E16.80589
G1 X100.512 Y105.874 E16.83513
G1 X100.56 Y105.11 E16.87332
G1 X100.663 Y104.452 E16.90655
G1 X100.724 Y104.17 E16.92094
G1 X100.858 Y103.668 E16.94687
G1 X100.946 Y103.396 E16.96113
G1 X101.146 Y102.876 E16.98892
G1 X101.255 Y102.632 E17.00226
G1 X101.491 Y102.168 E17.02823
G1 X101.854 Y101.563 E17.06343
G1 X102.25 Y101.022 E17.09688
G1 X102.665 Y100.543 E17.1285
G1 X103.017 Y100.187 E17.15347
M205 X10 Y10
G1 F1500 E11.15347
G1 F600 Z0.375
;MESH:08_gyrskp-beilagscheiben.stl
G0 F6000 X109.324 Y107.943 Z0.375
M205 X8 Y8
;TYPE:WALL-INNER
G1 F600 Z0.3
G1 F1500 E17.15347
G1 F1200 X109.681 Y107.687 E17.17539
G1 X110.069 Y107.408 E17.19923
G1 X110.271 Y107.047 E17.21987
G1 X110.518 Y106.608 E17.245
G1 X110.585 Y105.694 E17.29072
G1 X110.258 Y104.835 E17.33658
G1 X109.597 Y104.199 E17.38234
G1 X108.757 Y103.912 E17.42663
G1 X108.392 Y103.899 E17.44485
G1 X107.533 Y104.123 E17.48914
G1 X106.828 Y104.709 E17.53488
G1 X106.438 Y105.541 E17.58072
G1 X106.438 Y106.459 E17.62652
G1 X106.828 Y107.291 E17.67236
G1 X107.533 Y107.877 E17.7181
G1 X108.016 Y108.002 E17.74299
G1 X108.421 Y108.108 E17.76387
G1 X108.88 Y108.025 E17.78714
G1 X109.324 Y107.943 E17.80967
M205 X10 Y10
G0 F6000 X109.164 Y107.566
M205 X8 Y8
