;FLAVOR:Marlin
;TIME:1471
;Filament used: 1.07664m
;Layer height: 0.2
;MINX:76.015
;MINY:73.511
;MINZ:0.3
;MAXX:148.985
;MAXY:146.485
;MAXZ:4.775
;Generated with Cura_SteamEngine 4.13.1
M140 S60
M105
M190 S60
M104 S200
M105
M109 S200
M82 ;absolute extrusion mode
G21                                        ; metric values
G90                                        ; absolute positioning
M82                                        ; set extruder to absolute mode
M107                                       ; start with the fan off
M190 S60                                   ; preheat and wait for bed
M109 S210                                  ; preheat and wait for hotend
M300 S1000 P500                            ; BEEP heating done
G28 X0 Y10 Z0                              ; move X/Y to min endstops
M420 S1                                    ; enable mesh leveling
G0 Z0.15                                   ; lift nozzle a bit
G0 X2                                      ; move away from clips
G92 E0                                     ; zero the extruded length
G1 Y50 E25 F500                            ; Extrude 25mm of filament in a 5cm line.
G92 E0                                     ; zero the extruded length again
G1 E-2 F500                                ; Retract a little
G1 Y120 F4000                              ; Quickly wipe away from the filament line
G92 E0
G92 E0
G1 F1500 E-6
;LAYER_COUNT:23
;LAYER:0
M106 S76.5
M205 X10 Y10
G1 F600 Z0.375
G0 F6000 X85.923 Y85.017 Z0.375
M205 X8 Y8
;TYPE:SKIRT
G1 F600 Z0.3
G1 F1500 E0
G1 F1200 X87.415 Y83.525 E0.10527
G1 X87.896 Y83.057 E0.13875
G1 X88.332 Y82.665 E0.168
G1 X88.715 Y82.347 E0.19284
G1 X90.313 Y81.054 E0.29539
G1 X90.858 Y80.626 E0.32996
G1 X91.34 Y80.277 E0.35965
G1 X91.756 Y80 E0.38459
G1 X93.413 Y78.925 E0.48313
G1 X94.038 Y78.531 E0.51999
G1 X94.558 Y78.232 E0.54991
G1 X94.993 Y78.002 E0.57446
G1 X96.789 Y77.087 E0.67502
G1 X97.431 Y76.77 E0.71075
G1 X97.947 Y76.54 E0.73893
G1 X98.436 Y76.345 E0.76519
G1 X100.389 Y75.597 E0.86953
G1 X101 Y75.373 E0.902
G1 X101.538 Y75.198 E0.93022
G1 X101.977 Y75.075 E0.95297
G1 X104.002 Y74.533 E1.05755
G1 X104.69 Y74.36 E1.09295
G1 X105.357 Y74.222 E1.12693
G1 X105.782 Y74.151 E1.14843
G1 X107.732 Y73.843 E1.24692
G1 X108.458 Y73.739 E1.28351
G1 X108.978 Y73.683 E1.3096
G1 X109.509 Y73.648 E1.33615
G1 X111.571 Y73.541 E1.43916
G1 X112.25 Y73.515 E1.47306
G1 X112.605 Y73.511 E1.49077
G1 X113.236 Y73.53 E1.52227
G1 X115.379 Y73.642 E1.62933
G1 X116.066 Y73.688 E1.66368
G1 X116.648 Y73.75 E1.69288
G1 X117.168 Y73.827 E1.71911
G1 X119.144 Y74.14 E1.81892
G1 X119.866 Y74.265 E1.85548
G1 X120.432 Y74.386 E1.88435
G1 X120.842 Y74.491 E1.90547
G1 X122.898 Y75.042 E2.01166
G1 X123.556 Y75.229 E2.04579
G1 X124.093 Y75.404 E2.07397
G1 X124.554 Y75.574 E2.09848
G1 X126.529 Y76.333 E2.20404
G1 X127.116 Y76.569 E2.2356
G1 X127.649 Y76.807 E2.26472
G1 X128.062 Y77.011 E2.28771
G1 X129.906 Y77.951 E2.39097
G1 X130.532 Y78.282 E2.42629
G1 X130.99 Y78.546 E2.45267
G1 X131.45 Y78.835 E2.47977
G1 X133.103 Y79.908 E2.57809
G1 X133.752 Y80.343 E2.61707
G1 X134.238 Y80.698 E2.6471
G1 X134.577 Y80.965 E2.66863
G1 X136.216 Y82.292 E2.77384
G1 X136.745 Y82.734 E2.80823
G1 X137.163 Y83.11 E2.83628
G1 X137.483 Y83.423 E2.85861
G1 X138.975 Y84.915 E2.96388
G1 X139.443 Y85.396 E2.99736
G1 X139.835 Y85.832 E3.02661
G1 X140.153 Y86.215 E3.05145
G1 X141.446 Y87.813 E3.154
G1 X141.874 Y88.358 E3.18857
G1 X142.223 Y88.84 E3.21826
G1 X142.5 Y89.256 E3.2432
G1 X143.578 Y90.917 E3.34199
G1 X143.977 Y91.551 E3.37936
G1 X144.269 Y92.059 E3.40859
G1 X144.496 Y92.491 E3.43294
G1 X145.408 Y94.281 E3.53317
G1 X145.723 Y94.917 E3.56857
G1 X145.959 Y95.446 E3.59747
G1 X146.154 Y95.934 E3.62369
G1 X146.904 Y97.892 E3.7283
G1 X147.126 Y98.498 E3.7605
G1 X147.303 Y99.044 E3.78913
G1 X147.425 Y99.475 E3.81148
G1 X147.965 Y101.494 E3.91575
G1 X148.137 Y102.175 E3.95079
G1 X148.245 Y102.678 E3.97646
G1 X148.339 Y103.218 E4.0038
G1 X148.657 Y105.226 E4.10523
G1 X148.76 Y105.941 E4.14127
G1 X148.817 Y106.48 E4.16831
G1 X148.852 Y107.008 E4.19471
G1 X148.959 Y109.07 E4.29772
G1 X148.985 Y109.748 E4.33157
G1 X148.985 Y110.337 E4.36096
G1 X148.969 Y110.75 E4.38158
G1 X148.86 Y112.833 E4.48564
G1 X148.812 Y113.559 E4.52194
G1 X148.75 Y114.144 E4.55129
G1 X148.673 Y114.668 E4.57771
G1 X148.361 Y116.639 E4.67727
G1 X148.239 Y117.347 E4.71312
G1 X148.116 Y117.924 E4.74255
G1 X148.009 Y118.342 E4.76408
G1 X147.458 Y120.398 E4.87027
G1 X147.271 Y121.056 E4.9044
G1 X147.096 Y121.593 E4.93257
G1 X146.926 Y122.054 E4.95709
G1 X146.168 Y124.026 E5.06249
G1 X145.932 Y124.614 E5.0941
G1 X145.693 Y125.15 E5.12338
G1 X145.489 Y125.562 E5.14632
G1 X144.554 Y127.395 E5.24897
G1 X144.225 Y128.02 E5.28421
G1 X143.936 Y128.522 E5.31311
G1 X143.635 Y128.997 E5.34117
G1 X142.536 Y130.689 E5.44182
G1 X142.154 Y131.257 E5.47597
G1 X141.802 Y131.738 E5.50571
G1 X141.535 Y132.077 E5.52724
G1 X140.208 Y133.716 E5.63245
G1 X139.766 Y134.245 E5.66684
G1 X139.39 Y134.663 E5.69489
G1 X139.077 Y134.983 E5.71722
G1 X137.585 Y136.475 E5.82249
G1 X137.104 Y136.943 E5.85597
G1 X136.668 Y137.335 E5.88522
G1 X136.285 Y137.653 E5.91006
G1 X134.687 Y138.946 E6.01261
G1 X134.142 Y139.374 E6.04719
G1 X133.66 Y139.723 E6.07688
G1 X133.244 Y140 E6.10181
G1 X131.591 Y141.073 E6.20013
G1 X130.967 Y141.467 E6.23695
G1 X130.443 Y141.768 E6.2671
G1 X130.01 Y141.996 E6.29151
G1 X128.213 Y142.912 E6.39214
G1 X127.571 Y143.229 E6.42786
G1 X127.057 Y143.458 E6.45593
G1 X126.564 Y143.655 E6.48242
G1 X124.611 Y144.403 E6.58676
G1 X124 Y144.627 E6.61922
G1 X123.462 Y144.802 E6.64745
G1 X123.023 Y144.925 E6.6702
G1 X120.998 Y145.467 E6.77478
G1 X120.31 Y145.64 E6.81017
G1 X119.643 Y145.778 E6.84415
G1 X119.218 Y145.849 E6.86565
G1 X117.268 Y146.157 E6.96414
G1 X116.542 Y146.261 E7.00073
G1 X116.022 Y146.317 E7.02683
G1 X115.491 Y146.352 E7.05337
G1 X113.429 Y146.459 E7.15639
G1 X112.751 Y146.485 E7.19024
G1 X112.163 Y146.485 E7.21957
G1 X111.708 Y146.467 E7.24229
G1 X109.622 Y146.358 E7.3465
G1 X108.935 Y146.312 E7.38085
G1 X108.356 Y146.25 E7.40991
G1 X107.832 Y146.173 E7.43633
G1 X105.856 Y145.86 E7.53614
G1 X105.134 Y145.735 E7.5727
G1 X104.568 Y145.614 E7.60157
G1 X104.158 Y145.509 E7.62269
G1 X102.102 Y144.958 E7.72888
G1 X101.444 Y144.771 E7.76301
G1 X100.907 Y144.596 E7.79119
G1 X100.446 Y144.426 E7.8157
G1 X98.474 Y143.668 E7.9211
G1 X97.886 Y143.432 E7.95271
G1 X97.35 Y143.193 E7.98199
G1 X96.938 Y142.989 E8.00493
G1 X95.101 Y142.053 E8.10779
G1 X94.475 Y141.723 E8.14309
G1 X93.987 Y141.441 E8.17121
G1 X93.55 Y141.165 E8.197
G1 X91.811 Y140.036 E8.30044
G1 X91.243 Y139.654 E8.33459
G1 X90.762 Y139.302 E8.36433
G1 X90.423 Y139.035 E8.38585
G1 X88.784 Y137.708 E8.49106
G1 X88.255 Y137.266 E8.52546
G1 X87.837 Y136.89 E8.55351
G1 X87.517 Y136.577 E8.57584
G1 X86.024 Y135.084 E8.68118
G1 X85.556 Y134.603 E8.71466
G1 X85.163 Y134.165 E8.74402
G1 X84.847 Y133.785 E8.76867
G1 X83.554 Y132.187 E8.87123
G1 X83.126 Y131.642 E8.9058
G1 X82.777 Y131.16 E8.93549
G1 X82.5 Y130.744 E8.96042
G1 X81.427 Y129.091 E9.05874
G1 X81.033 Y128.467 E9.09556
G1 X80.732 Y127.943 E9.12571
G1 X80.504 Y127.51 E9.15012
G1 X79.588 Y125.713 E9.25075
G1 X79.271 Y125.071 E9.28647
G1 X79.042 Y124.557 E9.31455
G1 X78.845 Y124.064 E9.34103
G1 X78.097 Y122.111 E9.44537
G1 X77.873 Y121.5 E9.47784
G1 X77.698 Y120.962 E9.50606
G1 X77.575 Y120.523 E9.52881
G1 X77.033 Y118.498 E9.63339
G1 X76.86 Y117.81 E9.66879
G1 X76.722 Y117.143 E9.70277
G1 X76.651 Y116.718 E9.72426
G1 X76.343 Y114.768 E9.82276
G1 X76.239 Y114.042 E9.85935
G1 X76.183 Y113.522 E9.88544
G1 X76.148 Y112.991 E9.91199
G1 X76.041 Y110.927 E10.0151
G1 X76.015 Y110.243 E10.04925
G1 X76.015 Y109.66 E10.07834
G1 X76.033 Y109.208 E10.1009
G1 X76.143 Y107.118 E10.20532
G1 X76.19 Y106.423 E10.24007
G1 X76.25 Y105.856 E10.26852
G1 X76.327 Y105.332 E10.29494
G1 X76.64 Y103.353 E10.3949
G1 X76.765 Y102.633 E10.43136
G1 X76.875 Y102.112 E10.45793
G1 X76.933 Y101.878 E10.46995
G1 X77.542 Y99.6 E10.58759
G1 X77.729 Y98.943 E10.62167
G1 X77.897 Y98.427 E10.64875
G1 X78.074 Y97.946 E10.67432
G1 X78.829 Y95.979 E10.77943
G1 X79.06 Y95.402 E10.81044
G1 X79.315 Y94.835 E10.84146
G1 X79.51 Y94.44 E10.86343
G1 X80.449 Y92.598 E10.96658
G1 X80.779 Y91.973 E11.00184
G1 X81.051 Y91.501 E11.02902
G1 X81.335 Y91.05 E11.05561
G1 X82.408 Y89.397 E11.15393
G1 X82.85 Y88.739 E11.19348
G1 X83.201 Y88.257 E11.22323
G1 X83.465 Y87.923 E11.24447
G1 X84.792 Y86.284 E11.34968
G1 X85.234 Y85.755 E11.38407
G1 X85.61 Y85.337 E11.41212
G1 X85.923 Y85.017 E11.43445
M205 X10 Y10
G0 F6000 X86.205 Y85.299
M205 X8 Y8
G1 F1200 X87.694 Y83.812 E11.53944
G1 X88.175 Y83.344 E11.57292
G1 X88.594 Y82.967 E11.60104
G1 X88.966 Y82.658 E11.62517
G1 X90.56 Y81.368 E11.72747
G1 X91.105 Y80.94 E11.76204
G1 X91.569 Y80.606 E11.79057
G1 X91.974 Y80.336 E11.81485
G1 X93.626 Y79.263 E11.91313
G1 X94.251 Y78.869 E11.94999
G1 X94.751 Y78.582 E11.97875
G1 X95.174 Y78.358 E12.00263
G1 X96.967 Y77.446 E12.10299
G1 X97.609 Y77.129 E12.13871
G1 X98.103 Y76.909 E12.16569
G1 X98.579 Y76.719 E12.19126
G1 X100.527 Y75.973 E12.29533
G1 X101.138 Y75.749 E12.3278
G1 X101.655 Y75.581 E12.35492
G1 X102.08 Y75.461 E12.37695
G1 X104.1 Y74.921 E12.48127
G1 X104.788 Y74.748 E12.51666
G1 X105.423 Y74.616 E12.54902
G1 X105.844 Y74.546 E12.57031
G1 X107.789 Y74.239 E12.66855
G1 X108.515 Y74.135 E12.70514
G1 X109.014 Y74.081 E12.73018
G1 X109.529 Y74.047 E12.75593
G1 X111.586 Y73.94 E12.85869
G1 X112.265 Y73.914 E12.89259
G1 X112.598 Y73.911 E12.9092
G1 X113.218 Y73.93 E12.94015
G1 X115.352 Y74.041 E13.04676
G1 X116.039 Y74.087 E13.08111
G1 X116.598 Y74.147 E13.10916
G1 X117.105 Y74.222 E13.13473
G1 X119.076 Y74.534 E13.23429
G1 X119.798 Y74.659 E13.27084
G1 X120.341 Y74.776 E13.29856
G1 X120.739 Y74.877 E13.31904
G1 X122.788 Y75.427 E13.42489
G1 X123.446 Y75.614 E13.45901
G1 X123.961 Y75.782 E13.48604
G1 X124.411 Y75.947 E13.50995
G1 X126.38 Y76.704 E13.6152
G1 X126.967 Y76.94 E13.64676
G1 X127.48 Y77.17 E13.67481
G1 X127.881 Y77.367 E13.6971
G1 X129.719 Y78.305 E13.80005
G1 X130.345 Y78.636 E13.83537
G1 X130.786 Y78.889 E13.86074
G1 X131.235 Y79.172 E13.88722
G1 X132.885 Y80.243 E13.98536
G1 X133.529 Y80.675 E14.02405
G1 X133.997 Y81.017 E14.05297
G1 X134.326 Y81.276 E14.07386
G1 X135.886 Y82.538 E14.17396
G1 X136.488 Y83.041 E14.2131
G1 X136.89 Y83.403 E14.24009
G1 X137.201 Y83.705 E14.26172
G1 X138.688 Y85.194 E14.3667
G1 X139.156 Y85.675 E14.40019
G1 X139.533 Y86.094 E14.42831
G1 X139.842 Y86.466 E14.45243
G1 X141.132 Y88.06 E14.55474
G1 X141.56 Y88.605 E14.58931
G1 X141.894 Y89.069 E14.61783
G1 X142.164 Y89.474 E14.64212
G1 X143.239 Y91.13 E14.74062
G1 X143.638 Y91.764 E14.77799
G1 X143.919 Y92.252 E14.80608
G1 X144.14 Y92.673 E14.8298
G1 X145.05 Y94.459 E14.92981
G1 X145.365 Y95.095 E14.96522
G1 X145.591 Y95.602 E14.99291
G1 X145.781 Y96.078 E15.01848
G1 X146.529 Y98.029 E15.12272
G1 X146.751 Y98.635 E15.15492
G1 X146.921 Y99.161 E15.1825
G1 X147.038 Y99.579 E15.20416
G1 X147.577 Y101.592 E15.30812
G1 X147.749 Y102.273 E15.34317
G1 X147.884 Y102.922 E15.37624
G1 X147.954 Y103.343 E15.39753
G1 X148.261 Y105.283 E15.49552
G1 X148.364 Y105.998 E15.53156
G1 X148.419 Y106.516 E15.55755
G1 X148.453 Y107.029 E15.5832
G1 X148.56 Y109.085 E15.68591
G1 X148.586 Y109.763 E15.71976
G1 X148.585 Y110.33 E15.74805
G1 X148.57 Y110.73 E15.76802
G1 X148.461 Y112.807 E15.87178
G1 X148.413 Y113.533 E15.90808
G1 X148.353 Y114.095 E15.93628
G1 X148.278 Y114.605 E15.962
G1 X147.967 Y116.571 E16.0613
G1 X147.845 Y117.279 E16.09715
G1 X147.726 Y117.833 E16.12542
G1 X147.623 Y118.239 E16.14631
G1 X147.073 Y120.288 E16.25216
G1 X146.886 Y120.946 E16.28628
G1 X146.718 Y121.461 E16.31331
G1 X146.553 Y121.911 E16.33722
G1 X145.797 Y123.877 E16.44231
G1 X145.561 Y124.465 E16.47392
G1 X145.33 Y124.981 E16.50212
G1 X145.133 Y125.381 E16.52437
G1 X144.2 Y127.209 E16.62676
G1 X143.871 Y127.834 E16.662
G1 X143.593 Y128.315 E16.68971
G1 X143.299 Y128.779 E16.71712
G1 X142.204 Y130.465 E16.81742
G1 X141.822 Y131.033 E16.85157
G1 X141.483 Y131.497 E16.88024
G1 X141.224 Y131.826 E16.90113
G1 X139.962 Y133.386 E17.00123
G1 X139.459 Y133.988 E17.04037
G1 X139.097 Y134.39 E17.06736
G1 X138.795 Y134.701 E17.08899
G1 X137.306 Y136.188 E17.19398
G1 X136.825 Y136.656 E17.22746
G1 X136.406 Y137.033 E17.25558
G1 X136.034 Y137.342 E17.2797
G1 X134.44 Y138.632 E17.38201
G1 X133.895 Y139.06 E17.41658
G1 X133.431 Y139.394 E17.4451
G1 X133.026 Y139.664 E17.46939
G1 X131.377 Y140.734 E17.56746
G1 X130.753 Y141.128 E17.60428
G1 X130.25 Y141.418 E17.63324
G1 X129.828 Y141.64 E17.65703
G1 X128.035 Y142.553 E17.75741
G1 X127.393 Y142.87 E17.79314
G1 X126.901 Y143.09 E17.82002
G1 X126.421 Y143.281 E17.8458
G1 X124.473 Y144.027 E17.94987
G1 X123.862 Y144.251 E17.98233
G1 X123.345 Y144.419 E18.00945
G1 X122.92 Y144.539 E18.03149
G1 X120.9 Y145.079 E18.1358
G1 X120.212 Y145.252 E18.1712
G1 X119.577 Y145.384 E18.20355
G1 X119.156 Y145.454 E18.22485
G1 X117.211 Y145.761 E18.32308
G1 X116.485 Y145.865 E18.35967
G1 X115.986 Y145.919 E18.38471
G1 X115.471 Y145.953 E18.41046
G1 X113.414 Y146.06 E18.51323
G1 X112.736 Y146.086 E18.54708
G1 X112.169 Y146.085 E18.57536
G1 X111.729 Y146.068 E18.59733
G1 X109.649 Y145.959 E18.70125
G1 X108.962 Y145.913 E18.7356
G1 X108.405 Y145.853 E18.76355
G1 X107.895 Y145.778 E18.78927
G1 X105.924 Y145.466 E18.88882
G1 X105.202 Y145.341 E18.92538
G1 X104.659 Y145.224 E18.95309
G1 X104.261 Y145.123 E18.97358
G1 X102.212 Y144.573 E19.07942
G1 X101.554 Y144.386 E19.11355
G1 X101.039 Y144.218 E19.14058
G1 X100.589 Y144.053 E19.16449
G1 X98.623 Y143.297 E19.26957
G1 X98.035 Y143.061 E19.30118
G1 X97.519 Y142.83 E19.32939
G1 X97.119 Y142.633 E19.35163
G1 X95.288 Y141.699 E19.45418
G1 X94.662 Y141.369 E19.48949
G1 X94.193 Y141.098 E19.51651
G1 X93.765 Y140.828 E19.54176
G1 X92.035 Y139.704 E19.64468
G1 X91.467 Y139.322 E19.67883
G1 X91.003 Y138.983 E19.7075
G1 X90.674 Y138.724 E19.72839
G1 X89.114 Y137.462 E19.8285
G1 X88.512 Y136.959 E19.86764
G1 X88.11 Y136.597 E19.89463
G1 X87.799 Y136.295 E19.91626
G1 X86.311 Y134.805 E20.02131
G1 X85.843 Y134.324 E20.05479
G1 X85.465 Y133.903 E20.08302
G1 X85.158 Y133.534 E20.10697
G1 X83.868 Y131.94 E20.20927
G1 X83.44 Y131.395 E20.24385
G1 X83.106 Y130.931 E20.27237
G1 X82.836 Y130.526 E20.29665
G1 X81.766 Y128.877 E20.39472
G1 X81.372 Y128.253 E20.43154
G1 X81.082 Y127.75 E20.46051
G1 X80.86 Y127.328 E20.4843
G1 X79.947 Y125.535 E20.58468
G1 X79.63 Y124.893 E20.6204
G1 X79.41 Y124.401 E20.64729
G1 X79.219 Y123.921 E20.67306
G1 X78.473 Y121.973 E20.77713
G1 X78.249 Y121.362 E20.8096
G1 X78.081 Y120.845 E20.83672
G1 X77.961 Y120.42 E20.85875
G1 X77.421 Y118.4 E20.96307
G1 X77.248 Y117.712 E20.99846
G1 X77.116 Y117.077 E21.03082
G1 X77.046 Y116.656 E21.05211
G1 X76.739 Y114.711 E21.15035
G1 X76.635 Y113.985 E21.18694
G1 X76.581 Y113.486 E21.21198
G1 X76.547 Y112.971 E21.23773
G1 X76.44 Y110.912 E21.34059
G1 X76.414 Y110.228 E21.37474
G1 X76.415 Y109.667 E21.40273
G1 X76.432 Y109.229 E21.4246
G1 X76.542 Y107.145 E21.52871
G1 X76.589 Y106.45 E21.56347
G1 X76.647 Y105.905 E21.59081
G1 X76.722 Y105.395 E21.61653
G1 X77.034 Y103.422 E21.71619
G1 X77.159 Y102.702 E21.75264
G1 X77.265 Y102.2 E21.77824
G1 X77.319 Y101.981 E21.78949
G1 X77.927 Y99.709 E21.90683
G1 X78.114 Y99.052 E21.94091
G1 X78.275 Y98.557 E21.96688
G1 X78.447 Y98.089 E21.99176
G1 X79.201 Y96.128 E22.09657
G1 X79.432 Y95.551 E22.12758
G1 X79.677 Y95.005 E22.15744
G1 X79.866 Y94.621 E22.17879
G1 X80.803 Y92.785 E22.28163
G1 X81.133 Y92.16 E22.31689
G1 X81.395 Y91.706 E22.34304
G1 X81.672 Y91.265 E22.36902
G1 X82.743 Y89.615 E22.46716
G1 X83.182 Y88.962 E22.50642
G1 X83.52 Y88.499 E22.53502
G1 X83.776 Y88.174 E22.55566
G1 X85.038 Y86.614 E22.65577
G1 X85.541 Y86.012 E22.6949
G1 X85.903 Y85.61 E22.72189
G1 X86.205 Y85.299 E22.74352
M205 X10 Y10
G0 F6000 X86.488 Y85.582
M205 X8 Y8
G1 F1200 X87.973 Y84.098 E22.84826
G1 X88.454 Y83.63 E22.88174
G1 X88.856 Y83.269 E22.9087
G1 X89.218 Y82.969 E22.93215
G1 X90.807 Y81.683 E23.03414
G1 X91.352 Y81.255 E23.06871
G1 X91.797 Y80.934 E23.09609
