;FLAVOR:Marlin
;TIME:4311
;Filament used: 3.19947m
;Layer height: 0.2
;MINX:91.2
;MINY:83.2
;MINZ:0.3
;MAXX:133.8
;MAXY:136.8
;MAXZ:13.175
;Generated with Cura_SteamEngine 4.13.1
M140 S60
M105
M190 S60
M104 S200
M105
M109 S200
M82 ;absolute extrusion mode
G21                                        ; metric values
G90                                        ; absolute positioning
M82                                        ; set extruder to absolute mode
M107                                       ; start with the fan off
M190 S60                                   ; preheat and wait for bed
M109 S210                                  ; preheat and wait for hotend
M300 S1000 P500                            ; BEEP heating done
G28 X0 Y10 Z0                              ; move X/Y to min endstops
M420 S1                                    ; enable mesh leveling
G0 Z0.15                                   ; lift nozzle a bit
G0 X2                                      ; move away from clips
G92 E0                                     ; zero the extruded length
G1 Y50 E25 F500                            ; Extrude 25mm of filament in a 5cm line.
G92 E0                                     ; zero the extruded length again
G1 E-2 F500                                ; Retract a little
G1 Y120 F4000                              ; Quickly wipe away from the filament line
G92 E0
G92 E0
G1 F1500 E-6
;LAYER_COUNT:65
;LAYER:0
M106 S76.5
M205 X10 Y10
G1 F600 Z0.375
;MESH:prisma-schwenkfuss-bodenteil.stl
G0 F6000 X94 Y85 Z0.375
M205 X8 Y8
;TYPE:WALL-INNER
G1 F600 Z0.3
G1 F1500 E0
G1 F1200 X94 Y135 E2.49451
G1 X108 Y135 E3.19297
G1 X108 Y85 E5.68748
G1 X94 Y85 E6.38595
M205 X10 Y10
G0 F6000 X94.4 Y85.4
M205 X8 Y8
G1 F1200 X94.4 Y134.6 E8.84054
G1 X107.6 Y134.6 E9.49909
G1 X107.6 Y85.4 E11.95369
G1 X94.4 Y85.4 E12.61224
M205 X10 Y10
G0 F6000 X94.8 Y85.8
M205 X8 Y8
;TYPE:WALL-OUTER
G1 F1200 X94.8 Y134.2 E15.02693
G1 X107.2 Y134.2 E15.64557
G1 X107.2 Y85.8 E18.06025
G1 X94.8 Y85.8 E18.67889
M205 X10 Y10
G0 F6000 X94.8 Y86
G0 X94.36 Y86
G1 F1500 E12.67889
G1 F600 Z0.375
G0 F6000 X117 Y85 Z0.375
M205 X8 Y8
;TYPE:WALL-INNER
G1 F600 Z0.3
G1 F1500 E18.67889
G1 F1200 X117 Y135 E21.1734
G1 X131 Y135 E21.87186
G1 X131 Y85 E24.36637
G1 X117 Y85 E25.06484
M205 X10 Y10
G0 F6000 X117.4 Y85.4
M205 X8 Y8
G1 F1200 X117.4 Y134.6 E27.51944
G1 X130.6 Y134.6 E28.17799
G1 X130.6 Y85.4 E30.63258
G1 X117.4 Y85.4 E31.29114
M205 X10 Y10
G0 F6000 X117.8 Y85.8
M205 X8 Y8
;TYPE:WALL-OUTER
G1 F1200 X117.8 Y134.2 E33.70582
G1 X130.2 Y134.2 E34.32446
G1 X130.2 Y85.8 E36.73915
G1 X117.8 Y85.8 E37.35778
M205 X10 Y10
G0 F6000 X117.8 Y86
G0 X117.36 Y86
G1 F1500 E31.35778
G1 F600 Z0.375
G0 F6000 X133 Y136 Z0.375
M205 X8 Y8
;TYPE:WALL-INNER
G1 F600 Z0.3
G1 F1500 E37.35778
G1 F1200 X92 Y136 E39.40328
G1 X92 Y84 E41.99757
G1 X133 Y84 E44.04307
G1 X133 Y136 E46.63736
M205 X10 Y10
G0 F6000 X133.4 Y136.4
M205 X8 Y8
G1 F1200 X91.6 Y136.4 E48.72277
G1 X91.6 Y83.6 E51.35697
G1 X133.4 Y83.6 E53.44238
G1 X133.4 Y136.4 E56.07659
M205 X10 Y10
G0 F6000 X133.8 Y136.8
M205 X8 Y8
;TYPE:WALL-OUTER
G1 F1200 X91.2 Y136.8 E58.20191
G1 X91.2 Y83.2 E60.87603
G1 X133.8 Y83.2 E63.00135
G1 X133.8 Y136.8 E65.67546
M205 X10 Y10
G0 F6000 X133.6 Y136.8
G0 X133.36 Y136.36
G0 X132.61 Y135.61
M205 X8 Y8
;TYPE:SKIN
G1 F1200 X92.39 Y135.61 E67.68205
G1 X92.39 Y84.39 E70.23742
G1 X132.61 Y84.39 E72.24401
G1 X132.61 Y135.61 E74.79938
M205 X10 Y10
G0 F6000 X131.39 Y135.39
M205 X8 Y8
G1 F1200 X131.39 Y84.61 E77.33281
G1 X116.61 Y84.61 E78.07018
G1 X116.61 Y135.39 E80.60361
G1 X131.39 Y135.39 E81.34099
M205 X10 Y10
G1 F1500 E75.34099
G1 F600 Z0.375
G0 F6000 X108.39 Y135.39 Z0.375
M205 X8 Y8
G1 F600 Z0.3
G1 F1500 E81.34099
G1 F1200 X108.39 Y84.61 E83.87441
G1 X93.61 Y84.61 E84.61179
G1 X93.61 Y135.39 E87.14521
G1 X108.39 Y135.39 E87.88259
M205 X10 Y10
G1 F1500 E81.88259
G1 F600 Z0.375
G0 F6000 X93.002 Y135.429 Z0.375
M205 X8 Y8
G1 F600 Z0.3
G1 F1500 E87.88259
G1 F1200 X92.569 Y134.995 E87.91318
M205 X10 Y10
G0 F6000 X92.569 Y134.43
M205 X8 Y8
G1 F1200 X93.43 Y135.29 E87.97389
M205 X10 Y10
G0 F6000 X93.43 Y134.725
M205 X8 Y8
G1 F1200 X92.569 Y133.864 E88.03464
M205 X10 Y10
G0 F6000 X92.569 Y133.298
M205 X8 Y8
G1 F1200 X93.43 Y134.159 E88.09538
M205 X10 Y10
G0 F6000 X93.43 Y133.593
M205 X8 Y8
G1 F1200 X92.569 Y132.733 E88.1561
M205 X10 Y10
G0 F6000 X92.569 Y132.167
M205 X8 Y8
G1 F1200 X93.43 Y133.027 E88.21681
M205 X10 Y10
G0 F6000 X93.43 Y132.462
M205 X8 Y8
G1 F1200 X92.569 Y131.601 E88.27756
M205 X10 Y10
G0 F6000 X92.569 Y131.036
M205 X8 Y8
G1 F1200 X93.43 Y131.896 E88.33827
M205 X10 Y10
G0 F6000 X93.43 Y131.33
M205 X8 Y8
G1 F1200 X92.569 Y130.47 E88.39898
M205 X10 Y10
G0 F6000 X92.569 Y129.904
M205 X8 Y8
G1 F1200 X93.43 Y130.765 E88.45973
M205 X10 Y10
G0 F6000 X93.43 Y130.199
M205 X8 Y8
G1 F1200 X92.569 Y129.339 E88.52045
M205 X10 Y10
G0 F6000 X92.569 Y128.773
M205 X8 Y8
G1 F1200 X93.43 Y129.633 E88.58116
M205 X10 Y10
G0 F6000 X93.43 Y129.068
M205 X8 Y8
G1 F1200 X92.569 Y128.207 E88.64191
M205 X10 Y10
G0 F6000 X92.569 Y127.641
M205 X8 Y8
G1 F1200 X93.43 Y128.502 E88.70266
M205 X10 Y10
G0 F6000 X93.43 Y127.936
M205 X8 Y8
G1 F1200 X92.569 Y127.076 E88.76337
M205 X10 Y10
G0 F6000 X92.569 Y126.51
M205 X8 Y8
G1 F1200 X93.43 Y127.371 E88.82412
M205 X10 Y10
G0 F6000 X93.43 Y126.805
M205 X8 Y8
G1 F1200 X92.569 Y125.944 E88.88486
M205 X10 Y10
G0 F6000 X92.569 Y125.379
M205 X8 Y8
G1 F1200 X93.43 Y126.239 E88.94558
M205 X10 Y10
G0 F6000 X93.43 Y125.674
M205 X8 Y8
G1 F1200 X92.569 Y124.813 E89.00633
M205 X10 Y10
G0 F6000 X92.569 Y124.247
M205 X8 Y8
G1 F1200 X93.43 Y125.108 E89.06707
M205 X10 Y10
G0 F6000 X93.43 Y124.542
M205 X8 Y8
G1 F1200 X92.569 Y123.682 E89.12779
M205 X10 Y10
G0 F6000 X92.569 Y123.116
M205 X8 Y8
G1 F1200 X93.43 Y123.977 E89.18853
M205 X10 Y10
G0 F6000 X93.43 Y123.411
M205 X8 Y8
G1 F1200 X92.569 Y122.55 E89.24928
M205 X10 Y10
G0 F6000 X92.569 Y121.985
M205 X8 Y8
G1 F1200 X93.43 Y122.845 E89.31
M205 X10 Y10
G0 F6000 X93.43 Y122.279
M205 X8 Y8
G1 F1200 X92.569 Y121.419 E89.37071
M205 X10 Y10
G0 F6000 X92.569 Y120.853
M205 X8 Y8
G1 F1200 X93.43 Y121.714 E89.43146
M205 X10 Y10
G0 F6000 X93.43 Y121.148
M205 X8 Y8
G1 F1200 X92.569 Y120.288 E89.49217
M205 X10 Y10
G0 F6000 X92.569 Y119.722
M205 X8 Y8
G1 F1200 X93.43 Y120.582 E89.55288
M205 X10 Y10
G0 F6000 X93.43 Y120.017
M205 X8 Y8
G1 F1200 X92.569 Y119.156 E89.61363
M205 X10 Y10
G0 F6000 X92.569 Y118.59
M205 X8 Y8
G1 F1200 X93.43 Y119.451 E89.67438
M205 X10 Y10
G0 F6000 X93.43 Y118.885
M205 X8 Y8
G1 F1200 X92.569 Y118.025 E89.73509
M205 X10 Y10
G0 F6000 X92.569 Y117.459
M205 X8 Y8
G1 F1200 X93.43 Y118.32 E89.79584
M205 X10 Y10
G0 F6000 X93.43 Y117.754
M205 X8 Y8
G1 F1200 X92.569 Y116.893 E89.85659
M205 X10 Y10
G0 F6000 X92.569 Y116.328
M205 X8 Y8
G1 F1200 X93.43 Y117.188 E89.9173
M205 X10 Y10
G0 F6000 X93.43 Y116.623
M205 X8 Y8
G1 F1200 X92.569 Y115.762 E89.97805
M205 X10 Y10
G0 F6000 X92.569 Y115.196
M205 X8 Y8
G1 F1200 X93.43 Y116.057 E90.0388
M205 X10 Y10
G0 F6000 X93.43 Y115.491
M205 X8 Y8
G1 F1200 X92.569 Y114.631 E90.09951
M205 X10 Y10
G0 F6000 X92.569 Y114.065
M205 X8 Y8
G1 F1200 X93.43 Y114.926 E90.16026
M205 X10 Y10
G0 F6000 X93.43 Y114.36
M205 X8 Y8
G1 F1200 X92.569 Y113.499 E90.22101
M205 X10 Y10
G0 F6000 X92.569 Y112.934
M205 X8 Y8
G1 F1200 X93.43 Y113.794 E90.28172
M205 X10 Y10
G0 F6000 X93.43 Y113.229
M205 X8 Y8
G1 F1200 X92.569 Y112.368 E90.34247
M205 X10 Y10
G0 F6000 X92.569 Y111.802
M205 X8 Y8
G1 F1200 X93.43 Y112.663 E90.40322
M205 X10 Y10
G0 F6000 X93.43 Y112.097
M205 X8 Y8
G1 F1200 X92.569 Y111.237 E90.46393
M205 X10 Y10
G0 F6000 X92.569 Y110.671
M205 X8 Y8
G1 F1200 X93.43 Y111.531 E90.52464
M205 X10 Y10
G0 F6000 X93.43 Y110.966
M205 X8 Y8
G1 F1200 X92.569 Y110.105 E90.58539
M205 X10 Y10
G0 F6000 X92.568 Y109.539
M205 X8 Y8
G1 F1200 X93.43 Y110.4 E90.64617
M205 X10 Y10
G0 F6000 X93.43 Y109.834
M205 X8 Y8
G1 F1200 X92.568 Y108.973 E90.70696
M205 X10 Y10
G0 F6000 X92.568 Y108.407
M205 X8 Y8
G1 F1200 X93.43 Y109.269 E90.76778
M205 X10 Y10
G0 F6000 X93.43 Y108.703
M205 X8 Y8
G1 F1200 X92.568 Y107.842 E90.82856
M205 X10 Y10
G0 F6000 X92.568 Y107.276
M205 X8 Y8
G1 F1200 X93.43 Y108.137 E90.88934
M205 X10 Y10
G0 F6000 X93.43 Y107.572
M205 X8 Y8
G1 F1200 X92.568 Y106.71 E90.95016
M205 X10 Y10
G0 F6000 X92.568 Y106.145
M205 X8 Y8
G1 F1200 X93.43 Y107.006 E91.01095
M205 X10 Y10
G0 F6000 X93.43 Y106.44
M205 X8 Y8
G1 F1200 X92.568 Y105.579 E91.07173
M205 X10 Y10
G0 F6000 X92.568 Y105.013
M205 X8 Y8
G1 F1200 X93.43 Y105.875 E91.13255
M205 X10 Y10
G0 F6000 X93.43 Y105.309
M205 X8 Y8
G1 F1200 X92.568 Y104.448 E91.19333
M205 X10 Y10
G0 F6000 X92.568 Y103.882
M205 X8 Y8
G1 F1200 X93.43 Y104.743 E91.25412
M205 X10 Y10
G0 F6000 X93.43 Y104.178
M205 X8 Y8
G1 F1200 X92.568 Y103.316 E91.31493
M205 X10 Y10
G0 F6000 X92.568 Y102.751
M205 X8 Y8
G1 F1200 X93.43 Y103.612 E91.37572
M205 X10 Y10
G0 F6000 X93.43 Y103.046
M205 X8 Y8
G1 F1200 X92.568 Y102.185 E91.4365
M205 X10 Y10
G0 F6000 X92.568 Y101.619
M205 X8 Y8
G1 F1200 X93.43 Y102.48 E91.49728
M205 X10 Y10
G0 F6000 X93.43 Y101.915
M205 X8 Y8
G1 F1200 X92.568 Y101.054 E91.55807
M205 X10 Y10
G0 F6000 X92.568 Y100.488
M205 X8 Y8
G1 F1200 X93.43 Y101.349 E91.61885
M205 X10 Y10
G0 F6000 X93.43 Y100.783
M205 X8 Y8
G1 F1200 X92.568 Y99.922 E91.67963
M205 X10 Y10
G0 F6000 X92.568 Y99.356
M205 X8 Y8
G1 F1200 X93.43 Y100.218 E91.74045
M205 X10 Y10
G0 F6000 X93.43 Y99.652
M205 X8 Y8
G1 F1200 X92.568 Y98.791 E91.80124
M205 X10 Y10
G0 F6000 X92.568 Y98.225
M205 X8 Y8
G1 F1200 X93.43 Y99.086 E91.86202
M205 X10 Y10
G0 F6000 X93.43 Y98.521
M205 X8 Y8
G1 F1200 X92.568 Y97.659 E91.92284
M205 X10 Y10
G0 F6000 X92.568 Y97.094
M205 X8 Y8
G1 F1200 X93.43 Y97.955 E91.98362
M205 X10 Y10
G0 F6000 X93.43 Y97.389
M205 X8 Y8
G1 F1200 X92.568 Y96.528 E92.04441
M205 X10 Y10
G0 F6000 X92.568 Y95.962
M205 X8 Y8
G1 F1200 X93.43 Y96.824 E92.10522
M205 X10 Y10
G0 F6000 X93.43 Y96.258
M205 X8 Y8
G1 F1200 X92.568 Y95.397 E92.16601
M205 X10 Y10
G0 F6000 X92.568 Y94.831
M205 X8 Y8
G1 F1200 X93.43 Y95.692 E92.22679
M205 X10 Y10
G0 F6000 X93.43 Y95.127
M205 X8 Y8
G1 F1200 X92.568 Y94.265 E92.28761
M205 X10 Y10
G0 F6000 X92.568 Y93.7
M205 X8 Y8
G1 F1200 X93.43 Y94.561 E92.34839
M205 X10 Y10
G0 F6000 X93.43 Y93.995
M205 X8 Y8
G1 F1200 X92.568 Y93.134 E92.40918
M205 X10 Y10
G0 F6000 X92.568 Y92.568
M205 X8 Y8
G1 F1200 X93.43 Y93.43 E92.47
M205 X10 Y10
G0 F6000 X93.43 Y92.864
M205 X8 Y8
G1 F1200 X92.568 Y92.003 E92.53078
M205 X10 Y10
G0 F6000 X92.568 Y91.437
M205 X8 Y8
G1 F1200 X93.43 Y92.298 E92.59156
M205 X10 Y10
G0 F6000 X93.43 Y91.732
M205 X8 Y8
G1 F1200 X92.568 Y90.871 E92.65235
M205 X10 Y10
G0 F6000 X92.568 Y90.306
M205 X8 Y8
G1 F1200 X93.43 Y91.167 E92.71313
M205 X10 Y10
G0 F6000 X93.43 Y90.601
M205 X8 Y8
G1 F1200 X92.568 Y89.74 E92.77391
M205 X10 Y10
G0 F6000 X92.568 Y89.174
M205 X8 Y8
G1 F1200 X93.43 Y90.035 E92.8347
M205 X10 Y10
G0 F6000 X93.43 Y89.47
M205 X8 Y8
G1 F1200 X92.568 Y88.608 E92.89552
M205 X10 Y10
G0 F6000 X92.568 Y88.043
M205 X8 Y8
G1 F1200 X93.43 Y88.904 E92.9563
M205 X10 Y10
G0 F6000 X93.43 Y88.338
M205 X8 Y8
G1 F1200 X92.568 Y87.477 E93.01708
M205 X10 Y10
G0 F6000 X92.568 Y86.911
M205 X8 Y8
G1 F1200 X93.43 Y87.773 E93.0779
M205 X10 Y10
G0 F6000 X93.43 Y87.207
M205 X8 Y8
G1 F1200 X92.568 Y86.346 E93.13869
M205 X10 Y10
G0 F6000 X92.568 Y85.78
M205 X8 Y8
G1 F1200 X93.43 Y86.641 E93.19947
M205 X10 Y10
G0 F6000 X93.43 Y86.076
M205 X8 Y8
G1 F1200 X92.568 Y85.214 E93.26029
M205 X10 Y10
G0 F6000 X92.568 Y84.649
M205 X8 Y8
G1 F1200 X93.43 Y85.51 E93.32107
M205 X10 Y10
G0 F6000 X93.43 Y84.944
M205 X8 Y8
G1 F1200 X93.055 Y84.57 E93.34749
M205 X10 Y10
G1 F1500 E87.34749
G1 F600 Z0.375
G0 F6000 X108.569 Y84.81 Z0.375
M205 X8 Y8
G1 F600 Z0.3
G1 F1500 E93.34749
G1 F1200 X116.429 Y92.67 E93.90206
M205 X10 Y10
G0 F6000 X116.429 Y92.104
M205 X8 Y8
G1 F1200 X108.894 Y84.569 E94.43369
M205 X10 Y10
G0 F6000 X109.46 Y84.569
M205 X8 Y8
G1 F1200 X116.429 Y91.539 E94.92543
M205 X10 Y10
G0 F6000 X116.429 Y90.973
M205 X8 Y8
G1 F1200 X110.025 Y84.569 E95.37727
M205 X10 Y10
G0 F6000 X110.591 Y84.569
M205 X8 Y8
G1 F1200 X116.429 Y90.407 E95.78917
M205 X10 Y10
G0 F6000 X116.429 Y89.842
M205 X8 Y8
G1 F1200 X111.157 Y84.569 E96.16117
M205 X10 Y10
G0 F6000 X111.722 Y84.569
M205 X8 Y8
G1 F1200 X116.429 Y89.276 E96.49328
M205 X10 Y10
G0 F6000 X116.429 Y88.71
M205 X8 Y8
G1 F1200 X112.288 Y84.569 E96.78545
M205 X10 Y10
G0 F6000 X112.854 Y84.569
M205 X8 Y8
G1 F1200 X116.429 Y88.145 E97.03772
M205 X10 Y10
G0 F6000 X116.429 Y87.579
M205 X8 Y8
G1 F1200 X113.419 Y84.569 E97.25009
M205 X10 Y10
G0 F6000 X113.985 Y84.569
M205 X8 Y8
G1 F1200 X116.429 Y87.013 E97.42253
M205 X10 Y10
G0 F6000 X116.429 Y86.448
M205 X8 Y8
G1 F1200 X114.551 Y84.569 E97.55507
M205 X10 Y10
G0 F6000 X115.116 Y84.569
M205 X8 Y8
G1 F1200 X116.429 Y85.882 E97.6477
M205 X10 Y10
G0 F6000 X116.429 Y85.316
M205 X8 Y8
G1 F1200 X115.682 Y84.569 E97.70041
M205 X10 Y10
G0 F6000 X116.248 Y84.569
M205 X8 Y8
G1 F1200 X116.429 Y84.75 E97.71318
M205 X10 Y10
G1 F1500 E91.71318
G1 F600 Z0.375
G0 F6000 X108.569 Y85.376 Z0.375
M205 X8 Y8
G1 F600 Z0.3
G1 F1500 E97.71318
G1 F1200 X116.429 Y93.236 E98.26775
M205 X10 Y10
G0 F6000 X116.429 Y93.801
M205 X8 Y8
G1 F1200 X108.569 Y85.941 E98.82231
M205 X10 Y10
G0 F6000 X108.569 Y86.507
M205 X8 Y8
G1 F1200 X116.429 Y94.367 E99.37688
M205 X10 Y10
G0 F6000 X116.429 Y94.933
M205 X8 Y8
G1 F1200 X108.569 Y87.073 E99.93144
M205 X10 Y10
G0 F6000 X108.569 Y87.638
M205 X8 Y8
G1 F1200 X116.429 Y95.499 E100.48604
M205 X10 Y10
G0 F6000 X116.429 Y96.064
M205 X8 Y8
G1 F1200 X108.569 Y88.204 E101.04061
M205 X10 Y10
G0 F6000 X108.569 Y88.77
M205 X8 Y8
G1 F1200 X116.429 Y96.63 E101.59517
M205 X10 Y10
G0 F6000 X116.429 Y97.196
M205 X8 Y8
G1 F1200 X108.569 Y89.335 E102.14977
M205 X10 Y10
G0 F6000 X108.569 Y89.901
M205 X8 Y8
G1 F1200 X116.429 Y97.761 E102.70434
M205 X10 Y10
G0 F6000 X116.429 Y98.327
M205 X8 Y8
G1 F1200 X108.569 Y90.467 E103.25891
M205 X10 Y10
G0 F6000 X108.569 Y91.032
M205 X8 Y8
G1 F1200 X116.429 Y98.893 E103.81351
M205 X10 Y10
G0 F6000 X116.429 Y99.458
M205 X8 Y8
G1 F1200 X108.569 Y91.598 E104.36807
M205 X10 Y10
G0 F6000 X108.569 Y92.164
M205 X8 Y8
G1 F1200 X116.429 Y100.024 E104.92264
M205 X10 Y10
G0 F6000 X116.429 Y100.59
M205 X8 Y8
G1 F1200 X108.569 Y92.729 E105.47724
M205 X10 Y10
G0 F6000 X108.569 Y93.295
M205 X8 Y8
G1 F1200 X116.429 Y101.155 E106.0318
M205 X10 Y10
G0 F6000 X116.429 Y101.721
M205 X8 Y8
G1 F1200 X108.569 Y93.861 E106.58637
M205 X10 Y10
G0 F6000 X108.569 Y94.427
M205 X8 Y8
G1 F1200 X116.429 Y102.287 E107.14093
M205 X10 Y10
G0 F6000 X116.429 Y102.852
M205 X8 Y8
G1 F1200 X108.569 Y94.992 E107.6955
M205 X10 Y10
G0 F6000 X108.569 Y95.558
M205 X8 Y8
G1 F1200 X116.429 Y103.418 E108.25006
M205 X10 Y10
G0 F6000 X116.429 Y103.984
M205 X8 Y8
G1 F1200 X108.569 Y96.124 E108.80463
M205 X10 Y10
G0 F6000 X108.569 Y96.689
M205 X8 Y8
G1 F1200 X116.429 Y104.549 E109.3592
M205 X10 Y10
G0 F6000 X116.429 Y105.115
M205 X8 Y8
G1 F1200 X108.569 Y97.255 E109.91376
M205 X10 Y10
G0 F6000 X108.569 Y97.821
M205 X8 Y8
G1 F1200 X116.429 Y105.681 E110.46833
M205 X10 Y10
G0 F6000 X116.429 Y106.247
M205 X8 Y8
G1 F1200 X108.569 Y98.386 E111.02293
M205 X10 Y10
G0 F6000 X108.569 Y98.952
M205 X8 Y8
G1 F1200 X116.429 Y106.812 E111.57749
M205 X10 Y10
G0 F6000 X116.429 Y107.378
M205 X8 Y8
G1 F1200 X108.569 Y99.518 E112.13206
M205 X10 Y10
G0 F6000 X108.569 Y100.083
M205 X8 Y8
G1 F1200 X116.429 Y107.944 E112.68666
M205 X10 Y10
G0 F6000 X116.429 Y108.509
M205 X8 Y8
G1 F1200 X108.569 Y100.649 E113.24122
M205 X10 Y10
G0 F6000 X108.569 Y101.215
M205 X8 Y8
G1 F1200 X116.429 Y109.075 E113.79579
M205 X10 Y10
G0 F6000 X116.429 Y109.641
M205 X8 Y8
G1 F1200 X108.569 Y101.78 E114.35039
M205 X10 Y10
G0 F6000 X108.569 Y102.346
M205 X8 Y8
G1 F1200 X116.429 Y110.206 E114.90496
M205 X10 Y10
G0 F6000 X116.429 Y110.772
M205 X8 Y8
G1 F1200 X108.569 Y102.912 E115.45952
M205 X10 Y10
G0 F6000 X108.569 Y103.478
M205 X8 Y8
G1 F1200 X116.429 Y111.338 E116.01409
M205 X10 Y10
G0 F6000 X116.429 Y111.903
M205 X8 Y8
G1 F1200 X108.569 Y104.043 E116.56865
M205 X10 Y10
G0 F6000 X108.569 Y104.609
M205 X8 Y8
