;FLAVOR:Marlin
;TIME:1145
;Filament used: 0.791622m
;Layer height: 0.2
;MINX:99.7
;MINY:95.408
;MINZ:0.3
;MAXX:125.3
;MAXY:124.591
;MAXZ:6.175
;Generated with Cura_SteamEngine 4.13.1
M140 S60
M105
M190 S60
M104 S200
M105
M109 S200
M82 ;absolute extrusion mode
G21                                        ; metric values
G90                                        ; absolute positioning
M82                                        ; set extruder to absolute mode
M107                                       ; start with the fan off
M190 S60                                   ; preheat and wait for bed
M109 S210                                  ; preheat and wait for hotend
M300 S1000 P500                            ; BEEP heating done
G28 X0 Y10 Z0                              ; move X/Y to min endstops
M420 S1                                    ; enable mesh leveling
G0 Z0.15                                   ; lift nozzle a bit
G0 X2                                      ; move away from clips
G92 E0                                     ; zero the extruded length
G1 Y50 E25 F500                            ; Extrude 25mm of filament in a 5cm line.
G92 E0                                     ; zero the extruded length again
G1 E-2 F500                                ; Retract a little
G1 Y120 F4000                              ; Quickly wipe away from the filament line
G92 E0
G92 E0
G1 F1500 E-6
;LAYER_COUNT:30
;LAYER:0
M106 S76.5
M205 X10 Y10
G1 F600 Z0.375
;MESH:prisma-schwenkfuss-fassung.stl
G0 F6000 X108.398 Y112.99 Z0.375
M205 X8 Y8
;TYPE:WALL-INNER
G1 F600 Z0.3
G1 F1500 E0
G1 F1200 X109.125 Y113.169 E0.03735
G1 X109.875 Y113.169 E0.07477
G1 X110.602 Y112.99 E0.11212
G1 X111.265 Y112.643 E0.14946
G1 X111.827 Y112.144 E0.18695
G1 X112.251 Y111.528 E0.22426
G1 X112.517 Y110.829 E0.26158
G1 X112.607 Y110.084 E0.29901
G1 X112.517 Y109.34 E0.3364
G1 X112.251 Y108.641 E0.37372
G1 X111.827 Y108.025 E0.41102
G1 X111.265 Y107.526 E0.44852
G1 X110.602 Y107.179 E0.48585
G1 X109.875 Y107 E0.52321
G1 X109.125 Y107 E0.56062
G1 X108.398 Y107.179 E0.59798
G1 X107.735 Y107.526 E0.63531
G1 X107.173 Y108.025 E0.67281
G1 X106.749 Y108.641 E0.71012
G1 X106.483 Y109.34 E0.74743
G1 X106.393 Y110.084 E0.78482
G1 X106.483 Y110.829 E0.82226
G1 X106.749 Y111.528 E0.85957
G1 X107.173 Y112.144 E0.89688
G1 X107.735 Y112.643 E0.93437
G1 X108.398 Y112.99 E0.97171
M205 X10 Y10
G0 F6000 X108.541 Y112.613
M205 X8 Y8
G1 F1200 X109.174 Y112.769 E1.00423
G1 X109.826 Y112.769 E1.03676
G1 X110.459 Y112.613 E1.06929
G1 X111.036 Y112.311 E1.10178
G1 X111.525 Y111.877 E1.1344
G1 X111.894 Y111.341 E1.16686
G1 X112.126 Y110.732 E1.19938
G1 X112.204 Y110.084 E1.23194
G1 X112.126 Y109.437 E1.26445
G1 X111.894 Y108.828 E1.29696
G1 X111.525 Y108.292 E1.32943
G1 X111.036 Y107.858 E1.36205
G1 X110.459 Y107.556 E1.39454
G1 X109.826 Y107.4 E1.42706
G1 X109.174 Y107.4 E1.45959
G1 X108.541 Y107.556 E1.49212
G1 X107.964 Y107.858 E1.52461
G1 X107.475 Y108.292 E1.55723
G1 X107.106 Y108.828 E1.58969
G1 X106.874 Y109.437 E1.62221
G1 X106.796 Y110.084 E1.65472
G1 X106.874 Y110.732 E1.68728
G1 X107.106 Y111.341 E1.7198
G1 X107.475 Y111.877 E1.75226
G1 X107.964 Y112.311 E1.78488
G1 X108.541 Y112.613 E1.81737
M205 X10 Y10
G0 F6000 X108.684 Y112.236
M205 X8 Y8
;TYPE:WALL-OUTER
G1 F1200 X109.223 Y112.369 E1.84507
G1 X109.777 Y112.369 E1.87271
G1 X110.316 Y112.236 E1.9004
G1 X110.807 Y111.979 E1.92805
G1 X111.223 Y111.61 E1.9558
G1 X111.537 Y111.154 E1.98342
G1 X111.735 Y110.635 E2.01113
G1 X111.801 Y110.084 E2.03882
G1 X111.735 Y109.534 E2.06645
G1 X111.537 Y109.015 E2.09417
G1 X111.223 Y108.559 E2.12179
G1 X110.807 Y108.19 E2.14953
G1 X110.316 Y107.933 E2.17718
G1 X109.777 Y107.8 E2.20488
G1 X109.223 Y107.8 E2.23252
G1 X108.684 Y107.933 E2.26021
G1 X108.193 Y108.19 E2.28786
G1 X107.777 Y108.559 E2.31561
G1 X107.463 Y109.015 E2.34323
G1 X107.265 Y109.534 E2.37094
G1 X107.199 Y110.084 E2.39858
G1 X107.265 Y110.635 E2.42626
G1 X107.463 Y111.154 E2.45398
G1 X107.777 Y111.61 E2.4816
G1 X108.193 Y111.979 E2.50934
G1 X108.684 Y112.236 E2.53699
M205 X10 Y10
G0 F6000 X108.878 Y112.283
G0 X108.772 Y112.71
G1 F1500 E-3.46301
G1 F600 Z0.375
G0 F6000 X124.5 Y111.817 Z0.375
M205 X8 Y8
;TYPE:WALL-INNER
G1 F600 Z0.3
G1 F1500 E2.53699
G1 F1200 X103.974 Y123.669 E3.71949
G1 X100.5 Y121.662 E3.91965
G1 X100.5 Y98.166 E5.09187
G1 X103.679 Y96.33 E5.27502
G1 X124.5 Y108.352 E6.47451
G1 X124.5 Y111.817 E6.64738
M205 X10 Y10
G0 F6000 X124.9 Y112.048
M205 X8 Y8
G1 F1200 X103.974 Y124.13 E7.8529
G1 X100.1 Y121.893 E8.07608
G1 X100.1 Y97.936 E9.2713
G1 X103.679 Y95.869 E9.4775
G1 X124.9 Y108.121 E10.7
G1 X124.9 Y112.048 E10.89592
M205 X10 Y10
G0 F6000 X125.3 Y112.279
M205 X8 Y8
;TYPE:WALL-OUTER
G1 F1200 X103.974 Y124.591 E12.12446
G1 X99.7 Y122.124 E12.37066
G1 X99.7 Y97.705 E13.58893
G1 X103.679 Y95.408 E13.81815
G1 X125.3 Y107.89 E15.06368
G1 X125.3 Y112.279 E15.28264
M205 X10 Y10
G0 F6000 X125.127 Y112.379
G0 X124.86 Y111.997
G0 X124.11 Y111.592
M205 X8 Y8
;TYPE:SKIN
G1 F1200 X103.974 Y123.218 E16.44266
G1 X100.89 Y121.437 E16.62033
G1 X100.89 Y98.391 E17.7701
G1 X103.679 Y96.781 E17.93076
G1 X124.11 Y108.577 E19.10776
G1 X124.11 Y111.592 E19.25818
M205 X10 Y10
G1 F1500 E13.25818
G1 F600 Z0.375
G0 F6000 X112.899 Y110.923 Z0.375
M205 X8 Y8
G1 F600 Z0.3
G1 F1500 E19.25818
G1 F1200 X112.999 Y110.084 E19.30033
G1 X112.899 Y109.246 E19.34244
G1 X112.598 Y108.458 E19.38452
G1 X112.121 Y107.765 E19.4265
G1 X111.488 Y107.202 E19.46876
G1 X110.741 Y106.812 E19.5108
G1 X109.922 Y106.61 E19.55289
G1 X109.078 Y106.61 E19.59499
G1 X108.259 Y106.812 E19.63708
G1 X107.512 Y107.202 E19.67912
G1 X106.879 Y107.765 E19.72138
G1 X106.402 Y108.458 E19.76336
G1 X106.101 Y109.246 E19.80544
G1 X106.001 Y110.084 E19.84754
G1 X106.101 Y110.923 E19.8897
G1 X106.402 Y111.711 E19.93178
G1 X106.879 Y112.404 E19.97376
G1 X107.512 Y112.967 E20.01602
G1 X108.259 Y113.357 E20.05806
G1 X109.078 Y113.559 E20.10015
G1 X109.922 Y113.559 E20.14225
G1 X110.741 Y113.357 E20.18434
G1 X111.488 Y112.967 E20.22638
G1 X112.121 Y112.404 E20.26864
G1 X112.598 Y111.711 E20.31062
G1 X112.899 Y110.923 E20.3527
M205 X10 Y10
G1 F1500 E14.3527
G1 F600 Z0.375
G0 F6000 X123.929 Y109.221 Z0.375
M205 X8 Y8
G1 F600 Z0.3
G1 F1500 E20.3527
G1 F1200 X122.648 Y107.94 E20.44308
G1 X122.578 Y107.87
M205 X10 Y10
G0 F6000 X121.31 Y107.168
M205 X8 Y8
G1 F1200 X123.929 Y109.787 E20.62787
M205 X10 Y10
G0 F6000 X123.929 Y110.353
M205 X8 Y8
G1 F1200 X119.971 Y106.395 E20.90712
G1 X119.901 Y106.325
M205 X10 Y10
G0 F6000 X118.633 Y105.622
M205 X8 Y8
G1 F1200 X123.929 Y110.918 E21.28079
M205 X10 Y10
G0 F6000 X123.929 Y111.484
M205 X8 Y8
G1 F1200 X117.295 Y104.85 E21.74885
G1 X117.225 Y104.78
M205 X10 Y10
G0 F6000 X115.957 Y104.077
M205 X8 Y8
G1 F1200 X123.573 Y111.693 E22.2862
M205 X10 Y10
G0 F6000 X123.214 Y111.901
M205 X8 Y8
G1 F1200 X114.619 Y103.305 E22.89266
G1 X114.549 Y103.235
M205 X10 Y10
G0 F6000 X113.28 Y102.532
M205 X8 Y8
G1 F1200 X122.856 Y112.108 E23.5683
M205 X10 Y10
G0 F6000 X122.497 Y112.314
M205 X8 Y8
G1 F1200 X111.942 Y101.759 E24.31301
G1 X111.872 Y101.689
M205 X10 Y10
G0 F6000 X110.604 Y100.987
M205 X8 Y8
G1 F1200 X122.138 Y112.521 E25.1268
M205 X10 Y10
G0 F6000 X121.78 Y112.729
M205 X8 Y8
G1 F1200 X109.265 Y100.214 E26.0098
G1 X109.195 Y100.144
M205 X10 Y10
G0 F6000 X107.927 Y99.442
M205 X8 Y8
G1 F1200 X121.421 Y112.936 E26.96187
M205 X10 Y10
G0 F6000 X121.063 Y113.143
M205 X8 Y8
G1 F1200 X106.589 Y98.669 E27.98309
G1 X106.519 Y98.599
M205 X10 Y10
G0 F6000 X105.25 Y97.896
M205 X8 Y8
G1 F1200 X120.703 Y113.349 E29.07338
M205 X10 Y10
G0 F6000 X120.345 Y113.557
M205 X8 Y8
G1 F1200 X103.912 Y97.124 E30.23282
M205 X10 Y10
G0 F6000 X103.382 Y97.16
M205 X8 Y8
G1 F1200 X119.986 Y113.764 E31.40432
M205 X10 Y10
G0 F6000 X119.628 Y113.971
M205 X8 Y8
G1 F1200 X103.024 Y97.367 E32.57582
M205 X10 Y10
G0 F6000 X102.665 Y97.574
M205 X8 Y8
G1 F1200 X119.269 Y114.178 E33.74732
M205 X10 Y10
G0 F6000 X118.91 Y114.385
M205 X8 Y8
G1 F1200 X112.448 Y107.922 E34.20329
G1 X112.378 Y107.852
M205 X10 Y10
G0 F6000 X111.565 Y107.04
M205 X8 Y8
G1 F1200 X102.306 Y97.78 E34.8566
M205 X10 Y10
G0 F6000 X101.947 Y97.988
M205 X8 Y8
G1 F1200 X110.535 Y106.575 E35.46249
M205 X10 Y10
G0 F6000 X109.823 Y106.429
M205 X8 Y8
G1 F1200 X101.589 Y98.195 E36.04344
M205 X10 Y10
G0 F6000 X101.23 Y98.401
M205 X8 Y8
G1 F1200 X109.257 Y106.429 E36.60983
M205 X10 Y10
G0 F6000 X108.763 Y106.5
M205 X8 Y8
G1 F1200 X101.069 Y98.806 E37.15268
M205 X10 Y10
G0 F6000 X101.069 Y99.372
M205 X8 Y8
G1 F1200 X108.31 Y106.613 E37.66357
M205 X10 Y10
G0 F6000 X107.917 Y106.786
M205 X8 Y8
G1 F1200 X101.069 Y99.938 E38.14674
M205 X10 Y10
G0 F6000 X101.069 Y100.503
M205 X8 Y8
G1 F1200 X107.545 Y106.98 E38.60369
M205 X10 Y10
G0 F6000 X107.22 Y107.22
M205 X8 Y8
G1 F1200 X101.069 Y101.069 E39.03767
M205 X10 Y10
G0 F6000 X101.069 Y101.635
M205 X8 Y8
G1 F1200 X106.92 Y107.486 E39.45049
M205 X10 Y10
G0 F6000 X106.649 Y107.78
M205 X8 Y8
G1 F1200 X101.069 Y102.2 E39.84419
M205 X10 Y10
G0 F6000 X101.069 Y102.766
M205 X8 Y8
G1 F1200 X106.418 Y108.115 E40.22159
M205 X10 Y10
G0 F6000 X106.206 Y108.468
M205 X8 Y8
G1 F1200 X101.069 Y103.332 E40.584
M205 X10 Y10
G0 F6000 X101.069 Y103.898
M205 X8 Y8
G1 F1200 X106.049 Y108.878 E40.93537
M205 X10 Y10
G0 F6000 X105.912 Y109.306
M205 X8 Y8
G1 F1200 X101.069 Y104.463 E41.27707
M205 X10 Y10
G0 F6000 X101.069 Y105.029
M205 X8 Y8
G1 F1200 X105.852 Y109.812 E41.61453
M205 X10 Y10
G0 F6000 X105.855 Y110.38
M205 X8 Y8
G1 F1200 X101.069 Y105.595 E41.95218
M205 X10 Y10
G0 F6000 X101.069 Y106.16
M205 X8 Y8
G1 F1200 X105.956 Y111.047 E42.29698
G1 X106.026 Y111.117
M205 X10 Y10
G0 F6000 X106.471 Y112.128
M205 X8 Y8
G1 F1200 X101.069 Y106.726 E42.67812
M205 X10 Y10
G0 F6000 X101.069 Y107.292
M205 X8 Y8
G1 F1200 X112.096 Y118.319 E43.45614
M205 X10 Y10
G0 F6000 X111.737 Y118.525
M205 X8 Y8
G1 F1200 X101.069 Y107.857 E44.20882
M205 X10 Y10
G0 F6000 X101.069 Y108.423
M205 X8 Y8
G1 F1200 X111.379 Y118.733 E44.93625
M205 X10 Y10
G0 F6000 X111.02 Y118.94
M205 X8 Y8
G1 F1200 X101.069 Y108.989 E45.63834
M205 X10 Y10
G0 F6000 X101.069 Y109.554
M205 X8 Y8
G1 F1200 X110.662 Y119.147 E46.31518
M205 X10 Y10
G0 F6000 X110.303 Y119.354
M205 X8 Y8
G1 F1200 X101.069 Y110.12 E46.96669
M205 X10 Y10
G0 F6000 X101.069 Y110.686
M205 X8 Y8
G1 F1200 X109.944 Y119.561 E47.59287
M205 X10 Y10
G0 F6000 X109.585 Y119.768
M205 X8 Y8
G1 F1200 X101.069 Y111.251 E48.19375
M205 X10 Y10
G0 F6000 X101.069 Y111.817
M205 X8 Y8
G1 F1200 X109.227 Y119.975 E48.76935
M205 X10 Y10
G0 F6000 X108.868 Y120.182
M205 X8 Y8
G1 F1200 X101.069 Y112.383 E49.31961
M205 X10 Y10
G0 F6000 X101.069 Y112.948
M205 X8 Y8
G1 F1200 X108.51 Y120.389 E49.84461
M205 X10 Y10
G0 F6000 X108.151 Y120.596
M205 X8 Y8
G1 F1200 X101.069 Y113.514 E50.34428
M205 X10 Y10
G0 F6000 X101.069 Y114.08
M205 X8 Y8
G1 F1200 X107.792 Y120.803 E50.81863
M205 X10 Y10
G0 F6000 X107.434 Y121.01
M205 X8 Y8
G1 F1200 X101.069 Y114.646 E51.26768
M205 X10 Y10
G0 F6000 X101.069 Y115.211
M205 X8 Y8
G1 F1200 X107.075 Y121.217 E51.69143
M205 X10 Y10
G0 F6000 X106.717 Y121.425
M205 X8 Y8
G1 F1200 X101.069 Y115.777 E52.08993
M205 X10 Y10
G0 F6000 X101.069 Y116.343
M205 X8 Y8
G1 F1200 X106.358 Y121.631 E52.46306
M205 X10 Y10
G0 F6000 X105.999 Y121.838
M205 X8 Y8
G1 F1200 X101.069 Y116.908 E52.8109
M205 X10 Y10
G0 F6000 X101.069 Y117.474
M205 X8 Y8
G1 F1200 X105.641 Y122.045 E53.13344
M205 X10 Y10
G0 F6000 X105.282 Y122.253
M205 X8 Y8
G1 F1200 X101.069 Y118.04 E53.43069
M205 X10 Y10
G0 F6000 X101.069 Y118.605
M205 X8 Y8
G1 F1200 X104.924 Y122.46 E53.70269
M205 X10 Y10
G0 F6000 X104.564 Y122.666
M205 X8 Y8
G1 F1200 X101.069 Y119.171 E53.94928
M205 X10 Y10
G0 F6000 X101.069 Y119.737
M205 X8 Y8
G1 F1200 X104.206 Y122.873 E54.17057
M205 X10 Y10
G0 F6000 X103.504 Y122.738
M205 X8 Y8
G1 F1200 X101.069 Y120.302 E54.34241
M205 X10 Y10
G0 F6000 X101.069 Y120.868
M205 X8 Y8
G1 F1200 X102.167 Y121.966 E54.41988
G1 X102.237 Y122.036
M205 X10 Y10
G1 F1500 E48.41988
G1 F600 Z0.375
G0 F6000 X107.512 Y113.169 Z0.375
M205 X8 Y8
G1 F600 Z0.3
G1 F1500 E54.41988
G1 F1200 X112.455 Y118.112 E54.76864
M205 X10 Y10
G0 F6000 X112.813 Y117.905
M205 X8 Y8
G1 F1200 X108.513 Y113.604 E55.07206
M205 X10 Y10
G0 F6000 X109.213 Y113.738
M205 X8 Y8
G1 F1200 X113.172 Y117.697 E55.35139
M205 X10 Y10
G0 F6000 X113.53 Y117.49
M205 X8 Y8
G1 F1200 X109.779 Y113.738 E55.61608
M205 X10 Y10
G0 F6000 X110.265 Y113.659
M205 X8 Y8
G1 F1200 X113.89 Y117.284 E55.87184
M205 X10 Y10
G0 F6000 X114.248 Y117.077
M205 X8 Y8
G1 F1200 X110.719 Y113.547 E56.12087
M205 X10 Y10
G0 F6000 X111.106 Y113.369
M205 X8 Y8
G1 F1200 X114.607 Y116.869 E56.36785
M205 X10 Y10
G0 F6000 X114.965 Y116.662
M205 X8 Y8
G1 F1200 X111.477 Y113.174 E56.61394
M205 X10 Y10
G0 F6000 X111.799 Y112.93
M205 X8 Y8
G1 F1200 X115.324 Y116.455 E56.86265
M205 X10 Y10
G0 F6000 X115.683 Y116.249
M205 X8 Y8
G1 F1200 X112.099 Y112.664 E57.11556
M205 X10 Y10
G0 F6000 X112.365 Y112.365
M205 X8 Y8
G1 F1200 X116.041 Y116.041 E57.37492
M205 X10 Y10
G0 F6000 X116.4 Y115.834
M205 X8 Y8
G1 F1200 X112.596 Y112.03 E57.64331
M205 X10 Y10
G0 F6000 X112.804 Y111.672
M205 X8 Y8
G1 F1200 X116.758 Y115.627 E57.92232
M205 X10 Y10
G0 F6000 X117.117 Y115.42
M205 X8 Y8
G1 F1200 X112.96 Y111.263 E58.21562
M205 X10 Y10
G0 F6000 X113.091 Y110.828
M205 X8 Y8
G1 F1200 X117.476 Y115.213 E58.52501
M205 X10 Y10
G0 F6000 X117.835 Y115.006
M205 X8 Y8
G1 F1200 X113.15 Y110.322 E58.85552
M205 X10 Y10
G0 F6000 X113.139 Y109.745
M205 X8 Y8
G1 F1200 X118.193 Y114.799 E59.21211
M205 X10 Y10
G0 F6000 X118.552 Y114.592
M205 X8 Y8
G1 F1200 X113.019 Y109.059 E59.60249
G1 X112.949 Y108.989
M205 X10 Y10
G1 F1500 E53.60249
G1 F600 Z0.375
;MESH:NONMESH
G0 F6000 X108.398 Y112.99 Z0.375
;TIME_ELAPSED:66.614520
;LAYER:1
M106 S127.5
;MESH:prisma-schwenkfuss-fassung.stl
G0 X108.398 Y112.99 Z0.575
M205 X8 Y8
;TYPE:WALL-INNER
G1 F600 Z0.5
G1 F1500 E59.60249
G1 F1350 X109.125 Y113.169 E59.62739
G1 X109.875 Y113.169 E59.65234
G1 X110.602 Y112.99 E59.67724
G1 X111.265 Y112.643 E59.70213
G1 X111.827 Y112.144 E59.72713
G1 X112.251 Y111.528 E59.752
G1 X112.517 Y110.829 E59.77688
G1 X112.607 Y110.084 E59.80184
G1 X112.517 Y109.34 E59.82676
G1 X112.251 Y108.641 E59.85164
G1 X111.827 Y108.025 E59.87651
G1 X111.265 Y107.526 E59.90151
G1 X110.602 Y107.179 E59.9264
G1 X109.875 Y107 E59.9513
G1 X109.125 Y107 E59.97624
G1 X108.398 Y107.179 E60.00114
G1 X107.735 Y107.526 E60.02603
G1 X107.173 Y108.025 E60.05103
G1 X106.749 Y108.641 E60.0759
G1 X106.483 Y109.34 E60.10078
G1 X106.393 Y110.084 E60.1257
G1 X106.483 Y110.829 E60.15066
G1 X106.749 Y111.528 E60.17554
G1 X107.173 Y112.144 E60.20041
G1 X107.735 Y112.643 E60.22541
G1 X108.398 Y112.99 E60.2503
M205 X10 Y10
G0 F6000 X108.541 Y112.613
M205 X8 Y8
G1 F1350 X109.174 Y112.769 E60.27198
G1 X109.826 Y112.769 E60.29367
G1 X110.459 Y112.613 E60.31535
G1 X111.036 Y112.311 E60.33701
G1 X111.525 Y111.877 E60.35876
G1 X111.894 Y111.341 E60.3804
G1 X112.126 Y110.732 E60.40208
G1 X112.204 Y110.084 E60.42378
G1 X112.126 Y109.437 E60.44546
G1 X111.894 Y108.828 E60.46714
G1 X111.525 Y108.292 E60.48878
G1 X111.036 Y107.858 E60.51052
G1 X110.459 Y107.556 E60.53219
G1 X109.826 Y107.4 E60.55387
G1 X109.174 Y107.4 E60.57555
G1 X108.541 Y107.556 E60.59724
G1 X107.964 Y107.858 E60.6189
G1 X107.475 Y108.292 E60.64065
G1 X107.106 Y108.828 E60.66229
G1 X106.874 Y109.437 E60.68396
G1 X106.796 Y110.084 E60.70564
G1 X106.874 Y110.732 E60.72735
G1 X107.106 Y111.341 E60.74902
G1 X107.475 Y111.877 E60.77067
G1 X107.964 Y112.311 E60.79241
G1 X108.541 Y112.613 E60.81407
M205 X10 Y10
G0 F6000 X108.684 Y112.236
M205 X8 Y8
;TYPE:WALL-OUTER
G1 F1350 X109.223 Y112.369 E60.83254
G1 X109.777 Y112.369 E60.85096
G1 X110.316 Y112.236 E60.86943
G1 X110.807 Y111.979 E60.88786
G1 X111.223 Y111.61 E60.90636
G1 X111.537 Y111.154 E60.92477
G1 X111.735 Y110.635 E60.94325
G1 X111.801 Y110.084 E60.9617
G1 X111.735 Y109.534 E60.98013
G1 X111.537 Y109.015 E60.9986
G1 X111.223 Y108.559 E61.01702
G1 X110.807 Y108.19 E61.03551
G1 X110.316 Y107.933 E61.05395
G1 X109.777 Y107.8 E61.07241
G1 X109.223 Y107.8 E61.09084
G1 X108.684 Y107.933 E61.1093
