;FLAVOR:Marlin
;TIME:2188
;Filament used: 1.51018m
;Layer height: 0.2
;MINX:60.7
;MINY:78.207
;MINZ:0.3
;MAXX:164.3
;MAXY:141.793
;MAXZ:5.175
;Generated with Cura_SteamEngine 4.13.1
M140 S60
M105
M190 S60
M104 S200
M105
M109 S200
M82 ;absolute extrusion mode
G21                                        ; metric values
G90                                        ; absolute positioning
M82                                        ; set extruder to absolute mode
M107                                       ; start with the fan off
M190 S60                                   ; preheat and wait for bed
M109 S210                                  ; preheat and wait for hotend
M300 S1000 P500                            ; BEEP heating done
G28 X0 Y10 Z0                              ; move X/Y to min endstops
M420 S1                                    ; enable mesh leveling
G0 Z0.15                                   ; lift nozzle a bit
G0 X2                                      ; move away from clips
G92 E0                                     ; zero the extruded length
G1 Y50 E25 F500                            ; Extrude 25mm of filament in a 5cm line.
G92 E0                                     ; zero the extruded length again
G1 E-2 F500                                ; Retract a little
G1 Y120 F4000                              ; Quickly wipe away from the filament line
G92 E0
G92 E0
G1 F1500 E-6
;LAYER_COUNT:25
;LAYER:0
M106 S76.5
M205 X10 Y10
G1 F600 Z0.375
G0 F6000 X67.165 Y138.676 Z0.375
M205 X8 Y8
;TYPE:SUPPORT-INTERFACE
G1 F600 Z0.3
G1 F1500 E0
G1 F1200 X67.516 Y138.568 E0.01832
G1 X67.641 Y138.636 E0.02542
G1 X67.646 Y138.869 E0.03705
G1 X67.408 Y139.284 E0.06092
G1 X66.997 Y139.63 E0.08772
G1 X66.646 Y139.738 E0.10604
G1 X66.521 Y139.67 E0.11314
G1 X66.516 Y139.437 E0.12477
G1 X66.754 Y139.022 E0.14863
G1 X67.165 Y138.676 E0.17544
M205 X10 Y10
G1 F1500 E-5.82456
G1 F600 Z0.375
G0 F6000 X66.604 Y140.244 Z0.375
M205 X8 Y8
G1 F600 Z0.3
G1 F1500 E0.17544
G1 F1200 X66.955 Y140.136 E0.19376
G1 X67.08 Y140.204 E0.20086
G1 X67.083 Y140.34 E0.20765
G1 X67.671 Y140.417 E0.23723
G1 X68.073 Y140.732 E0.26271
G1 X68.265 Y141.168 E0.28648
G1 X68.193 Y141.521 E0.30445
G1 X67.925 Y141.698 E0.32048
G1 X67.509 Y141.643 E0.34141
G1 X67.107 Y141.328 E0.36689
G1 X66.885 Y140.821 E0.3945
G1 X66.436 Y141.198 E0.42375
G1 X66.085 Y141.306 E0.44208
G1 X65.96 Y141.238 E0.44918
G1 X65.955 Y141.005 E0.4608
G1 X66.193 Y140.59 E0.48467
G1 X66.604 Y140.244 E0.51147
M205 X10 Y10
G1 F1500 E-5.48853
G1 F600 Z0.375
G0 F6000 X69.533 Y140.38 Z0.375
M205 X8 Y8
G1 F600 Z0.3
G1 F1500 E0.51147
G1 F1200 X69.884 Y140.272 E0.52979
G1 X70.009 Y140.34 E0.53689
G1 X70.014 Y140.573 E0.54852
G1 X69.776 Y140.988 E0.57239
G1 X69.365 Y141.334 E0.59919
G1 X69.014 Y141.442 E0.61751
G1 X68.889 Y141.374 E0.62461
G1 X68.884 Y141.141 E0.63624
G1 X69.122 Y140.726 E0.66011
G1 X69.533 Y140.38 E0.68691
M205 X10 Y10
G1 F1500 E-5.31309
G1 F600 Z0.375
G0 F6000 X69.355 Y138.208 Z0.375
M205 X8 Y8
G1 F600 Z0.3
G1 F1500 E0.68691
G1 F1200 X69.771 Y138.263 E0.70785
G1 X70.173 Y138.577 E0.7333
G1 X70.313 Y138.9 E0.75086
G1 X70.551 Y138.699 E0.7664
G1 X70.902 Y138.591 E0.78472
G1 X71.027 Y138.659 E0.79182
G1 X71.032 Y138.892 E0.80345
G1 X70.794 Y139.307 E0.82732
G1 X70.383 Y139.653 E0.85412
G1 X70.032 Y139.761 E0.87244
G1 X69.908 Y139.694 E0.87947
G1 X69.905 Y139.529 E0.88771
G1 X69.609 Y139.489 E0.90261
G1 X69.207 Y139.174 E0.92809
G1 X69.015 Y138.738 E0.95186
G1 X69.087 Y138.385 E0.96983
G1 X69.355 Y138.208 E0.98585
M205 X10 Y10
G1 F1500 E-5.01415
G1 F600 Z0.375
G0 F6000 X153.682 Y138.264 Z0.375
M205 X8 Y8
G1 F600 Z0.3
G1 F1500 E0.98585
G1 F1200 X153.95 Y138.087 E1.00188
G1 X154.366 Y138.142 E1.02281
G1 X154.768 Y138.457 E1.04829
G1 X155.049 Y139.1 E1.0833
G1 X155.491 Y138.727 E1.11215
G1 X155.842 Y138.619 E1.13048
G1 X155.967 Y138.687 E1.13757
G1 X155.972 Y138.92 E1.1492
G1 X155.734 Y139.335 E1.17307
G1 X155.323 Y139.681 E1.19987
G1 X154.972 Y139.789 E1.21819
G1 X154.847 Y139.721 E1.22529
G1 X154.841 Y139.452 E1.23872
G1 X154.204 Y139.368 E1.27077
G1 X153.802 Y139.053 E1.29625
G1 X153.61 Y138.617 E1.32002
G1 X153.682 Y138.264 E1.33799
M205 X10 Y10
G1 F1500 E-4.66201
G1 F600 Z0.375
G0 F6000 X154.577 Y140.704 Z0.375
M205 X8 Y8
G1 F600 Z0.3
G1 F1500 E1.33799
G1 F1200 X154.988 Y140.358 E1.3648
G1 X155.34 Y140.25 E1.38317
G1 X155.457 Y140.314 E1.38982
G1 X155.525 Y140.27 E1.39386
G1 X155.941 Y140.325 E1.4148
G1 X156.549 Y140.802 E1.45335
G1 X156.729 Y140.487 E1.47145
G1 X157.14 Y140.141 E1.49825
G1 X157.4 Y140.061 E1.51183
G1 X157.426 Y139.797 E1.52506
G1 X157.218 Y139.683 E1.53689
G1 X157.213 Y139.45 E1.54852
G1 X157.451 Y139.035 E1.57239
G1 X157.862 Y138.689 E1.59919
G1 X158.214 Y138.581 E1.61756
G1 X158.547 Y138.763 E1.63649
G1 X158.619 Y138.691 E1.64157
G1 X158.963 Y138.585 E1.65953
G1 X159.088 Y138.653 E1.66663
G1 X159.093 Y138.886 E1.67826
G1 X158.855 Y139.301 E1.70213
G1 X158.444 Y139.647 E1.72893
G1 X158.092 Y139.755 E1.7473
G1 X157.759 Y139.573 E1.76623
G1 X157.687 Y139.645 E1.77131
G1 X157.434 Y139.723 E1.78452
G1 X157.408 Y139.987 E1.79776
G1 X157.616 Y140.101 E1.80959
G1 X157.623 Y140.43 E1.82601
G1 X158.11 Y140.811 E1.85686
G1 X158.302 Y141.247 E1.88062
G1 X158.23 Y141.6 E1.8986
G1 X157.962 Y141.777 E1.91462
G1 X157.546 Y141.722 E1.93556
G1 X157.144 Y141.408 E1.961
G1 X157.002 Y141.085 E1.97861
G1 X156.501 Y141.24 E2.00477
G1 X156.463 Y141.429 E2.01439
G1 X156.195 Y141.606 E2.03041
G1 X155.779 Y141.551 E2.05135
G1 X155.377 Y141.237 E2.0768
G1 X155.25 Y140.949 E2.0925
G1 X154.82 Y141.312 E2.12057
G1 X154.469 Y141.42 E2.1389
G1 X154.344 Y141.352 E2.146
G1 X154.339 Y141.119 E2.15762
G1 X154.577 Y140.704 E2.18149
M205 X10 Y10
G0 F6000 X154.613 Y141.037
M205 X8 Y8
G1 F1200 X154.712 Y141.135 E2.18844
M205 X10 Y10
G1 F1500 E-3.81156
G1 F600 Z0.375
G0 F6000 X157.358 Y141.323 Z0.375
M205 X8 Y8
G1 F600 Z0.3
G1 F1500 E2.18844
G1 F1200 X157.833 Y140.848 E2.22195
G1 X157.77 Y140.799
G1 X157.976 Y141.006 E2.23652
M205 X10 Y10
G0 F6000 X157.423 Y140.452
M205 X8 Y8
G1 F1200 X157.278 Y140.307 E2.24675
M205 X10 Y10
G1 F1500 E-3.75325
G1 F600 Z0.375
G0 F6000 X69.679 Y140.755 Z0.375
M205 X8 Y8
G1 F600 Z0.3
G1 F1500 E2.24675
G1 F1200 X69.355 Y141.079 E2.26961
M205 X10 Y10
G0 F6000 X69.598 Y140.874
M205 X8 Y8
G1 F1200 X69.442 Y140.718 E2.28062
M205 X10 Y10
G1 F1500 E-3.71938
G1 F600 Z0.375
G0 F6000 X66.342 Y141.013 Z0.375
M205 X8 Y8
G1 F600 Z0.3
G1 F1500 E2.28062
G1 F1200 X66.238 Y140.909 E2.28796
M205 X10 Y10
G1 F1500 E-3.71204
G1 F600 Z0.375
;MESH:prisma-schwenkfuss-halbring.stl
G0 F6000 X112.352 Y80.975 Z0.375
M205 X8 Y8
;TYPE:WALL-INNER
G1 F600 Z0.3
G1 F1500 E2.28796
G1 F1200 X110.101 Y81.051 E2.40033
G1 X107.697 Y81.229 E2.52059
G1 X105.31 Y81.522 E2.64057
G1 X102.941 Y81.935 E2.76054
G1 X100.594 Y82.461 E2.88054
G1 X98.276 Y83.103 E3.00054
G1 X95.992 Y83.857 E3.12054
G1 X93.748 Y84.722 E3.24052
G1 X91.549 Y85.696 E3.36051
G1 X89.401 Y86.779 E3.48052
G1 X87.308 Y87.964 E3.60052
G1 X85.278 Y89.25 E3.72041
G1 X83.311 Y90.636 E3.84046
G1 X81.414 Y92.115 E3.96046
G1 X79.593 Y93.687 E4.08048
G1 X77.852 Y95.345 E4.20043
G1 X76.194 Y97.086 E4.32037
G1 X74.622 Y98.907 E4.44039
G1 X73.143 Y100.804 E4.5604
G1 X71.757 Y102.77 E4.68041
G1 X70.471 Y104.801 E4.80034
G1 X69.286 Y106.894 E4.92033
G1 X68.203 Y109.042 E5.04035
G1 X67.229 Y111.241 E5.16034
G1 X66.364 Y113.485 E5.28032
G1 X65.61 Y115.769 E5.40032
G1 X64.968 Y118.087 E5.52032
G1 X64.442 Y120.433 E5.64026
G1 X64.029 Y122.803 E5.76029
G1 X63.736 Y125.19 E5.88027
G1 X63.558 Y127.588 E6.00023
G1 X63.5 Y129.981 E6.11966
G1 X63.5 Y140.993 E6.66905
G1 X62.5 Y140.993 E6.71894
G1 X62.5 Y140.057 E6.76563
G1 X62.049 Y137.455 E6.89738
G1 X61.737 Y134.918 E7.02491
G1 X61.557 Y132.394 E7.15115
G1 X61.5 Y129.872 E7.27701
G1 X61.57 Y127.323 E7.40422
G1 X61.765 Y124.799 E7.53052
G1 X62.087 Y122.28 E7.65722
G1 X62.542 Y119.74 E7.78596
G1 X63.117 Y117.254 E7.91326
G1 X63.803 Y114.839 E8.03851
G1 X64.625 Y112.416 E8.16616
G1 X65.56 Y110.052 E8.29299
G1 X66.595 Y107.774 E8.41782
G1 X67.782 Y105.472 E8.54704
G1 X69.033 Y103.319 E8.67127
G1 X70.443 Y101.146 E8.8005
G1 X71.9 Y99.126 E8.92476
G1 X73.514 Y97.113 E9.05348
G1 X75.18 Y95.234 E9.17877
G1 X76.979 Y93.398 E9.30701
G1 X78.824 Y91.694 E9.43231
G1 X80.795 Y90.046 E9.56049
G1 X82.799 Y88.534 E9.68573
G1 X84.909 Y87.102 E9.81295
G1 X87.082 Y85.779 E9.93988
G1 X89.328 Y84.562 E10.06732
G1 X91.612 Y83.468 E10.19367
G1 X93.966 Y82.48 E10.32104
G1 X96.353 Y81.616 E10.44769
G1 X98.745 Y80.883 E10.5725
G1 X101.248 Y80.25 E10.70131
G1 X103.699 Y79.759 E10.82602
G1 X106.261 Y79.376 E10.95526
G1 X108.739 Y79.132 E11.07948
G1 X111.325 Y79.007 E11.20865
G1 X113.855 Y79.011 E11.33487
G1 X116.366 Y79.14 E11.46031
G1 X118.924 Y79.399 E11.58858
G1 X121.405 Y79.776 E11.71378
G1 X123.889 Y80.283 E11.84026
G1 X126.395 Y80.923 E11.9693
G1 X128.774 Y81.659 E12.09354
G1 X131.207 Y82.548 E12.22277
G1 X133.515 Y83.523 E12.34777
G1 X135.799 Y84.627 E12.47433
G1 X138.051 Y85.856 E12.60233
G1 X140.212 Y87.18 E12.72877
G1 X142.294 Y88.601 E12.85453
G1 X144.341 Y90.155 E12.98275
G1 X146.258 Y91.764 E13.10761
G1 X148.125 Y93.499 E13.23476
G1 X149.926 Y95.348 E13.36354
G1 X151.573 Y97.216 E13.48779
G1 X153.171 Y99.222 E13.61574
G1 X154.64 Y101.266 E13.74132
G1 X156.018 Y103.4 E13.86805
G1 X157.307 Y105.635 E13.99677
G1 X158.451 Y107.869 E14.12199
G1 X159.508 Y110.213 E14.25027
G1 X160.422 Y112.541 E14.37505
G1 X161.231 Y114.949 E14.50178
G1 X161.922 Y117.405 E14.62907
G1 X162.494 Y119.911 E14.75731
G1 X162.929 Y122.385 E14.88263
G1 X163.247 Y124.915 E15.00985
G1 X163.435 Y127.428 E15.13557
G1 X163.5 Y130.008 E15.26433
G1 X163.437 Y132.502 E15.38879
G1 X163.254 Y134.993 E15.51341
G1 X162.946 Y137.492 E15.63903
G1 X162.5 Y140.057 E15.76891
G1 X162.5 Y140.993 E15.81561
G1 X161.5 Y140.993 E15.8655
G1 X161.5 Y129.981 E16.41489
G1 X161.442 Y127.588 E16.53431
G1 X161.264 Y125.19 E16.65428
G1 X160.97 Y122.803 E16.77427
G1 X160.558 Y120.433 E16.89428
G1 X160.031 Y118.087 E17.01424
G1 X159.39 Y115.769 E17.13423
G1 X158.636 Y113.485 E17.25422
G1 X157.771 Y111.241 E17.37421
G1 X156.796 Y109.042 E17.49422
G1 X155.714 Y106.894 E17.61421
G1 X154.529 Y104.801 E17.7342
G1 X153.242 Y102.77 E17.85416
G1 X151.857 Y100.804 E17.97414
G1 X150.377 Y98.907 E18.09418
G1 X148.806 Y97.086 E18.21416
G1 X147.148 Y95.345 E18.33411
G1 X145.407 Y93.687 E18.45405
G1 X143.586 Y92.115 E18.57407
G1 X141.688 Y90.636 E18.69412
G1 X139.722 Y89.25 E18.81413
G1 X137.692 Y87.964 E18.93402
G1 X135.599 Y86.779 E19.05401
G1 X133.451 Y85.696 E19.17403
G1 X131.252 Y84.722 E19.29401
G1 X129.008 Y83.857 E19.414
G1 X126.724 Y83.103 E19.53399
G1 X124.406 Y82.461 E19.65399
G1 X122.059 Y81.935 E19.77399
G1 X119.69 Y81.522 E19.89396
G1 X117.303 Y81.229 E20.01394
G1 X114.87 Y81.051 E20.13565
G1 X114.394 Y81.032 E20.15942
G1 X112.649 Y80.98 E20.24652
G1 X112.352 Y80.975 E20.26134
M205 X10 Y10
G0 F6000 X112.249 Y81.379
M205 X8 Y8
G1 F1200 X110.122 Y81.451 E20.36751
G1 X107.736 Y81.627 E20.48687
G1 X105.369 Y81.918 E20.60585
G1 X103.019 Y82.327 E20.72486
G1 X100.691 Y82.849 E20.84389
G1 X98.392 Y83.486 E20.9629
G1 X96.127 Y84.234 E21.08191
G1 X93.901 Y85.092 E21.20093
G1 X91.72 Y86.058 E21.31993
G1 X89.59 Y87.132 E21.43894
G1 X87.514 Y88.307 E21.55796
G1 X85.5 Y89.583 E21.6769
G1 X83.549 Y90.957 E21.79595
G1 X81.668 Y92.424 E21.91496
G1 X79.862 Y93.983 E22.03399
G1 X78.135 Y95.628 E22.15298
G1 X76.49 Y97.355 E22.27198
G1 X74.931 Y99.161 E22.39101
G1 X73.464 Y101.042 E22.51001
G1 X72.09 Y102.992 E22.62903
G1 X70.814 Y105.007 E22.74802
G1 X69.639 Y107.083 E22.86703
G1 X68.565 Y109.213 E22.98604
G1 X67.599 Y111.394 E23.10504
G1 X66.741 Y113.62 E23.22406
G1 X65.993 Y115.885 E23.34307
G1 X65.356 Y118.184 E23.46208
G1 X64.834 Y120.511 E23.58106
G1 X64.425 Y122.862 E23.70012
G1 X64.134 Y125.229 E23.8191
G1 X63.958 Y127.608 E23.93811
G1 X63.9 Y129.986 E24.05678
G1 X63.9 Y141.393 E24.62588
G1 X62.1 Y141.393 E24.71568
G1 X62.1 Y140.091 E24.78064
G1 X61.653 Y137.51 E24.91132
G1 X61.339 Y134.956 E25.0397
G1 X61.157 Y132.412 E25.16695
G1 X61.1 Y129.861 E25.29425
G1 X61.171 Y127.292 E25.42247
G1 X61.368 Y124.748 E25.54977
G1 X61.693 Y122.209 E25.67747
G1 X62.148 Y119.669 E25.80621
G1 X62.727 Y117.164 E25.93448
G1 X63.424 Y114.71 E26.06175
G1 X64.246 Y112.287 E26.1894
G1 X65.188 Y109.905 E26.3172
G1 X66.239 Y107.591 E26.44399
G1 X67.426 Y105.289 E26.57321
G1 X68.697 Y103.101 E26.69945
G1 X70.107 Y100.928 E26.82869
G1 X71.588 Y98.876 E26.95494
G1 X73.202 Y96.863 E27.08366
G1 X74.894 Y94.954 E27.21093
G1 X76.693 Y93.118 E27.33917
G1 X78.567 Y91.387 E27.46645
G1 X80.538 Y89.739 E27.59462
G1 X82.574 Y88.203 E27.72186
G1 X84.693 Y86.765 E27.84963
G1 X86.886 Y85.43 E27.97771
G1 X89.143 Y84.207 E28.10578
G1 X91.447 Y83.103 E28.23325
G1 X93.811 Y82.111 E28.36115
G1 X96.22 Y81.239 E28.48897
G1 X98.647 Y80.495 E28.61561
G1 X101.154 Y79.861 E28.74462
G1 X103.64 Y79.363 E28.87111
G1 X106.202 Y78.98 E29.00035
G1 X108.72 Y78.732 E29.12659
G1 X111.307 Y78.607 E29.2558
G1 X113.857 Y78.611 E29.38302
G1 X116.406 Y78.742 E29.51036
G1 X118.964 Y79.001 E29.63863
G1 X121.485 Y79.384 E29.76585
G1 X123.986 Y79.894 E29.89319
G1 X126.494 Y80.535 E30.02234
G1 X128.911 Y81.283 E30.14857
G1 X131.344 Y82.172 E30.2778
G1 X133.682 Y83.16 E30.40443
G1 X135.986 Y84.273 E30.53208
G1 X138.249 Y85.508 E30.6607
G1 X140.43 Y86.844 E30.78831
G1 X142.536 Y88.282 E30.91553
G1 X144.583 Y89.836 E31.04375
G1 X146.53 Y91.471 E31.1706
G1 X148.412 Y93.22 E31.29877
G1 X150.213 Y95.069 E31.42755
G1 X151.886 Y96.967 E31.55378
G1 X153.489 Y98.979 E31.68212
G1 X154.976 Y101.049 E31.80928
G1 X156.365 Y103.2 E31.93702
G1 X157.654 Y105.435 E32.06574
G1 X158.816 Y107.705 E32.19297
G1 X159.873 Y110.049 E32.32125
G1 X160.801 Y112.414 E32.448
G1 X161.616 Y114.841 E32.57572
G1 X162.312 Y117.316 E32.70399
G1 X162.884 Y119.822 E32.83223
G1 X163.326 Y122.335 E32.95953
G1 X163.645 Y124.875 E33.08725
G1 X163.835 Y127.418 E33.21447
G1 X163.9 Y129.998 E33.34323
G1 X163.837 Y132.52 E33.46909
G1 X163.652 Y135.031 E33.59471
G1 X163.342 Y137.547 E33.72118
G1 X162.9 Y140.091 E33.85
G1 X162.9 Y141.393 E33.91496
G1 X161.1 Y141.393 E34.00476
G1 X161.1 Y129.986 E34.57386
G1 X161.042 Y127.608 E34.69253
G1 X160.866 Y125.229 E34.81155
G1 X160.574 Y122.862 E34.93053
G1 X160.166 Y120.511 E35.04958
G1 X159.643 Y118.184 E35.16857
G1 X159.007 Y115.885 E35.28757
G1 X158.259 Y113.62 E35.40658
G1 X157.401 Y111.394 E35.5256
G1 X156.434 Y109.213 E35.64462
G1 X155.361 Y107.083 E35.76361
G1 X154.186 Y105.007 E35.88262
G1 X152.909 Y102.992 E36.00164
G1 X151.536 Y101.042 E36.12062
G1 X150.068 Y99.161 E36.23966
G1 X148.51 Y97.355 E36.35866
G1 X146.865 Y95.628 E36.47765
G1 X145.138 Y93.983 E36.59664
G1 X143.332 Y92.424 E36.71567
G1 X141.45 Y90.957 E36.83472
G1 X139.5 Y89.583 E36.95373
G1 X137.486 Y88.307 E37.07267
G1 X135.41 Y87.132 E37.19169
G1 X133.28 Y86.058 E37.3107
G1 X131.099 Y85.092 E37.4297
G1 X128.873 Y84.234 E37.54872
G1 X126.608 Y83.486 E37.66773
G1 X124.309 Y82.849 E37.78674
G1 X121.981 Y82.327 E37.90577
G1 X119.631 Y81.918 E38.02478
G1 X117.264 Y81.627 E38.14376
G1 X114.848 Y81.45 E38.26461
G1 X114.38 Y81.432 E38.28798
G1 X112.752 Y81.383 E38.36924
G1 X112.746 Y87.435 E38.67117
G1 X112.731 Y96.393 E39.11809
G1 X112.254 Y96.393 E39.14189
G1 X112.249 Y94.493 E39.23668
G1 X112.247 Y92.496 E39.33631
G1 X112.249 Y81.379 E39.89094
M205 X10 Y10
G0 F6000 X111.849 Y81.793
M205 X8 Y8
;TYPE:WALL-OUTER
G1 F1200 X110.143 Y81.851 E39.9761
G1 X107.775 Y82.025 E40.09456
G1 X105.428 Y82.314 E40.21254
G1 X103.097 Y82.719 E40.33057
G1 X100.788 Y83.237 E40.44863
G1 X98.508 Y83.869 E40.56667
G1 X96.262 Y84.611 E40.68468
G1 X94.054 Y85.462 E40.80274
G1 X91.891 Y86.42 E40.92076
G1 X89.779 Y87.485 E41.03877
G1 X87.72 Y88.65 E41.15679
G1 X85.722 Y89.916 E41.2748
G1 X83.787 Y91.278 E41.39286
G1 X81.922 Y92.733 E41.51087
G1 X80.131 Y94.279 E41.62891
G1 X78.418 Y95.911 E41.74694
G1 X76.786 Y97.624 E41.86498
G1 X75.24 Y99.415 E41.98302
G1 X73.785 Y101.28 E42.10103
G1 X72.423 Y103.214 E42.21905
G1 X71.157 Y105.213 E42.33709
G1 X69.992 Y107.272 E42.45512
G1 X68.927 Y109.384 E42.57313
G1 X67.969 Y111.547 E42.69115
