;FLAVOR:Marlin
;TIME:2481
;Filament used: 1.93295m
;Layer height: 0.2
;MINX:89.825
;MINY:84.365
;MINZ:0.3
;MAXX:134.225
;MAXY:135.635
;MAXZ:6.175
;Generated with Cura_SteamEngine 4.13.1
M140 S60
M105
M190 S60
M104 S200
M105
M109 S200
M82 ;absolute extrusion mode
G21                                        ; metric values
G90                                        ; absolute positioning
M82                                        ; set extruder to absolute mode
M107                                       ; start with the fan off
M190 S60                                   ; preheat and wait for bed
M109 S210                                  ; preheat and wait for hotend
M300 S1000 P500                            ; BEEP heating done
G28 X0 Y10 Z0                              ; move X/Y to min endstops
M420 S1                                    ; enable mesh leveling
G0 Z0.15                                   ; lift nozzle a bit
G0 X2                                      ; move away from clips
G92 E0                                     ; zero the extruded length
G1 Y50 E25 F500                            ; Extrude 25mm of filament in a 5cm line.
G92 E0                                     ; zero the extruded length again
G1 E-2 F500                                ; Retract a little
G1 Y120 F4000                              ; Quickly wipe away from the filament line
G92 E0
G92 E0
G1 F1500 E-6
;LAYER_COUNT:30
;LAYER:0
M106 S76.5
M205 X10 Y10
G1 F600 Z0.375
;MESH:prisma-fuss.stl
G0 F6000 X132.627 Y110 Z0.375
M205 X8 Y8
;TYPE:WALL-INNER
G1 F600 Z0.3
G1 F1500 E0
G1 F1200 X90.625 Y134.251 E2.41969
G1 X90.625 Y85.749 E4.83946
G1 X132.627 Y110 E7.25915
M205 X10 Y10
G0 F6000 X133.426 Y110
M205 X8 Y8
G1 F1200 X132.827 Y110.345 E7.29364
G1 X90.825 Y134.596 E9.71333
G1 X90.225 Y134.943 E9.74791
G1 X90.225 Y85.057 E12.23673
G1 X133.426 Y110 E14.72549
M205 X10 Y10
G0 F6000 X134.225 Y110
M205 X8 Y8
;TYPE:WALL-OUTER
G1 F1200 X89.825 Y135.635 E17.28331
G1 X89.825 Y84.365 E19.84118
G1 X134.225 Y110 E22.399
M205 X10 Y10
G0 F6000 X134.052 Y110.1
G1 F1500 E16.399
G1 F600 Z0.375
G0 F6000 X131.846 Y110 Z0.375
M205 X8 Y8
;TYPE:SKIN
G1 F600 Z0.3
G1 F1500 E22.399
G1 F1200 X91.015 Y133.575 E24.75124
G1 X91.015 Y86.425 E27.10356
G1 X131.846 Y110 E29.45579
M205 X10 Y10
G0 F6000 X131.132 Y110.202
M205 X8 Y8
G1 F1200 X130.173 Y109.243 E29.52345
G1 X130.103 Y109.173
M205 X10 Y10
G0 F6000 X130.774 Y110.409
M205 X8 Y8
G1 F1200 X128.834 Y108.47 E29.6603
G1 X128.764 Y108.4
M205 X10 Y10
G0 F6000 X127.496 Y107.697
M205 X8 Y8
G1 F1200 X130.415 Y110.616 E29.86625
M205 X10 Y10
G0 F6000 X130.057 Y110.824
M205 X8 Y8
G1 F1200 X126.157 Y106.924 E30.14141
G1 X126.087 Y106.854
M205 X10 Y10
G0 F6000 X124.819 Y106.151
M205 X8 Y8
G1 F1200 X129.698 Y111.031 E30.48569
M205 X10 Y10
G0 F6000 X129.34 Y111.238
M205 X8 Y8
G1 F1200 X123.48 Y105.378 E30.89914
G1 X123.41 Y105.308
M205 X10 Y10
G0 F6000 X122.142 Y104.605
M205 X8 Y8
G1 F1200 X128.981 Y111.444 E31.38167
M205 X10 Y10
G0 F6000 X128.622 Y111.652
M205 X8 Y8
G1 F1200 X120.803 Y103.832 E31.93338
G1 X120.733 Y103.762
M205 X10 Y10
G0 F6000 X119.464 Y103.06
M205 X8 Y8
G1 F1200 X128.264 Y111.859 E32.55423
M205 X10 Y10
G0 F6000 X127.905 Y112.066
M205 X8 Y8
G1 F1200 X118.126 Y102.287 E33.24419
G1 X118.056 Y102.217
M205 X10 Y10
G0 F6000 X116.787 Y101.514
M205 X8 Y8
G1 F1200 X127.547 Y112.273 E34.00333
M205 X10 Y10
G0 F6000 X127.188 Y112.48
M205 X8 Y8
G1 F1200 X115.449 Y100.741 E34.83158
G1 X115.379 Y100.671
M205 X10 Y10
G0 F6000 X114.11 Y99.968
M205 X8 Y8
G1 F1200 X126.829 Y112.687 E35.72898
M205 X10 Y10
G0 F6000 X126.47 Y112.894
M205 X8 Y8
G1 F1200 X112.772 Y99.195 E36.69548
G1 X112.702 Y99.125
M205 X10 Y10
G0 F6000 X111.433 Y98.422
M205 X8 Y8
G1 F1200 X126.112 Y113.101 E37.73116
M205 X10 Y10
G0 F6000 X125.753 Y113.308
M205 X8 Y8
G1 F1200 X110.095 Y97.65 E38.83592
G1 X110.025 Y97.58
M205 X10 Y10
G0 F6000 X108.756 Y96.877
M205 X8 Y8
G1 F1200 X125.395 Y113.516 E40.00989
M205 X10 Y10
G0 F6000 X125.036 Y113.723
M205 X8 Y8
G1 F1200 X107.418 Y96.104 E41.25297
G1 X107.348 Y96.034
M205 X10 Y10
G0 F6000 X106.079 Y95.331
M205 X8 Y8
G1 F1200 X124.677 Y113.929 E42.56516
M205 X10 Y10
G0 F6000 X124.319 Y114.136
M205 X8 Y8
G1 F1200 X104.74 Y94.558 E43.94653
G1 X104.67 Y94.488
M205 X10 Y10
G0 F6000 X103.402 Y93.785
M205 X8 Y8
G1 F1200 X123.96 Y114.344 E45.39704
M205 X10 Y10
G0 F6000 X123.602 Y114.551
M205 X8 Y8
G1 F1200 X102.063 Y93.012 E46.91674
G1 X101.993 Y92.942
M205 X10 Y10
G0 F6000 X100.725 Y92.239
M205 X8 Y8
G1 F1200 X123.243 Y114.758 E48.50554
M205 X10 Y10
G0 F6000 X122.885 Y114.965
M205 X8 Y8
G1 F1200 X99.385 Y91.466 E50.16355
G1 X99.315 Y91.396
M205 X10 Y10
G0 F6000 X98.047 Y90.693
M205 X8 Y8
G1 F1200 X122.526 Y115.172 E51.89068
M205 X10 Y10
G0 F6000 X122.167 Y115.379
M205 X8 Y8
G1 F1200 X96.708 Y89.92 E53.68695
G1 X96.638 Y89.85
M205 X10 Y10
G0 F6000 X95.37 Y89.147
M205 X8 Y8
G1 F1200 X121.809 Y115.586 E55.55236
M205 X10 Y10
G0 F6000 X121.45 Y115.793
M205 X8 Y8
G1 F1200 X94.031 Y88.374 E57.48692
G1 X93.961 Y88.304
M205 X10 Y10
G0 F6000 X92.693 Y87.602
M205 X8 Y8
G1 F1200 X121.092 Y116 E59.49059
M205 X10 Y10
G0 F6000 X120.733 Y116.208
M205 X8 Y8
G1 F1200 X91.354 Y86.829 E61.56344
M205 X10 Y10
G0 F6000 X91.194 Y87.234
M205 X8 Y8
G1 F1200 X120.374 Y116.414 E63.62224
M205 X10 Y10
G0 F6000 X120.015 Y116.621
M205 X8 Y8
G1 F1200 X91.194 Y87.8 E65.65572
M205 X10 Y10
G0 F6000 X91.194 Y88.365
M205 X8 Y8
G1 F1200 X119.657 Y116.828 E67.66394
M205 X10 Y10
G0 F6000 X119.298 Y117.036
M205 X8 Y8
G1 F1200 X91.194 Y88.931 E69.64686
M205 X10 Y10
G0 F6000 X91.194 Y89.497
M205 X8 Y8
G1 F1200 X118.94 Y117.243 E71.60449
M205 X10 Y10
G0 F6000 X118.581 Y117.45
M205 X8 Y8
G1 F1200 X91.194 Y90.062 E73.53683
M205 X10 Y10
G0 F6000 X91.194 Y90.628
M205 X8 Y8
G1 F1200 X118.222 Y117.656 E75.4438
M205 X10 Y10
G0 F6000 X117.864 Y117.864
M205 X8 Y8
G1 F1200 X91.194 Y91.194 E77.32551
M205 X10 Y10
G0 F6000 X91.194 Y91.759
M205 X8 Y8
G1 F1200 X117.505 Y118.071 E79.18193
M205 X10 Y10
G0 F6000 X117.147 Y118.278
M205 X8 Y8
G1 F1200 X91.194 Y92.325 E81.01306
M205 X10 Y10
G0 F6000 X91.194 Y92.891
M205 X8 Y8
G1 F1200 X116.788 Y118.485 E82.81885
M205 X10 Y10
G0 F6000 X116.43 Y118.692
M205 X8 Y8
G1 F1200 X91.194 Y93.456 E84.59939
M205 X10 Y10
G0 F6000 X91.194 Y94.022
M205 X8 Y8
G1 F1200 X116.07 Y118.899 E86.35456
M205 X10 Y10
G0 F6000 X115.712 Y119.106
M205 X8 Y8
G1 F1200 X91.194 Y94.588 E88.08444
M205 X10 Y10
G0 F6000 X91.194 Y95.153
M205 X8 Y8
G1 F1200 X115.353 Y119.313 E89.78902
M205 X10 Y10
G0 F6000 X114.995 Y119.52
M205 X8 Y8
G1 F1200 X91.194 Y95.719 E91.46831
M205 X10 Y10
G0 F6000 X91.194 Y96.285
M205 X8 Y8
G1 F1200 X114.636 Y119.728 E93.1223
M205 X10 Y10
G0 F6000 X114.278 Y119.935
M205 X8 Y8
G1 F1200 X91.194 Y96.851 E94.75101
M205 X10 Y10
G0 F6000 X91.194 Y97.416
M205 X8 Y8
G1 F1200 X113.919 Y120.141 E96.35438
M205 X10 Y10
G0 F6000 X113.56 Y120.348
M205 X8 Y8
G1 F1200 X91.194 Y97.982 E97.93242
M205 X10 Y10
G0 F6000 X91.194 Y98.548
M205 X8 Y8
G1 F1200 X113.202 Y120.556 E99.4852
M205 X10 Y10
G0 F6000 X112.843 Y120.763
M205 X8 Y8
G1 F1200 X91.194 Y99.113 E101.01269
M205 X10 Y10
G0 F6000 X91.194 Y99.679
M205 X8 Y8
G1 F1200 X112.485 Y120.97 E102.51489
M205 X10 Y10
G0 F6000 X112.126 Y121.177
M205 X8 Y8
G1 F1200 X91.194 Y100.245 E103.99175
M205 X10 Y10
G0 F6000 X91.194 Y100.81
M205 X8 Y8
G1 F1200 X111.767 Y121.384 E105.44332
M205 X10 Y10
G0 F6000 X111.408 Y121.591
M205 X8 Y8
G1 F1200 X91.194 Y101.376 E106.86957
M205 X10 Y10
G0 F6000 X91.194 Y101.942
M205 X8 Y8
G1 F1200 X111.05 Y121.798 E108.27051
M205 X10 Y10
G0 F6000 X110.691 Y122.005
M205 X8 Y8
G1 F1200 X91.194 Y102.507 E109.64617
M205 X10 Y10
G0 F6000 X91.194 Y103.073
M205 X8 Y8
G1 F1200 X110.333 Y122.212 E110.99653
M205 X10 Y10
G0 F6000 X109.974 Y122.419
M205 X8 Y8
G1 F1200 X91.194 Y103.639 E112.32156
M205 X10 Y10
G0 F6000 X91.194 Y104.204
M205 X8 Y8
G1 F1200 X109.615 Y122.626 E113.62129
M205 X10 Y10
G0 F6000 X109.257 Y122.833
M205 X8 Y8
G1 F1200 X91.194 Y104.77 E114.89574
M205 X10 Y10
G0 F6000 X91.194 Y105.336
M205 X8 Y8
G1 F1200 X108.898 Y123.04 E116.14485
M205 X10 Y10
G0 F6000 X108.54 Y123.248
M205 X8 Y8
G1 F1200 X91.194 Y105.901 E117.36874
M205 X10 Y10
G0 F6000 X91.194 Y106.467
M205 X8 Y8
G1 F1200 X108.181 Y123.455 E118.5673
M205 X10 Y10
G0 F6000 X107.822 Y123.661
M205 X8 Y8
G1 F1200 X91.194 Y107.033 E119.74049
M205 X10 Y10
G0 F6000 X91.194 Y107.599
M205 X8 Y8
G1 F1200 X107.463 Y123.868 E120.88836
M205 X10 Y10
G0 F6000 X107.105 Y124.076
M205 X8 Y8
G1 F1200 X91.194 Y108.164 E122.011
M205 X10 Y10
G0 F6000 X91.194 Y108.73
M205 X8 Y8
G1 F1200 X106.746 Y124.283 E123.10831
M205 X10 Y10
G0 F6000 X106.388 Y124.49
M205 X8 Y8
G1 F1200 X91.194 Y109.296 E124.18033
M205 X10 Y10
G0 F6000 X91.194 Y109.861
M205 X8 Y8
G1 F1200 X106.029 Y124.697 E125.22706
M205 X10 Y10
G0 F6000 X105.67 Y124.904
M205 X8 Y8
G1 F1200 X91.194 Y110.427 E126.24845
M205 X10 Y10
G0 F6000 X91.194 Y110.993
M205 X8 Y8
G1 F1200 X105.312 Y125.111 E127.24455
M205 X10 Y10
G0 F6000 X104.953 Y125.318
M205 X8 Y8
G1 F1200 X91.194 Y111.558 E128.21536
M205 X10 Y10
G0 F6000 X91.194 Y112.124
M205 X8 Y8
G1 F1200 X104.595 Y125.525 E129.16087
M205 X10 Y10
G0 F6000 X104.236 Y125.732
M205 X8 Y8
G1 F1200 X91.194 Y112.69 E130.08106
M205 X10 Y10
G0 F6000 X91.194 Y113.255
M205 X8 Y8
G1 F1200 X103.878 Y125.939 E130.97598
M205 X10 Y10
G0 F6000 X103.519 Y126.146
M205 X8 Y8
G1 F1200 X91.194 Y113.821 E131.84558
M205 X10 Y10
G0 F6000 X91.194 Y114.387
M205 X8 Y8
G1 F1200 X103.16 Y126.353 E132.68984
M205 X10 Y10
G0 F6000 X102.802 Y126.56
M205 X8 Y8
G1 F1200 X91.194 Y114.952 E133.50885
M205 X10 Y10
G0 F6000 X91.194 Y115.518
M205 X8 Y8
G1 F1200 X102.443 Y126.767 E134.30253
M205 X10 Y10
G0 F6000 X102.085 Y126.975
M205 X8 Y8
G1 F1200 X91.194 Y116.084 E135.07095
M205 X10 Y10
G0 F6000 X91.194 Y116.649
M205 X8 Y8
G1 F1200 X101.726 Y127.182 E135.81407
M205 X10 Y10
G0 F6000 X101.367 Y127.388
M205 X8 Y8
G1 F1200 X91.194 Y117.215 E136.53183
M205 X10 Y10
G0 F6000 X91.194 Y117.781
M205 X8 Y8
G1 F1200 X101.008 Y127.596 E137.2243
M205 X10 Y10
G0 F6000 X100.65 Y127.803
M205 X8 Y8
G1 F1200 X91.194 Y118.347 E137.89147
M205 X10 Y10
G0 F6000 X91.194 Y118.912
M205 X8 Y8
G1 F1200 X100.291 Y128.01 E138.53335
M205 X10 Y10
G0 F6000 X99.933 Y128.217
M205 X8 Y8
G1 F1200 X91.194 Y119.478 E139.14993
M205 X10 Y10
G0 F6000 X91.194 Y120.044
M205 X8 Y8
G1 F1200 X99.574 Y128.424 E139.74119
M205 X10 Y10
G0 F6000 X99.215 Y128.631
M205 X8 Y8
G1 F1200 X91.194 Y120.609 E140.30715
M205 X10 Y10
G0 F6000 X91.194 Y121.175
M205 X8 Y8
G1 F1200 X98.857 Y128.838 E140.84781
M205 X10 Y10
G0 F6000 X98.498 Y129.045
M205 X8 Y8
G1 F1200 X91.194 Y121.741 E141.36315
M205 X10 Y10
G0 F6000 X91.194 Y122.306
M205 X8 Y8
G1 F1200 X98.14 Y129.252 E141.85323
M205 X10 Y10
G0 F6000 X97.781 Y129.459
M205 X8 Y8
G1 F1200 X91.194 Y122.872 E142.31798
M205 X10 Y10
G0 F6000 X91.194 Y123.438
M205 X8 Y8
G1 F1200 X97.423 Y129.667 E142.75746
M205 X10 Y10
G0 F6000 X97.063 Y129.873
M205 X8 Y8
G1 F1200 X91.194 Y124.003 E143.17159
M205 X10 Y10
G0 F6000 X91.194 Y124.569
M205 X8 Y8
G1 F1200 X96.705 Y130.08 E143.56042
M205 X10 Y10
G0 F6000 X96.346 Y130.287
M205 X8 Y8
G1 F1200 X91.194 Y125.135 E143.92392
M205 X10 Y10
G0 F6000 X91.194 Y125.7
M205 X8 Y8
G1 F1200 X95.988 Y130.495 E144.2622
M205 X10 Y10
G0 F6000 X95.629 Y130.702
M205 X8 Y8
G1 F1200 X91.194 Y126.266 E144.57515
M205 X10 Y10
G0 F6000 X91.194 Y126.832
M205 X8 Y8
G1 F1200 X95.271 Y130.909 E144.8628
M205 X10 Y10
G0 F6000 X94.912 Y131.115
M205 X8 Y8
G1 F1200 X91.194 Y127.398 E145.12509
M205 X10 Y10
G0 F6000 X91.194 Y127.963
M205 X8 Y8
G1 F1200 X94.553 Y131.323 E145.36212
M205 X10 Y10
G0 F6000 X94.195 Y131.53
M205 X8 Y8
G1 F1200 X91.194 Y128.529 E145.57386
M205 X10 Y10
G0 F6000 X91.194 Y129.095
M205 X8 Y8
G1 F1200 X93.836 Y131.737 E145.76027
M205 X10 Y10
G0 F6000 X93.478 Y131.944
M205 X8 Y8
G1 F1200 X91.194 Y129.66 E145.92142
M205 X10 Y10
G0 F6000 X91.194 Y130.226
M205 X8 Y8
G1 F1200 X93.119 Y132.151 E146.05724
M205 X10 Y10
G0 F6000 X92.76 Y132.358
M205 X8 Y8
G1 F1200 X91.194 Y130.792 E146.16772
M205 X10 Y10
G0 F6000 X91.194 Y131.357
M205 X8 Y8
G1 F1200 X92.401 Y132.565 E146.25292
M205 X10 Y10
G0 F6000 X92.043 Y132.772
M205 X8 Y8
G1 F1200 X91.194 Y131.923 E146.31282
M205 X10 Y10
G0 F6000 X91.194 Y132.489
M205 X8 Y8
G1 F1200 X91.684 Y132.979 E146.34739
M205 X10 Y10
G0 F6000 X91.326 Y133.187
M205 X8 Y8
G1 F1200 X91.194 Y133.054 E146.35674
M205 X10 Y10
G1 F1500 E140.35674
G1 F600 Z0.375
;MESH:NONMESH
G0 F6000 X132.627 Y110 Z0.375
;TIME_ELAPSED:153.660075
;LAYER:1
M106 S127.5
;MESH:prisma-fuss.stl
G0 X132.627 Y110 Z0.575
M205 X8 Y8
;TYPE:WALL-INNER
G1 F600 Z0.5
G1 F1500 E146.35674
G1 F1350 X90.625 Y134.251 E147.96987
G1 X90.625 Y85.749 E149.58305
G1 X132.627 Y110 E151.19618
M205 X10 Y10
G0 F6000 X133.426 Y110
M205 X8 Y8
G1 F1350 X132.827 Y110.345 E151.21917
G1 X90.825 Y134.596 E152.8323
G1 X90.225 Y134.943 E152.85535
G1 X90.225 Y85.057 E154.51456
G1 X133.426 Y110 E156.17374
M205 X10 Y10
G0 F6000 X134.225 Y110
M205 X8 Y8
;TYPE:WALL-OUTER
G1 F1350 X89.825 Y135.635 E157.87895
G1 X89.825 Y84.365 E159.5842
G1 X134.225 Y110 E161.28941
M205 X10 Y10
G0 F6000 X134.052 Y110.1
G1 F1500 E155.28941
G1 F600 Z0.575
G0 F6000 X131.846 Y110 Z0.575
M205 X8 Y8
;TYPE:SKIN
G1 F600 Z0.5
G1 F1500 E161.28941
G1 F1350 X91.015 Y133.575 E162.85757
G1 X91.015 Y86.425 E164.42578
G1 X131.846 Y110 E165.99394
M205 X10 Y10
G0 F6000 X131.166 Y109.815
M205 X8 Y8
G1 F1350 X130.293 Y110.688 E166.035
G1 X130.223 Y110.758
M205 X10 Y10
G0 F6000 X130.807 Y109.608
M205 X8 Y8
G1 F1350 X128.955 Y111.461 E166.12214
G1 X128.885 Y111.531
M205 X10 Y10
G0 F6000 X127.616 Y112.234
M205 X8 Y8
G1 F1350 X130.449 Y109.401 E166.25539
M205 X10 Y10
G0 F6000 X130.09 Y109.194
M205 X8 Y8
G1 F1350 X126.277 Y113.006 E166.43472
G1 X126.207 Y113.076
M205 X10 Y10
G0 F6000 X124.939 Y113.779
M205 X8 Y8
G1 F1350 X129.731 Y108.987 E166.66012
M205 X10 Y10
G0 F6000 X129.372 Y108.78
M205 X8 Y8
G1 F1350 X123.6 Y114.552 E166.93162
G1 X123.53 Y114.622
M205 X10 Y10
G0 F6000 X122.262 Y115.325
M205 X8 Y8
G1 F1350 X129.014 Y108.573 E167.24921
M205 X10 Y10
G0 F6000 X128.655 Y108.366
M205 X8 Y8
G1 F1350 X120.923 Y116.098 E167.6129
G1 X120.853 Y116.168
M205 X10 Y10
G0 F6000 X119.585 Y116.871
M205 X8 Y8
G1 F1350 X128.297 Y108.159 E168.02269
M205 X10 Y10
G0 F6000 X127.938 Y107.951
M205 X8 Y8
G1 F1350 X118.246 Y117.644 E168.47859
G1 X118.176 Y117.714
M205 X10 Y10
G0 F6000 X116.908 Y118.417
M205 X8 Y8
G1 F1350 X127.579 Y107.745 E168.98055
M205 X10 Y10
G0 F6000 X127.221 Y107.538
M205 X8 Y8
G1 F1350 X115.569 Y119.189 E169.5286
G1 X115.499 Y119.259
M205 X10 Y10
G0 F6000 X114.23 Y119.962
M205 X8 Y8
G1 F1350 X126.862 Y107.331 E170.12275
M205 X10 Y10
G0 F6000 X126.504 Y107.123
M205 X8 Y8
G1 F1350 X112.892 Y120.735 E170.76301
G1 X112.822 Y120.805
M205 X10 Y10
G0 F6000 X111.553 Y121.508
M205 X8 Y8
G1 F1350 X126.145 Y106.916 E171.44937
M205 X10 Y10
G0 F6000 X125.787 Y106.709
M205 X8 Y8
G1 F1350 X110.215 Y122.281 E172.18183
G1 X110.145 Y122.351
M205 X10 Y10
G0 F6000 X108.876 Y123.054
M205 X8 Y8
G1 F1350 X125.428 Y106.503 E172.96037
M205 X10 Y10
G0 F6000 X125.069 Y106.295
M205 X8 Y8
G1 F1350 X107.538 Y123.827 E173.78499
G1 X107.468 Y123.897
M205 X10 Y10
G0 F6000 X106.199 Y124.599
M205 X8 Y8
G1 F1350 X124.711 Y106.088 E174.65572
M205 X10 Y10
G0 F6000 X124.352 Y105.881
M205 X8 Y8
G1 F1350 X104.861 Y125.372 E175.57251
G1 X104.791 Y125.442
M205 X10 Y10
G0 F6000 X103.522 Y126.145
M205 X8 Y8
G1 F1350 X123.994 Y105.674 E176.53543
M205 X10 Y10
G0 F6000 X123.635 Y105.467
M205 X8 Y8
G1 F1350 X102.184 Y126.918 E177.54442
G1 X102.114 Y126.988
M205 X10 Y10
G0 F6000 X100.845 Y127.691
M205 X8 Y8
G1 F1350 X123.276 Y105.259 E178.59953
M205 X10 Y10
G0 F6000 X122.917 Y105.053
M205 X8 Y8
G1 F1350 X99.506 Y128.464 E179.70071
G1 X99.436 Y128.534
M205 X10 Y10
G0 F6000 X98.168 Y129.237
M205 X8 Y8
G1 F1350 X122.559 Y104.846 E180.84799
M205 X10 Y10
G0 F6000 X122.2 Y104.639
M205 X8 Y8
G1 F1350 X96.83 Y130.009 E182.04132
G1 X96.76 Y130.079
M205 X10 Y10
G0 F6000 X95.491 Y130.782
M205 X8 Y8
G1 F1350 X121.842 Y104.431 E183.28079
M205 X10 Y10
G0 F6000 X121.483 Y104.224
M205 X8 Y8
G1 F1350 X94.153 Y131.555 E184.56633
