;FLAVOR:Marlin
;TIME:3363
;Filament used: 1.7523m
;Layer height: 0.2
;MINX:94.2
;MINY:91.71
;MINZ:0.3
;MAXX:130.799
;MAXY:128.29
;MAXZ:65.175
;Generated with Cura_SteamEngine 4.13.1
M140 S60
M105
M190 S60
M104 S200
M105
M109 S200
M82 ;absolute extrusion mode
G21                                        ; metric values
G90                                        ; absolute positioning
M82                                        ; set extruder to absolute mode
M107                                       ; start with the fan off
M190 S60                                   ; preheat and wait for bed
M109 S210                                  ; preheat and wait for hotend
M300 S1000 P500                            ; BEEP heating done
G28 X0 Y10 Z0                              ; move X/Y to min endstops
M420 S1                                    ; enable mesh leveling
G0 Z0.15                                   ; lift nozzle a bit
G0 X2                                      ; move away from clips
G92 E0                                     ; zero the extruded length
G1 Y50 E25 F500                            ; Extrude 25mm of filament in a 5cm line.
G92 E0                                     ; zero the extruded length again
G1 E-2 F500                                ; Retract a little
G1 Y120 F4000                              ; Quickly wipe away from the filament line
G92 E0
G92 E0
G1 F1500 E-6
;LAYER_COUNT:325
;LAYER:0
M106 S76.5
M205 X10 Y10
G1 F600 Z0.375
;MESH:sauger-aufsatz-neu.stl
G0 F6000 X112.546 Y127.599 Z0.375
M205 X8 Y8
;TYPE:WALL-INNER
G1 F600 Z0.3
G1 F1500 E0
G1 F1200 X113.69 Y127.518 E0.05722
G1 X114.993 Y127.424 E0.12239
G1 X116.052 Y127.195 E0.17645
G1 X117.446 Y126.892 E0.24762
G1 X118.368 Y126.549 E0.2967
G1 X119.799 Y126.016 E0.37288
G1 X120.556 Y125.604 E0.41588
G1 X121.992 Y124.821 E0.49748
G1 X122.057 Y124.776 E0.50142
G1 X122.617 Y124.357 E0.53632
G1 X124 Y123.322 E0.6225
G1 X124.059 Y123.27 E0.62642
G1 X124.474 Y122.855 E0.6557
G1 X125.783 Y121.546 E0.74806
G1 X125.833 Y121.484 E0.75203
G1 X126.115 Y121.108 E0.77548
G1 X127.289 Y119.54 E0.87321
G1 X127.33 Y119.472 E0.87717
G1 X128.492 Y117.345 E0.99809
G1 X128.525 Y117.273 E1.00204
G1 X129.371 Y115.002 E1.12295
G1 X129.396 Y114.926 E1.12694
G1 X129.91 Y112.553 E1.24807
G1 X129.924 Y112.476 E1.25198
G1 X130.098 Y110.047 E1.37347
G1 X130.099 Y109.968 E1.37741
G1 X129.925 Y107.526 E1.49955
G1 X129.911 Y107.448 E1.50351
G1 X129.397 Y105.075 E1.62464
G1 X129.372 Y104.999 E1.62863
G1 X128.526 Y102.728 E1.74954
G1 X128.493 Y102.656 E1.75349
G1 X127.331 Y100.529 E1.87441
G1 X127.29 Y100.461 E1.87837
G1 X126.119 Y98.897 E1.97585
G1 X125.834 Y98.517 E1.99955
G1 X125.784 Y98.455 E2.00352
G1 X124.479 Y97.15 E2.09559
G1 X124.06 Y96.731 E2.12516
G1 X124.001 Y96.679 E2.12908
G1 X122.617 Y95.643 E2.21533
G1 X122.058 Y95.225 E2.25015
G1 X121.993 Y95.18 E2.2541
G1 X120.57 Y94.405 E2.33494
G1 X119.8 Y93.985 E2.3787
G1 X118.368 Y93.452 E2.45493
G1 X117.447 Y93.109 E2.50396
G1 X116.052 Y92.807 E2.57517
G1 X114.994 Y92.577 E2.62919
G1 X113.69 Y92.484 E2.69441
G1 X112.49 Y92.398 E2.75443
G1 X111.29 Y92.484 E2.81445
G1 X109.985 Y92.579 E2.87973
G1 X108.926 Y92.81 E2.93381
G1 X107.532 Y93.114 E3.00499
G1 X106.615 Y93.456 E3.05381
G1 X105.181 Y93.992 E3.13019
G1 X104.424 Y94.406 E3.17324
G1 X102.979 Y95.196 E3.2554
G1 X102.371 Y95.651 E3.29329
G1 X100.969 Y96.7 E3.38064
G1 X100.513 Y97.156 E3.41282
G1 X99.194 Y98.476 E3.50591
G1 X98.872 Y98.907 E3.53276
G1 X97.69 Y100.486 E3.63116
G1 X97.49 Y100.852 E3.65197
G1 X96.487 Y102.691 E3.75647
G1 X95.61 Y105.043 E3.88171
G1 X95.077 Y107.496 E4.00694
G1 X94.897 Y110 E4.13219
G1 X95.076 Y112.502 E4.25734
G1 X95.609 Y114.956 E4.38262
G1 X96.486 Y117.308 E4.50786
G1 X97.49 Y119.148 E4.61243
G1 X97.689 Y119.513 E4.63317
G1 X98.871 Y121.092 E4.73157
G1 X99.193 Y121.523 E4.75841
G1 X100.513 Y122.844 E4.85158
G1 X100.968 Y123.299 E4.88369
G1 X102.371 Y124.349 E4.97111
G1 X102.978 Y124.803 E5.00893
G1 X104.424 Y125.593 E5.09114
G1 X105.18 Y126.007 E5.13414
G1 X106.616 Y126.543 E5.21061
G1 X107.531 Y126.885 E5.25934
G1 X108.926 Y127.189 E5.33057
G1 X109.984 Y127.42 E5.3846
G1 X111.305 Y127.515 E5.45068
G1 X112.468 Y127.599 E5.50885
G1 X112.546 Y127.599 E5.51274
M205 X10 Y10
G0 F6000 X112.532 Y127.199
M205 X8 Y8
;TYPE:WALL-OUTER
G1 F1200 X114.936 Y127.027 E5.63298
G1 X117.333 Y126.507 E5.75535
G1 X119.633 Y125.651 E5.87779
G1 X121.783 Y124.479 E5.99995
G1 X121.824 Y124.451 E6.00243
G1 X123.747 Y123.012 E6.12226
G1 X123.784 Y122.979 E6.12473
G1 X125.485 Y121.279 E6.24471
G1 X125.517 Y121.239 E6.24727
G1 X126.957 Y119.316 E6.36712
G1 X126.983 Y119.273 E6.36963
G1 X128.134 Y117.166 E6.48941
G1 X128.155 Y117.12 E6.49193
G1 X128.993 Y114.87 E6.61172
G1 X129.009 Y114.821 E6.61429
G1 X129.518 Y112.474 E6.7341
G1 X129.527 Y112.425 E6.73659
G1 X129.698 Y110.029 E6.85643
G1 X129.699 Y109.978 E6.85898
G1 X129.528 Y107.576 E6.97911
G1 X129.519 Y107.527 E6.9816
G1 X129.01 Y105.18 E7.10141
G1 X128.994 Y105.131 E7.10399
G1 X128.156 Y102.881 E7.22377
G1 X128.135 Y102.835 E7.22629
G1 X126.984 Y100.728 E7.34608
G1 X126.958 Y100.685 E7.34858
G1 X125.518 Y98.762 E7.46844
G1 X125.486 Y98.722 E7.47099
G1 X123.785 Y97.022 E7.59097
G1 X123.748 Y96.989 E7.59345
G1 X121.825 Y95.55 E7.71327
G1 X121.784 Y95.522 E7.71575
G1 X119.634 Y94.35 E7.83792
G1 X117.334 Y93.494 E7.96035
G1 X114.937 Y92.974 E8.08272
G1 X112.49 Y92.799 E8.20511
G1 X110.042 Y92.976 E8.32756
G1 X107.645 Y93.499 E8.44996
G1 X105.348 Y94.357 E8.5723
G1 X103.196 Y95.533 E8.69465
G1 X101.232 Y97.003 E8.81704
G1 X99.497 Y98.739 E8.93948
G1 X98.027 Y100.703 E9.06188
G1 X96.852 Y102.857 E9.18429
G1 X95.995 Y105.156 E9.3067
G1 X95.474 Y107.553 E9.42907
G1 X95.298 Y110 E9.55147
G1 X95.473 Y112.445 E9.67376
G1 X95.994 Y114.843 E9.79619
G1 X96.851 Y117.142 E9.9186
G1 X98.026 Y119.296 E10.04101
G1 X99.496 Y121.26 E10.1634
G1 X101.231 Y122.996 E10.28585
G1 X103.195 Y124.466 E10.40824
G1 X105.347 Y125.642 E10.53059
G1 X107.644 Y126.5 E10.65292
G1 X110.041 Y127.023 E10.77532
G1 X112.482 Y127.199 E10.89742
G1 X112.532 Y127.199 E10.89992
M205 X10 Y10
G0 F6000 X112.731 Y127.185
G0 X112.761 Y127.623
G0 X113.715 Y127.857
M205 X8 Y8
;TYPE:WALL-INNER
G1 F1200 X112.469 Y127.857 E10.94706
G1 X111.281 Y127.858 E10.99184
G1 X109.949 Y127.675 E11.04241
G1 X108.854 Y127.524 E11.08395
G1 X107.462 Y127.133 E11.13821
G1 X106.497 Y126.862 E11.17579
G1 X105.077 Y126.245 E11.23388
G1 X104.262 Y125.891 E11.26727
G1 X102.842 Y125.027 E11.32982
G1 X102.17 Y124.618 E11.35937
G1 X100.802 Y123.504 E11.42541
G1 X100.28 Y123.078 E11.45059
G1 X98.998 Y121.706 E11.52073
G1 X98.609 Y121.289 E11.54213
G1 X97.468 Y119.67 E11.61623
G1 X97.209 Y119.302 E11.63309
G1 X96.079 Y117.125 E11.73256
G1 X95.266 Y114.833 E11.8378
G1 X94.767 Y112.435 E11.94289
G1 X94.601 Y109.995 E12.03675
G1 X94.767 Y107.563 E12.12838
G1 X95.266 Y105.165 E12.2239
G1 X96.078 Y102.876 E12.32171
G1 X97.208 Y100.699 E12.42134
G1 X97.468 Y100.33 E12.43824
G1 X98.609 Y98.711 E12.51246
G1 X98.998 Y98.294 E12.53389
G1 X100.279 Y96.923 E12.604
G1 X100.802 Y96.497 E12.62916
G1 X102.169 Y95.383 E12.69506
G1 X102.843 Y94.973 E12.72465
G1 X104.261 Y94.11 E12.78679
G1 X105.078 Y93.756 E12.82004
G1 X106.496 Y93.139 E12.87767
G1 X107.462 Y92.868 E12.91503
G1 X108.853 Y92.477 E12.96889
G1 X109.95 Y92.326 E13.01024
G1 X111.265 Y92.144 E13.05975
G1 X112.489 Y92.143 E13.10543
G1 X113.714 Y92.142 E13.1513
G1 X115.028 Y92.322 E13.20109
G1 X116.124 Y92.472 E13.24268
G1 X117.516 Y92.861 E13.29692
G1 X118.486 Y93.133 E13.33468
G1 X119.902 Y93.747 E13.39249
G1 X120.731 Y94.107 E13.42633
G1 X122.196 Y94.997 E13.49237
G1 X122.817 Y95.374 E13.51985
G1 X124.229 Y96.522 E13.5899
G1 X124.713 Y96.916 E13.61343
G1 X126.034 Y98.329 E13.68631
G1 X126.38 Y98.7 E13.70558
G1 X127.512 Y100.303 E13.77913
G1 X127.786 Y100.691 E13.79927
G1 X128.918 Y102.876 E13.89605
G1 X129.733 Y105.17 E13.99049
G1 X130.231 Y107.571 E14.09186
G1 X130.398 Y110.009 E14.18458
G1 X130.233 Y112.42 E14.27832
G1 X129.734 Y114.829 E14.38719
G1 X128.919 Y117.123 E14.48206
G1 X127.789 Y119.305 E14.57915
G1 X127.512 Y119.697 E14.59954
G1 X126.377 Y121.303 E14.67311
G1 X125.979 Y121.729 E14.69568
G1 X124.708 Y123.089 E14.76534
G1 X124.168 Y123.528 E14.79252
G1 X122.818 Y124.625 E14.85784
G1 X122.128 Y125.044 E14.88937
G1 X120.718 Y125.9 E14.95113
G1 X119.902 Y126.253 E14.98438
G1 X118.487 Y126.866 E15.04194
G1 X117.515 Y127.138 E15.07954
G1 X116.125 Y127.527 E15.13326
G1 X115.028 Y127.677 E15.17453
G1 X113.715 Y127.857 E15.22388
M205 X10 Y10
G0 F6000 X113.74 Y128.257
M205 X8 Y8
;TYPE:WALL-OUTER
G1 F1200 X111.276 Y128.258 E15.34681
G1 X111.24 Y128.256 E15.3486
G1 X108.772 Y127.916 E15.4729
G1 X106.359 Y127.239 E15.59793
G1 X104.078 Y126.247 E15.72203
G1 X101.939 Y124.946 E15.84693
G1 X100.008 Y123.373 E15.97119
G1 X98.298 Y121.541 E16.09621
G1 X96.866 Y119.51 E16.22019
G1 X95.711 Y117.283 E16.34535
G1 X94.879 Y114.94 E16.4694
G1 X94.37 Y112.492 E16.59414
G1 X94.2 Y109.995 E16.71901
G1 X94.37 Y107.504 E16.84357
G1 X94.879 Y105.059 E16.96817
G1 X95.71 Y102.718 E17.0921
G1 X96.865 Y100.491 E17.21726
G1 X98.298 Y98.458 E17.34135
G1 X100.007 Y96.628 E17.46627
G1 X101.938 Y95.055 E17.59053
G1 X104.077 Y93.754 E17.71543
G1 X106.358 Y92.762 E17.83953
G1 X108.771 Y92.085 E17.96456
G1 X111.239 Y91.744 E18.08886
G1 X113.739 Y91.742 E18.21359
G1 X116.207 Y92.08 E18.33786
G1 X118.621 Y92.755 E18.46292
G1 X120.902 Y93.744 E18.58695
G1 X120.935 Y93.762 E18.58883
G1 X123.043 Y95.043 E18.71189
G1 X124.979 Y96.617 E18.83638
G1 X124.996 Y96.633 E18.83754
G1 X126.685 Y98.441 E18.96098
G1 X126.704 Y98.465 E18.96251
G1 X128.127 Y100.479 E19.08553
G1 X129.281 Y102.707 E19.21072
G1 X129.291 Y102.73 E19.21197
G1 X130.114 Y105.046 E19.33459
G1 X130.124 Y105.082 E19.33645
G1 X130.628 Y107.514 E19.46037
G1 X130.799 Y110.009 E19.58513
G1 X130.63 Y112.477 E19.70855
G1 X130.125 Y114.917 E19.83286
G1 X130.115 Y114.953 E19.83473
G1 X129.292 Y117.269 E19.95735
G1 X129.282 Y117.292 E19.9586
G1 X128.13 Y119.517 E20.0836
G1 X126.704 Y121.534 E20.20684
G1 X126.686 Y121.558 E20.20834
G1 X125.004 Y123.359 E20.33128
G1 X124.98 Y123.382 E20.33294
G1 X123.044 Y124.956 E20.45742
G1 X120.904 Y126.255 E20.58232
G1 X118.622 Y127.244 E20.7064
G1 X116.208 Y127.919 E20.83145
G1 X113.74 Y128.257 E20.95573
M205 X10 Y10
G0 F6000 X113.54 Y128.257
G0 X113.541 Y127.817
;MESH:NONMESH
G0 F600 X113.541 Y127.817 Z0.5
G0 F6000 X112.597 Y127.597
;TIME_ELAPSED:25.058410
;LAYER:1
M106 S127.5
M205 X8 Y8
;TYPE:WALL-INNER
;MESH:sauger-aufsatz-neu.stl
G1 F1350 X113.749 Y127.515 E20.99414
G1 X114.968 Y127.427 E21.03479
G1 X115.103 Y127.402 E21.03936
G1 X116.048 Y127.197 E21.07152
G1 X117.418 Y126.899 E21.11815
G1 X117.549 Y126.856 E21.12274
G1 X118.422 Y126.531 E21.15372
G1 X119.768 Y126.029 E21.2015
G1 X119.893 Y125.969 E21.20612
G1 X120.606 Y125.58 E21.23313
G1 X121.977 Y124.831 E21.28509
G1 X122.09 Y124.753 E21.28966
G1 X122.662 Y124.325 E21.31342
G1 X123.985 Y123.335 E21.36838
G1 X124.089 Y123.242 E21.37302
G1 X124.501 Y122.83 E21.3924
G1 X125.763 Y121.568 E21.45176
G1 X125.852 Y121.462 E21.45636
G1 X126.146 Y121.069 E21.47269
G1 X127.272 Y119.564 E21.5352
G1 X127.346 Y119.447 E21.53981
G1 X128.482 Y117.367 E21.61863
G1 X128.538 Y117.239 E21.62328
G1 X129.366 Y115.018 E21.70212
G1 X129.404 Y114.886 E21.70668
G1 X129.908 Y112.572 E21.78545
G1 X129.928 Y112.436 E21.79003
G1 X130.097 Y110.072 E21.86885
G1 X130.098 Y109.935 E21.87341
G1 X129.929 Y107.565 E21.95244
G1 X129.909 Y107.429 E21.95701
G1 X129.405 Y105.115 E22.03578
G1 X129.367 Y104.983 E22.04035
G1 X128.539 Y102.762 E22.11918
G1 X128.483 Y102.634 E22.12383
G1 X127.347 Y100.554 E22.20266
G1 X127.273 Y100.437 E22.20726
G1 X126.106 Y98.877 E22.27206
G1 X125.853 Y98.539 E22.2861
G1 X125.764 Y98.433 E22.2907
G1 X124.469 Y97.138 E22.35162
G1 X124.09 Y96.759 E22.36944
G1 X123.986 Y96.666 E22.37408
G1 X122.602 Y95.631 E22.43156
G1 X122.091 Y95.248 E22.4528
G1 X121.978 Y95.17 E22.45737
G1 X120.551 Y94.391 E22.51144
G1 X119.894 Y94.032 E22.53635
G1 X119.769 Y93.972 E22.54096
G1 X118.359 Y93.447 E22.591
G1 X117.55 Y93.145 E22.61972
G1 X117.419 Y93.102 E22.62431
G1 X116.048 Y92.804 E22.67097
G1 X115.104 Y92.599 E22.7031
G1 X114.969 Y92.574 E22.70767
G1 X113.68 Y92.482 E22.75065
G1 X112.604 Y92.405 E22.78653
G1 X112.466 Y92.399 E22.79112
G1 X111.279 Y92.483 E22.8307
G1 X110.101 Y92.568 E22.86998
G1 X109.963 Y92.582 E22.8746
G1 X108.924 Y92.808 E22.90996
G1 X107.645 Y93.087 E22.9535
G1 X107.512 Y93.121 E22.95807
G1 X106.609 Y93.457 E22.99011
G1 X105.292 Y93.948 E23.03686
G1 X105.164 Y94 E23.04146
G1 X104.422 Y94.405 E23.06957
G1 X103.084 Y95.136 E23.12028
G1 X102.964 Y95.206 E23.1249
G1 X102.371 Y95.649 E23.14952
G1 X101.066 Y96.625 E23.20372
G1 X100.958 Y96.711 E23.20832
G1 X100.509 Y97.16 E23.22944
G1 X99.189 Y98.482 E23.29157
G1 X98.87 Y98.909 E23.3093
G1 X97.686 Y100.491 E23.37502
G1 X97.487 Y100.857 E23.38888
G1 X96.486 Y102.695 E23.45849
G1 X95.609 Y105.046 E23.54195
G1 X95.077 Y107.498 E23.6254
G1 X94.897 Y110 E23.70883
G1 X95.076 Y112.501 E23.79223
G1 X95.608 Y114.953 E23.87568
G1 X96.485 Y117.304 E23.95913
G1 X97.486 Y119.143 E24.02877
G1 X97.685 Y119.508 E24.0426
G1 X98.87 Y121.091 E24.10837
G1 X99.188 Y121.517 E24.12605
G1 X100.558 Y122.888 E24.19051
G1 X100.957 Y123.288 E24.20931
G1 X101.065 Y123.374 E24.2139
G1 X102.371 Y124.35 E24.26813
G1 X102.963 Y124.793 E24.29272
G1 X103.083 Y124.863 E24.29734
G1 X104.467 Y125.618 E24.34977
G1 X105.163 Y125.999 E24.37617
G1 X105.291 Y126.051 E24.38076
G1 X106.61 Y126.542 E24.42757
G1 X107.511 Y126.878 E24.45955
G1 X107.644 Y126.912 E24.46412
G1 X108.977 Y127.202 E24.50949
G1 X109.962 Y127.417 E24.54303
G1 X110.1 Y127.431 E24.54764
G1 X111.361 Y127.52 E24.58968
G1 X112.459 Y127.599 E24.6263
G1 X112.597 Y127.597 E24.63089
M205 X10 Y10
G0 F6000 X112.579 Y127.197
M205 X8 Y8
;TYPE:WALL-OUTER
G1 F1350 X114.917 Y127.03 E24.70885
G1 X115.024 Y127.01 E24.71247
G1 X117.313 Y126.512 E24.79038
G1 X117.417 Y126.478 E24.79402
G1 X119.611 Y125.661 E24.87189
G1 X119.71 Y125.613 E24.87555
G1 X121.767 Y124.49 E24.9535
G1 X121.857 Y124.428 E24.95713
G1 X123.731 Y123.026 E25.03497
G1 X123.813 Y122.952 E25.03865
G1 X125.468 Y121.297 E25.11649
G1 X125.539 Y121.213 E25.12015
G1 X126.942 Y119.337 E25.19807
G1 X127.001 Y119.244 E25.20173
G1 X128.123 Y117.189 E25.2796
G1 X128.168 Y117.088 E25.28328
G1 X128.986 Y114.893 E25.36119
G1 X129.016 Y114.788 E25.36483
G1 X129.514 Y112.5 E25.44271
G1 X129.53 Y112.392 E25.44634
G1 X129.697 Y110.056 E25.52423
G1 X129.698 Y109.947 E25.52786
G1 X129.531 Y107.609 E25.60582
G1 X129.515 Y107.501 E25.60945
G1 X129.017 Y105.213 E25.68733
G1 X128.987 Y105.108 E25.69096
G1 X128.169 Y102.913 E25.76887
G1 X128.124 Y102.812 E25.77255
G1 X127.002 Y100.757 E25.85042
G1 X126.943 Y100.664 E25.85409
G1 X125.54 Y98.788 E25.932
G1 X125.469 Y98.704 E25.93566
G1 X123.814 Y97.049 E26.01351
G1 X123.732 Y96.975 E26.01718
G1 X121.858 Y95.573 E26.09502
G1 X121.768 Y95.511 E26.09866
G1 X119.711 Y94.388 E26.1766
G1 X119.612 Y94.34 E26.18026
G1 X117.418 Y93.523 E26.25813
G1 X117.314 Y93.489 E26.26177
G1 X115.025 Y92.991 E26.33968
G1 X114.918 Y92.971 E26.34331
G1 X112.582 Y92.804 E26.4212
G1 X112.473 Y92.8 E26.42483
G1 X110.135 Y92.967 E26.50279
G1 X110.026 Y92.978 E26.50643
G1 X107.737 Y93.476 E26.58434
G1 X107.632 Y93.503 E26.58795
G1 X105.437 Y94.321 E26.66586
G1 X105.336 Y94.362 E26.66949
G1 X103.28 Y95.485 E26.74741
G1 X103.185 Y95.54 E26.75106
G1 X101.31 Y96.942 E26.82893
G1 X101.224 Y97.01 E26.83257
G1 X99.492 Y98.744 E26.91409
G1 X98.024 Y100.708 E26.99564
G1 X96.851 Y102.861 E27.07719
G1 X95.994 Y105.159 E27.15876
G1 X95.474 Y107.555 E27.24031
G1 X95.298 Y110 E27.32184
G1 X95.473 Y112.444 E27.40334
G1 X95.993 Y114.84 E27.48488
G1 X96.85 Y117.138 E27.56646
G1 X98.023 Y119.291 E27.648
G1 X99.491 Y121.255 E27.72956
G1 X101.223 Y122.989 E27.81107
G1 X101.309 Y123.057 E27.81472
G1 X103.184 Y124.459 E27.89259
G1 X103.279 Y124.514 E27.89624
G1 X105.335 Y125.637 E27.97416
G1 X105.436 Y125.678 E27.97778
G1 X107.631 Y126.496 E28.05569
G1 X107.736 Y126.523 E28.0593
G1 X110.025 Y127.021 E28.13721
