;FLAVOR:Marlin
;TIME:3771
;Filament used: 2.76615m
;Layer height: 0.2
;MINX:60.7
;MINY:58.216
;MINZ:0.3
;MAXX:164.3
;MAXY:161.784
;MAXZ:8.1
;Generated with Cura_SteamEngine 4.13.1
M140 S60
M105
M190 S60
M104 S200
M105
M109 S200
M82 ;absolute extrusion mode
G21                                        ; metric values
G90                                        ; absolute positioning
M82                                        ; set extruder to absolute mode
M107                                       ; start with the fan off
M190 S60                                   ; preheat and wait for bed
M109 S210                                  ; preheat and wait for hotend
M300 S1000 P500                            ; BEEP heating done
G28 X0 Y10 Z0                              ; move X/Y to min endstops
M420 S1                                    ; enable mesh leveling
G0 Z0.15                                   ; lift nozzle a bit
G0 X2                                      ; move away from clips
G92 E0                                     ; zero the extruded length
G1 Y50 E25 F500                            ; Extrude 25mm of filament in a 5cm line.
G92 E0                                     ; zero the extruded length again
G1 E-2 F500                                ; Retract a little
G1 Y120 F4000                              ; Quickly wipe away from the filament line
G92 E0
G92 E0
G1 F1500 E-6
;LAYER_COUNT:40
;LAYER:0
M106 S76.5
M205 X10 Y10
G1 F600 Z0.375
;MESH:deckel-verbindung.stl
G0 F6000 X108.838 Y158.864 Z0.375
M205 X8 Y8
;TYPE:WALL-INNER
G1 F600 Z0.3
G1 F1500 E0
G1 F1200 X111.278 Y158.985 E0.12188
G1 X113.722 Y158.985 E0.24381
G1 X116.162 Y158.864 E0.3657
G1 X118.593 Y158.62 E0.48759
G1 X121.008 Y158.256 E0.60943
G1 X123.404 Y157.772 E0.73138
G1 X125.77 Y157.169 E0.8532
G1 X128.105 Y156.449 E0.9751
G1 X130.401 Y155.612 E1.09703
G1 X132.653 Y154.664 E1.21893
G1 X134.855 Y153.604 E1.34085
G1 X137 Y152.436 E1.4627
G1 X139.085 Y151.161 E1.58463
G1 X141.105 Y149.785 E1.70657
G1 X143.053 Y148.31 E1.82847
G1 X144.923 Y146.739 E1.95032
G1 X146.713 Y145.077 E2.07218
G1 X148.419 Y143.328 E2.19408
G1 X150.036 Y141.497 E2.31595
G1 X151.559 Y139.588 E2.43779
G1 X152.986 Y137.602 E2.55979
G1 X154.311 Y135.551 E2.68161
G1 X155.533 Y133.434 E2.80356
G1 X156.649 Y131.261 E2.92544
G1 X157.653 Y129.033 E3.04736
G1 X158.545 Y126.759 E3.16922
G1 X159.322 Y124.443 E3.2911
G1 X159.986 Y122.091 E3.41303
G1 X160.528 Y119.709 E3.5349
G1 X160.954 Y117.304 E3.65676
G1 X161.256 Y114.879 E3.77867
G1 X161.44 Y112.443 E3.90055
G1 X161.5 Y110 E4.02247
G1 X161.44 Y107.557 E4.14439
G1 X161.256 Y105.121 E4.26627
G1 X160.954 Y102.696 E4.38819
G1 X160.528 Y100.291 E4.51004
G1 X159.986 Y97.909 E4.63192
G1 X159.322 Y95.557 E4.75384
G1 X158.545 Y93.241 E4.87572
G1 X157.653 Y90.967 E4.99759
G1 X156.649 Y88.739 E5.11951
G1 X155.533 Y86.566 E5.24138
G1 X154.311 Y84.449 E5.36333
G1 X152.986 Y82.398 E5.48515
G1 X151.559 Y80.412 E5.60716
G1 X150.036 Y78.503 E5.72899
G1 X148.419 Y76.672 E5.85086
G1 X146.713 Y74.923 E5.97276
G1 X144.923 Y73.261 E6.09462
G1 X143.053 Y71.69 E6.21647
G1 X141.105 Y70.215 E6.33837
G1 X139.085 Y68.839 E6.46031
G1 X137 Y67.564 E6.58224
G1 X134.855 Y66.396 E6.70409
G1 X132.653 Y65.336 E6.82601
G1 X130.401 Y64.388 E6.94792
G1 X128.105 Y63.551 E7.06984
G1 X125.77 Y62.831 E7.19174
G1 X123.404 Y62.228 E7.31356
G1 X121.008 Y61.744 E7.43551
G1 X118.593 Y61.38 E7.55735
G1 X116.162 Y61.136 E7.67925
G1 X113.722 Y61.015 E7.80113
G1 X111.278 Y61.015 E7.92306
G1 X108.838 Y61.136 E8.04494
G1 X106.407 Y61.38 E8.16683
G1 X103.992 Y61.744 E8.28868
G1 X101.596 Y62.228 E8.41063
G1 X99.23 Y62.831 E8.53244
G1 X96.895 Y63.551 E8.65435
G1 X94.599 Y64.388 E8.77627
G1 X92.347 Y65.336 E8.89817
G1 X90.145 Y66.396 E9.0201
G1 X88 Y67.564 E9.14195
G1 X85.915 Y68.839 E9.26388
G1 X83.895 Y70.215 E9.38582
G1 X81.947 Y71.69 E9.50772
G1 X80.077 Y73.261 E9.62957
G1 X78.287 Y74.923 E9.75143
G1 X76.581 Y76.672 E9.87332
G1 X74.964 Y78.503 E9.9952
G1 X73.441 Y80.412 E10.11703
G1 X72.014 Y82.398 E10.23904
G1 X70.689 Y84.449 E10.36086
G1 X69.467 Y86.566 E10.48281
G1 X68.351 Y88.739 E10.60468
G1 X67.347 Y90.967 E10.7266
G1 X66.455 Y93.241 E10.84847
G1 X65.678 Y95.557 E10.97034
G1 X65.014 Y97.909 E11.09227
G1 X64.472 Y100.291 E11.21415
G1 X64.046 Y102.696 E11.336
G1 X63.744 Y105.121 E11.45792
G1 X63.56 Y107.557 E11.5798
G1 X63.5 Y110 E11.70172
G1 X63.56 Y112.443 E11.82364
G1 X63.744 Y114.879 E11.94551
G1 X64.046 Y117.304 E12.06743
G1 X64.472 Y119.709 E12.18929
G1 X65.014 Y122.091 E12.31116
G1 X65.678 Y124.443 E12.43309
G1 X66.455 Y126.759 E12.55497
G1 X67.347 Y129.033 E12.67683
G1 X68.351 Y131.261 E12.79875
G1 X69.467 Y133.434 E12.92063
G1 X70.689 Y135.551 E13.04258
G1 X72.014 Y137.602 E13.1644
G1 X73.441 Y139.588 E13.2864
G1 X74.964 Y141.497 E13.40824
G1 X76.581 Y143.328 E13.53011
G1 X78.287 Y145.077 E13.65201
G1 X80.077 Y146.739 E13.77387
G1 X81.947 Y148.31 E13.89572
G1 X83.895 Y149.785 E14.01762
G1 X85.915 Y151.161 E14.13956
G1 X88 Y152.436 E14.26149
G1 X90.145 Y153.604 E14.38334
G1 X92.347 Y154.664 E14.50526
G1 X94.599 Y155.612 E14.62716
G1 X96.895 Y156.449 E14.74908
G1 X99.23 Y157.169 E14.87099
G1 X101.596 Y157.772 E14.9928
G1 X103.992 Y158.256 E15.11476
G1 X106.407 Y158.62 E15.2366
G1 X108.838 Y158.864 E15.35849
M205 X10 Y10
G0 F6000 X108.868 Y158.465
M205 X8 Y8
G1 F1200 X111.288 Y158.585 E15.47938
G1 X113.712 Y158.585 E15.60031
G1 X116.132 Y158.465 E15.72119
G1 X118.543 Y158.223 E15.84208
G1 X120.939 Y157.862 E15.96297
G1 X123.315 Y157.382 E16.0839
G1 X125.662 Y156.784 E16.20474
G1 X127.978 Y156.07 E16.32565
G1 X130.255 Y155.24 E16.44656
G1 X132.489 Y154.299 E16.5675
G1 X134.672 Y153.248 E16.68837
G1 X136.8 Y152.089 E16.80926
G1 X138.868 Y150.825 E16.93018
G1 X140.871 Y149.46 E17.05111
G1 X142.803 Y147.997 E17.17202
G1 X144.658 Y146.439 E17.29287
G1 X146.434 Y144.791 E17.41375
G1 X148.126 Y143.056 E17.53466
G1 X149.73 Y141.24 E17.65554
G1 X151.24 Y139.346 E17.77638
G1 X152.655 Y137.377 E17.89735
G1 X153.97 Y135.342 E18.01823
G1 X155.182 Y133.243 E18.13916
G1 X156.288 Y131.087 E18.26005
G1 X157.284 Y128.878 E18.38094
G1 X158.169 Y126.622 E18.50184
G1 X158.94 Y124.325 E18.62272
G1 X159.598 Y121.992 E18.74366
G1 X160.136 Y119.63 E18.86452
G1 X160.558 Y117.244 E18.9854
G1 X160.858 Y114.839 E19.10632
G1 X161.04 Y112.423 E19.22719
G1 X161.1 Y110 E19.34811
G1 X161.04 Y107.577 E19.46904
G1 X160.858 Y105.161 E19.58991
G1 X160.558 Y102.756 E19.71083
G1 X160.136 Y100.37 E19.83171
G1 X159.598 Y98.008 E19.95257
G1 X158.94 Y95.675 E20.07351
G1 X158.169 Y93.378 E20.19439
G1 X157.284 Y91.122 E20.31529
G1 X156.288 Y88.913 E20.43618
G1 X155.182 Y86.757 E20.55707
G1 X153.97 Y84.658 E20.678
G1 X152.655 Y82.623 E20.79887
G1 X151.24 Y80.654 E20.91984
G1 X149.73 Y78.76 E21.04069
G1 X148.126 Y76.944 E21.16157
G1 X146.434 Y75.209 E21.28248
G1 X144.658 Y73.561 E21.40335
G1 X142.803 Y72.003 E21.52421
G1 X140.871 Y70.54 E21.64512
G1 X138.868 Y69.175 E21.76604
G1 X136.8 Y67.911 E21.88696
G1 X134.672 Y66.752 E22.00786
G1 X132.489 Y65.701 E22.12873
G1 X130.255 Y64.76 E22.24967
G1 X127.978 Y63.93 E22.37058
G1 X125.662 Y63.216 E22.49149
G1 X123.315 Y62.618 E22.61233
G1 X120.939 Y62.138 E22.73326
G1 X118.543 Y61.777 E22.85415
G1 X116.132 Y61.535 E22.97504
G1 X113.712 Y61.415 E23.09592
G1 X111.288 Y61.415 E23.21685
G1 X108.868 Y61.535 E23.33774
G1 X106.457 Y61.777 E23.45862
G1 X104.061 Y62.138 E23.57951
G1 X101.685 Y62.618 E23.70044
G1 X99.338 Y63.216 E23.82128
G1 X97.022 Y63.93 E23.94219
G1 X94.745 Y64.76 E24.0631
G1 X92.511 Y65.701 E24.18404
G1 X90.328 Y66.752 E24.30492
G1 X88.2 Y67.911 E24.42581
G1 X86.132 Y69.175 E24.54673
G1 X84.129 Y70.54 E24.66765
G1 X82.197 Y72.003 E24.78856
G1 X80.342 Y73.561 E24.90942
G1 X78.566 Y75.209 E25.03029
G1 X76.874 Y76.944 E25.1512
G1 X75.27 Y78.76 E25.27208
G1 X73.76 Y80.654 E25.39293
G1 X72.345 Y82.623 E25.5139
G1 X71.03 Y84.658 E25.63478
G1 X69.818 Y86.757 E25.7557
G1 X68.712 Y88.913 E25.87659
G1 X67.716 Y91.122 E25.99748
G1 X66.831 Y93.378 E26.11838
G1 X66.06 Y95.675 E26.23926
G1 X65.402 Y98.008 E26.3602
G1 X64.864 Y100.37 E26.48106
G1 X64.442 Y102.756 E26.60194
G1 X64.142 Y105.161 E26.72286
G1 X63.96 Y107.577 E26.84374
G1 X63.9 Y110 E26.96466
G1 X63.96 Y112.423 E27.08558
G1 X64.142 Y114.839 E27.20645
G1 X64.442 Y117.244 E27.32737
G1 X64.864 Y119.63 E27.44826
G1 X65.402 Y121.992 E27.56911
G1 X66.06 Y124.325 E27.69005
G1 X66.831 Y126.622 E27.81093
G1 X67.716 Y128.878 E27.93183
G1 X68.712 Y131.087 E28.05272
G1 X69.818 Y133.243 E28.17362
G1 X71.03 Y135.342 E28.29454
G1 X72.345 Y137.377 E28.41542
G1 X73.76 Y139.346 E28.53639
G1 X75.27 Y141.24 E28.65723
G1 X76.874 Y143.056 E28.77811
G1 X78.566 Y144.791 E28.89902
G1 X80.342 Y146.439 E29.0199
G1 X82.197 Y147.997 E29.14075
G1 X84.129 Y149.46 E29.26166
G1 X86.132 Y150.825 E29.38259
G1 X88.2 Y152.089 E29.50351
G1 X90.328 Y153.248 E29.6244
G1 X92.511 Y154.299 E29.74527
G1 X94.745 Y155.24 E29.86621
G1 X97.022 Y156.07 E29.98712
G1 X99.338 Y156.784 E30.10804
G1 X101.685 Y157.382 E30.22887
G1 X104.061 Y157.862 E30.3498
G1 X106.457 Y158.223 E30.47069
G1 X108.868 Y158.465 E30.59158
M205 X10 Y10
G0 F6000 X108.898 Y158.066
M205 X8 Y8
;TYPE:WALL-OUTER
G1 F1200 X111.298 Y158.185 E30.71146
G1 X113.702 Y158.185 E30.8314
G1 X116.102 Y158.066 E30.95128
G1 X118.493 Y157.826 E31.07117
G1 X120.87 Y157.468 E31.19109
G1 X123.226 Y156.992 E31.31101
G1 X125.554 Y156.399 E31.43086
G1 X127.851 Y155.691 E31.55078
G1 X130.109 Y154.868 E31.67068
G1 X132.324 Y153.934 E31.79061
G1 X134.489 Y152.892 E31.91048
G1 X136.6 Y151.742 E32.03042
G1 X138.651 Y150.489 E32.15033
G1 X140.637 Y149.135 E32.27024
G1 X142.553 Y147.684 E32.39015
G1 X144.393 Y146.139 E32.51002
G1 X146.155 Y144.505 E32.62991
G1 X147.833 Y142.784 E32.74983
G1 X149.423 Y140.983 E32.86968
G1 X150.921 Y139.104 E32.98957
G1 X152.324 Y137.152 E33.1095
G1 X153.629 Y135.133 E33.22944
G1 X154.831 Y133.052 E33.34934
G1 X155.927 Y130.913 E33.46925
G1 X156.915 Y128.723 E33.58911
G1 X157.793 Y126.485 E33.70905
G1 X158.558 Y124.207 E33.82894
G1 X159.21 Y121.893 E33.94888
G1 X159.744 Y119.551 E34.06872
G1 X160.162 Y117.184 E34.18864
G1 X160.46 Y114.799 E34.30855
G1 X160.64 Y112.403 E34.42842
G1 X160.7 Y110 E34.54835
G1 X160.64 Y107.597 E34.66827
G1 X160.46 Y105.201 E34.78814
G1 X160.162 Y102.816 E34.90806
G1 X159.744 Y100.449 E35.02797
G1 X159.21 Y98.107 E35.14782
G1 X158.558 Y95.793 E35.26776
G1 X157.793 Y93.515 E35.38764
G1 X156.915 Y91.277 E35.50758
G1 X155.927 Y89.087 E35.62745
G1 X154.831 Y86.948 E35.74736
G1 X153.629 Y84.867 E35.86725
G1 X152.324 Y82.848 E35.98719
G1 X150.921 Y80.896 E36.10712
G1 X149.423 Y79.017 E36.22701
G1 X147.833 Y77.216 E36.34687
G1 X146.155 Y75.495 E36.46679
G1 X144.393 Y73.861 E36.58667
G1 X142.553 Y72.316 E36.70654
G1 X140.637 Y70.865 E36.82645
G1 X138.651 Y69.511 E36.94637
G1 X136.6 Y68.258 E37.06628
G1 X134.489 Y67.108 E37.18621
G1 X132.324 Y66.066 E37.30608
G1 X130.109 Y65.132 E37.42601
G1 X127.851 Y64.309 E37.54591
G1 X125.554 Y63.601 E37.66583
G1 X123.226 Y63.008 E37.78568
G1 X120.87 Y62.532 E37.9056
G1 X118.493 Y62.174 E38.02552
G1 X116.102 Y61.934 E38.14541
G1 X113.702 Y61.815 E38.26529
G1 X111.298 Y61.815 E38.38523
G1 X108.898 Y61.934 E38.50511
G1 X106.507 Y62.174 E38.625
G1 X104.13 Y62.532 E38.74493
G1 X101.774 Y63.008 E38.86484
G1 X99.446 Y63.601 E38.9847
G1 X97.149 Y64.309 E39.10461
G1 X94.891 Y65.132 E39.22452
G1 X92.676 Y66.066 E39.34445
G1 X90.511 Y67.108 E39.46432
G1 X88.4 Y68.258 E39.58425
G1 X86.349 Y69.511 E39.70416
G1 X84.363 Y70.865 E39.82408
G1 X82.447 Y72.316 E39.94398
G1 X80.607 Y73.861 E40.06385
G1 X78.845 Y75.495 E40.18374
G1 X77.167 Y77.216 E40.30366
G1 X75.577 Y79.017 E40.42352
G1 X74.079 Y80.896 E40.54341
G1 X72.676 Y82.848 E40.66334
G1 X71.371 Y84.867 E40.78327
G1 X70.169 Y86.948 E40.90317
G1 X69.073 Y89.087 E41.02308
G1 X68.085 Y91.277 E41.14294
G1 X67.207 Y93.515 E41.26288
G1 X66.442 Y95.793 E41.38277
G1 X65.79 Y98.107 E41.50271
G1 X65.256 Y100.449 E41.62255
G1 X64.838 Y102.816 E41.74247
G1 X64.54 Y105.201 E41.86238
G1 X64.36 Y107.597 E41.98226
G1 X64.3 Y110 E42.10218
G1 X64.36 Y112.403 E42.2221
G1 X64.54 Y114.799 E42.34198
G1 X64.838 Y117.184 E42.46189
G1 X65.256 Y119.551 E42.58181
G1 X65.79 Y121.893 E42.70165
G1 X66.442 Y124.207 E42.82159
G1 X67.207 Y126.485 E42.94148
G1 X68.085 Y128.723 E43.06142
G1 X69.073 Y130.913 E43.18128
G1 X70.169 Y133.052 E43.30119
G1 X71.371 Y135.133 E43.42108
G1 X72.676 Y137.152 E43.54102
G1 X74.079 Y139.104 E43.66095
G1 X75.577 Y140.983 E43.78084
G1 X77.167 Y142.784 E43.9007
G1 X78.845 Y144.505 E44.02062
G1 X80.607 Y146.139 E44.14051
G1 X82.447 Y147.684 E44.26037
G1 X84.363 Y149.135 E44.38028
G1 X86.349 Y150.489 E44.5002
G1 X88.4 Y151.742 E44.62011
G1 X90.511 Y152.892 E44.74004
G1 X92.676 Y153.934 E44.85991
G1 X94.891 Y154.868 E44.97984
G1 X97.149 Y155.691 E45.09974
G1 X99.446 Y156.399 E45.21966
G1 X101.774 Y156.992 E45.33951
G1 X104.13 Y157.468 E45.45943
G1 X106.507 Y157.826 E45.57936
G1 X108.898 Y158.066 E45.69924
M205 X10 Y10
G0 F6000 X109.097 Y158.075
G0 X109.075 Y158.514
G1 F1500 E39.69924
G1 F600 Z0.375
G0 F6000 X113.746 Y160.984 Z0.375
M205 X8 Y8
;TYPE:WALL-INNER
G1 F600 Z0.3
G1 F1500 E45.69924
G1 F1200 X111.254 Y160.984 E45.82357
G1 X108.664 Y160.855 E45.95295
G1 X106.184 Y160.606 E46.0773
G1 X103.62 Y160.22 E46.20666
G1 X101.175 Y159.725 E46.33111
G1 X98.663 Y159.086 E46.46043
G1 X96.271 Y158.349 E46.5853
G1 X93.868 Y157.474 E46.71289
G1 X91.507 Y156.478 E46.84073
G1 X89.221 Y155.377 E46.96732
G1 X87.008 Y154.171 E47.09305
G1 X84.836 Y152.844 E47.22004
G1 X82.732 Y151.41 E47.34707
G1 X80.691 Y149.863 E47.47484
G1 X78.752 Y148.238 E47.60106
G1 X76.872 Y146.492 E47.72906
G1 X75.124 Y144.699 E47.85399
G1 X73.416 Y142.763 E47.98279
G1 X71.841 Y140.787 E48.10886
G1 X70.368 Y138.736 E48.23484
G1 X68.969 Y136.572 E48.3634
G1 X67.711 Y134.393 E48.48893
G1 X66.558 Y132.141 E48.61515
G1 X65.495 Y129.787 E48.74401
G1 X64.578 Y127.451 E48.86921
G1 X63.766 Y125.033 E48.99647
G1 X63.079 Y122.587 E49.12322
G1 X62.506 Y120.081 E49.25147
G1 X62.07 Y117.601 E49.3771
G1 X61.752 Y115.073 E49.50421
G1 X61.563 Y112.527 E49.63158
G1 X61.5 Y109.995 E49.75794
G1 X61.563 Y107.473 E49.88381
G1 X61.752 Y104.927 E50.01118
G1 X62.072 Y102.385 E50.139
G1 X62.506 Y99.919 E50.26392
G1 X63.081 Y97.401 E50.39278
G1 X63.77 Y94.953 E50.51965
G1 X64.584 Y92.533 E50.64703
G1 X65.495 Y90.213 E50.77138
G1 X66.558 Y87.859 E50.90024
G1 X67.717 Y85.595 E51.02713
G1 X68.969 Y83.428 E51.15199
G1 X70.376 Y81.25 E51.28136
G1 X71.843 Y79.209 E51.40676
G1 X73.416 Y77.237 E51.5326
G1 X75.124 Y75.301 E51.66141
G1 X76.872 Y73.508 E51.78634
G1 X78.757 Y71.758 E51.91466
G1 X80.691 Y70.137 E52.04056
G1 X82.732 Y68.59 E52.16833
G1 X84.842 Y67.152 E52.29572
G1 X87.014 Y65.825 E52.4227
G1 X89.221 Y64.623 E52.54808
G1 X91.51 Y63.52 E52.67485
G1 X93.868 Y62.526 E52.80251
G1 X96.277 Y61.649 E52.93042
G1 X98.663 Y60.914 E53.05497
G1 X101.173 Y60.275 E53.18419
G1 X103.62 Y59.78 E53.30875
G1 X106.184 Y59.394 E53.43811
G1 X108.664 Y59.145 E53.56246
G1 X111.254 Y59.016 E53.69183
G1 X113.746 Y59.016 E53.81616
G1 X116.336 Y59.145 E53.94553
G1 X118.816 Y59.394 E54.06988
G1 X121.38 Y59.78 E54.19924
G1 X123.827 Y60.275 E54.3238
G1 X126.337 Y60.914 E54.45302
G1 X128.723 Y61.649 E54.57757
G1 X131.132 Y62.526 E54.70548
G1 X133.49 Y63.52 E54.83314
G1 X135.779 Y64.623 E54.95991
G1 X137.986 Y65.825 E55.08529
G1 X140.158 Y67.152 E55.21227
G1 X142.268 Y68.59 E55.33966
G1 X144.309 Y70.137 E55.46743
G1 X146.243 Y71.758 E55.59333
G1 X148.128 Y73.508 E55.72165
G1 X149.876 Y75.301 E55.84658
G1 X151.578 Y77.23 E55.97493
G1 X153.157 Y79.209 E56.10123
G1 X154.628 Y81.257 E56.22703
G1 X156.031 Y83.428 E56.356
G1 X157.278 Y85.586 E56.48034
G1 X158.442 Y87.859 E56.60775
G1 X159.501 Y90.204 E56.73611
G1 X160.416 Y92.534 E56.861
G1 X161.233 Y94.963 E56.98886
G1 X161.919 Y97.401 E57.11521
G1 X162.492 Y99.909 E57.24356
G1 X162.928 Y102.385 E57.36899
G1 X163.247 Y104.917 E57.49631
G1 X163.435 Y107.433 E57.62218
G1 X163.5 Y110.005 E57.75054
G1 X163.436 Y112.537 E57.8769
G1 X163.248 Y115.073 E58.00377
G1 X162.93 Y117.601 E58.13089
G1 X162.494 Y120.081 E58.25651
