;FLAVOR:Marlin
;TIME:6467
;Filament used: 4.92415m
;Layer height: 0.2
;MINX:66.2
;MINY:63.7
;MINZ:0.3
;MAXX:158.8
;MAXY:156.3
;MAXZ:6.175
;Generated with Cura_SteamEngine 4.13.1
M140 S60
M105
M190 S60
M104 S200
M105
M109 S200
M82 ;absolute extrusion mode
G21                                        ; metric values
G90                                        ; absolute positioning
M82                                        ; set extruder to absolute mode
M107                                       ; start with the fan off
M190 S60                                   ; preheat and wait for bed
M109 S210                                  ; preheat and wait for hotend
M300 S1000 P500                            ; BEEP heating done
G28 X0 Y10 Z0                              ; move X/Y to min endstops
M420 S1                                    ; enable mesh leveling
G0 Z0.15                                   ; lift nozzle a bit
G0 X2                                      ; move away from clips
G92 E0                                     ; zero the extruded length
G1 Y50 E25 F500                            ; Extrude 25mm of filament in a 5cm line.
G92 E0                                     ; zero the extruded length again
G1 E-2 F500                                ; Retract a little
G1 Y120 F4000                              ; Quickly wipe away from the filament line
G92 E0
G92 E0
G1 F1500 E-6
;LAYER_COUNT:30
;LAYER:0
M106 S76.5
M205 X10 Y10
G1 F600 Z0.375
;MESH:lautsprecher-bodenfassung.stl
G0 F6000 X145 Y83.5 Z0.375
M205 X8 Y8
;TYPE:WALL-INNER
G1 F600 Z0.3
G1 F1500 E0
G1 F1200 X145 Y136.5 E2.64418
G1 X155 Y136.5 E3.14308
G1 X155 Y83.5 E5.78726
G1 X145 Y83.5 E6.28617
M205 X10 Y10
G0 F6000 X145.4 Y83.9
M205 X8 Y8
G1 F1200 X145.4 Y136.1 E8.89043
G1 X154.6 Y136.1 E9.34942
G1 X154.6 Y83.9 E11.95369
G1 X145.4 Y83.9 E12.41268
M205 X10 Y10
G0 F6000 X145.8 Y84.3
M205 X8 Y8
;TYPE:WALL-OUTER
G1 F1200 X145.8 Y135.7 E14.97704
G1 X154.2 Y135.7 E15.39612
G1 X154.2 Y84.3 E17.96047
G1 X145.8 Y84.3 E18.37955
M205 X10 Y10
G0 F6000 X145.8 Y84.5
G0 X145.36 Y84.5
G1 F1500 E12.37955
G1 F600 Z0.375
G0 F6000 X86 Y67.5 Z0.375
M205 X8 Y8
;TYPE:WALL-INNER
G1 F600 Z0.3
G1 F1500 E18.37955
G1 F1200 X86 Y77.5 E18.87845
G1 X139 Y77.5 E21.52263
G1 X139 Y67.5 E22.02154
G1 X86 Y67.5 E24.66572
M205 X10 Y10
G0 F6000 X86.4 Y67.9
M205 X8 Y8
G1 F1200 X86.4 Y77.1 E25.12471
G1 X138.6 Y77.1 E27.72897
G1 X138.6 Y67.9 E28.18796
G1 X86.4 Y67.9 E30.79223
M205 X10 Y10
G0 F6000 X86.8 Y68.3
M205 X8 Y8
;TYPE:WALL-OUTER
G1 F1200 X86.8 Y76.7 E31.21131
G1 X138.2 Y76.7 E33.77567
G1 X138.2 Y68.3 E34.19474
G1 X86.8 Y68.3 E36.7591
M205 X10 Y10
G0 F6000 X86.8 Y68.5
G0 X86.36 Y68.5
G1 F1500 E30.7591
G1 F600 Z0.375
G0 F6000 X70 Y83.5 Z0.375
M205 X8 Y8
;TYPE:WALL-INNER
G1 F600 Z0.3
G1 F1500 E36.7591
G1 F1200 X70 Y136.5 E39.40328
G1 X80 Y136.5 E39.90218
G1 X80 Y83.5 E42.54636
G1 X70 Y83.5 E43.04527
M205 X10 Y10
G0 F6000 X70.4 Y83.9
M205 X8 Y8
G1 F1200 X70.4 Y136.1 E45.64954
G1 X79.6 Y136.1 E46.10853
G1 X79.6 Y83.9 E48.71279
G1 X70.4 Y83.9 E49.17178
M205 X10 Y10
G0 F6000 X70.8 Y84.3
M205 X8 Y8
;TYPE:WALL-OUTER
G1 F1200 X70.8 Y135.7 E51.73614
G1 X79.2 Y135.7 E52.15522
G1 X79.2 Y84.3 E54.71957
G1 X70.8 Y84.3 E55.13865
M205 X10 Y10
G0 F6000 X70.8 Y84.5
G0 X70.36 Y84.5
G1 F1500 E49.13865
G1 F600 Z0.375
G0 F6000 X86 Y142.5 Z0.375
M205 X8 Y8
;TYPE:WALL-INNER
G1 F600 Z0.3
G1 F1500 E55.13865
G1 F1200 X86 Y152.5 E55.63755
G1 X139 Y152.5 E58.28173
G1 X139 Y142.5 E58.78064
G1 X86 Y142.5 E61.42482
M205 X10 Y10
G0 F6000 X86.4 Y142.9
M205 X8 Y8
G1 F1200 X86.4 Y152.1 E61.88381
G1 X138.6 Y152.1 E64.48808
G1 X138.6 Y142.9 E64.94707
G1 X86.4 Y142.9 E67.55133
M205 X10 Y10
G0 F6000 X86.8 Y143.3
M205 X8 Y8
;TYPE:WALL-OUTER
G1 F1200 X86.8 Y151.7 E67.97041
G1 X138.2 Y151.7 E70.53477
G1 X138.2 Y143.3 E70.95385
G1 X86.8 Y143.3 E73.5182
M205 X10 Y10
G0 F6000 X86.8 Y143.5
G0 X86.36 Y143.5
G1 F1500 E67.5182
G1 F600 Z0.375
G0 F6000 X110.183 Y140.913 Z0.375
M205 X8 Y8
;TYPE:WALL-INNER
G1 F600 Z0.3
G1 F1500 E73.5182
G1 F1200 X111.727 Y140.991 E73.59533
G1 X113.273 Y140.991 E73.67246
G1 X114.817 Y140.913 E73.74959
G1 X116.355 Y140.76 E73.8267
G1 X117.884 Y140.529 E73.90385
G1 X119.398 Y140.223 E73.98091
G1 X120.895 Y139.842 E74.05798
G1 X122.375 Y139.386 E74.13524
G1 X123.825 Y138.856 E74.21226
G1 X125.251 Y138.257 E74.28943
G1 X126.641 Y137.586 E74.36643
G1 X128 Y136.848 E74.44358
G1 X129.319 Y136.041 E74.52073
G1 X130.597 Y135.17 E74.59789
G1 X131.828 Y134.237 E74.67495
G1 X133.013 Y133.243 E74.75211
G1 X134.145 Y132.191 E74.82921
G1 X135.225 Y131.085 E74.90633
G1 X136.248 Y129.927 E74.98342
G1 X137.211 Y128.719 E75.0605
G1 X138.114 Y127.463 E75.13767
G1 X138.952 Y126.165 E75.21475
G1 X139.725 Y124.826 E75.29189
G1 X140.431 Y123.451 E75.369
G1 X141.066 Y122.041 E75.44615
G1 X141.631 Y120.603 E75.52323
G1 X142.122 Y119.138 E75.60032
G1 X142.542 Y117.65 E75.67745
G1 X142.885 Y116.142 E75.75461
G1 X143.155 Y114.621 E75.83168
G1 X143.346 Y113.087 E75.9088
G1 X143.463 Y111.545 E75.98595
G1 X143.5 Y110 E76.06306
G1 X143.463 Y108.455 E76.14016
G1 X143.346 Y106.913 E76.21731
G1 X143.155 Y105.379 E76.29443
G1 X142.885 Y103.858 E76.3715
G1 X142.542 Y102.35 E76.44866
G1 X142.122 Y100.862 E76.5258
G1 X141.631 Y99.397 E76.60288
G1 X141.066 Y97.959 E76.67996
G1 X140.431 Y96.549 E76.75711
G1 X139.725 Y95.174 E76.83422
G1 X138.952 Y93.835 E76.91136
G1 X138.114 Y92.537 E76.98844
G1 X137.211 Y91.281 E77.06562
G1 X136.248 Y90.073 E77.14269
G1 X135.225 Y88.915 E77.21978
G1 X134.145 Y87.809 E77.2969
G1 X133.013 Y86.757 E77.374
G1 X131.828 Y85.763 E77.45116
G1 X130.597 Y84.83 E77.52823
G1 X129.319 Y83.959 E77.60539
G1 X128 Y83.152 E77.68253
G1 X126.641 Y82.414 E77.75968
G1 X125.251 Y81.743 E77.83669
G1 X123.825 Y81.144 E77.91385
G1 X122.375 Y80.614 E77.99087
G1 X120.895 Y80.158 E78.06814
G1 X119.398 Y79.777 E78.1452
G1 X117.884 Y79.471 E78.22226
G1 X116.355 Y79.24 E78.29941
G1 X114.817 Y79.087 E78.37652
G1 X113.273 Y79.009 E78.45365
G1 X111.727 Y79.009 E78.53078
G1 X110.183 Y79.087 E78.60791
G1 X108.645 Y79.24 E78.68502
G1 X107.116 Y79.471 E78.76217
G1 X105.602 Y79.777 E78.83923
G1 X104.105 Y80.158 E78.9163
G1 X102.625 Y80.614 E78.99356
G1 X101.175 Y81.144 E79.07058
G1 X99.749 Y81.743 E79.14775
G1 X98.359 Y82.414 E79.22475
G1 X97 Y83.152 E79.3019
G1 X95.681 Y83.959 E79.37905
G1 X94.403 Y84.83 E79.45621
G1 X93.172 Y85.763 E79.53327
G1 X91.987 Y86.757 E79.61043
G1 X90.855 Y87.809 E79.68753
G1 X89.775 Y88.915 E79.76465
G1 X88.752 Y90.073 E79.84174
G1 X87.789 Y91.281 E79.91882
G1 X86.886 Y92.537 E79.99599
G1 X86.048 Y93.835 E80.07307
G1 X85.275 Y95.174 E80.15021
G1 X84.569 Y96.549 E80.22732
G1 X83.934 Y97.959 E80.30447
G1 X83.369 Y99.397 E80.38155
G1 X82.878 Y100.862 E80.45864
G1 X82.458 Y102.35 E80.53577
G1 X82.115 Y103.858 E80.61293
G1 X81.845 Y105.379 E80.69
G1 X81.654 Y106.913 E80.76712
G1 X81.537 Y108.455 E80.84427
G1 X81.5 Y110 E80.92138
G1 X81.537 Y111.545 E80.99848
G1 X81.654 Y113.087 E81.07563
G1 X81.845 Y114.621 E81.15275
G1 X82.115 Y116.142 E81.22982
G1 X82.458 Y117.65 E81.30698
G1 X82.878 Y119.138 E81.38412
G1 X83.369 Y120.603 E81.4612
G1 X83.934 Y122.041 E81.53828
G1 X84.569 Y123.451 E81.61543
G1 X85.275 Y124.826 E81.69254
G1 X86.048 Y126.165 E81.76968
G1 X86.886 Y127.463 E81.84676
G1 X87.789 Y128.719 E81.92394
G1 X88.752 Y129.927 E82.00101
G1 X89.775 Y131.085 E82.0781
G1 X90.855 Y132.191 E82.15522
G1 X91.987 Y133.243 E82.23232
G1 X93.172 Y134.237 E82.30948
G1 X94.403 Y135.17 E82.38655
G1 X95.681 Y136.041 E82.46371
G1 X97 Y136.848 E82.54085
G1 X98.359 Y137.586 E82.618
G1 X99.749 Y138.257 E82.69501
G1 X101.175 Y138.856 E82.77217
G1 X102.625 Y139.386 E82.84919
G1 X104.105 Y139.842 E82.92646
G1 X105.602 Y140.223 E83.00352
G1 X107.116 Y140.529 E83.08058
G1 X108.645 Y140.76 E83.15773
G1 X110.183 Y140.913 E83.23484
M205 X10 Y10
G0 F6000 X110.213 Y140.514
M205 X8 Y8
G1 F1200 X111.737 Y140.591 E83.31097
G1 X113.263 Y140.591 E83.3871
G1 X114.787 Y140.514 E83.46323
G1 X116.305 Y140.363 E83.53934
G1 X117.814 Y140.135 E83.61548
G1 X119.309 Y139.833 E83.69157
G1 X120.787 Y139.457 E83.76766
G1 X122.247 Y139.007 E83.84388
G1 X123.679 Y138.484 E83.91994
G1 X125.086 Y137.892 E83.99609
G1 X126.459 Y137.23 E84.07214
G1 X127.8 Y136.501 E84.14829
G1 X129.102 Y135.705 E84.22442
G1 X130.363 Y134.845 E84.30057
G1 X131.579 Y133.924 E84.37668
G1 X132.748 Y132.943 E84.45281
G1 X133.866 Y131.905 E84.52893
G1 X134.932 Y130.813 E84.60506
G1 X135.941 Y129.67 E84.68112
G1 X136.892 Y128.477 E84.75724
G1 X137.783 Y127.238 E84.83338
G1 X138.611 Y125.956 E84.90952
G1 X139.374 Y124.635 E84.98563
G1 X140.07 Y123.277 E85.06176
G1 X140.697 Y121.886 E85.13788
G1 X141.255 Y120.466 E85.214
G1 X141.74 Y119.02 E85.29009
G1 X142.154 Y117.551 E85.36623
G1 X142.493 Y116.063 E85.44237
G1 X142.759 Y114.561 E85.51847
G1 X142.948 Y113.047 E85.59459
G1 X143.063 Y111.525 E85.67074
G1 X143.1 Y110 E85.74684
G1 X143.063 Y108.475 E85.82295
G1 X142.948 Y106.953 E85.8991
G1 X142.759 Y105.439 E85.97522
G1 X142.493 Y103.937 E86.05132
G1 X142.154 Y102.449 E86.12746
G1 X141.74 Y100.98 E86.2036
G1 X141.255 Y99.534 E86.27969
G1 X140.697 Y98.114 E86.35581
G1 X140.07 Y96.723 E86.43193
G1 X139.374 Y95.365 E86.50806
G1 X138.611 Y94.044 E86.58417
G1 X137.783 Y92.762 E86.66031
G1 X136.892 Y91.523 E86.73645
G1 X135.941 Y90.33 E86.81257
G1 X134.932 Y89.187 E86.88863
G1 X133.866 Y88.095 E86.96476
G1 X132.748 Y87.057 E87.04088
G1 X131.579 Y86.076 E87.11701
G1 X130.363 Y85.155 E87.19312
G1 X129.102 Y84.295 E87.26926
G1 X127.8 Y83.499 E87.3454
G1 X126.459 Y82.77 E87.42155
G1 X125.086 Y82.108 E87.49759
G1 X123.679 Y81.516 E87.57375
G1 X122.247 Y80.993 E87.64981
G1 X120.787 Y80.543 E87.72603
G1 X119.309 Y80.167 E87.80212
G1 X117.814 Y79.865 E87.87821
G1 X116.305 Y79.637 E87.95435
G1 X114.787 Y79.486 E88.03046
G1 X113.263 Y79.409 E88.10658
G1 X111.737 Y79.409 E88.18272
G1 X110.213 Y79.486 E88.25885
G1 X108.695 Y79.637 E88.33495
G1 X107.186 Y79.865 E88.41109
G1 X105.691 Y80.167 E88.48719
G1 X104.213 Y80.543 E88.56327
G1 X102.753 Y80.993 E88.63949
G1 X101.321 Y81.516 E88.71555
G1 X99.914 Y82.108 E88.79171
G1 X98.541 Y82.77 E88.86775
G1 X97.2 Y83.499 E88.9439
G1 X95.898 Y84.295 E89.02004
G1 X94.637 Y85.155 E89.09619
G1 X93.421 Y86.076 E89.17229
G1 X92.252 Y87.057 E89.24843
G1 X91.134 Y88.095 E89.32454
G1 X90.068 Y89.187 E89.40067
G1 X89.059 Y90.33 E89.47674
G1 X88.108 Y91.523 E89.55285
G1 X87.217 Y92.762 E89.62899
G1 X86.389 Y94.044 E89.70513
G1 X85.626 Y95.365 E89.78124
G1 X84.93 Y96.723 E89.85737
G1 X84.303 Y98.114 E89.93349
G1 X83.745 Y99.534 E90.00961
G1 X83.26 Y100.98 E90.0857
G1 X82.846 Y102.449 E90.16184
G1 X82.507 Y103.937 E90.23798
G1 X82.241 Y105.439 E90.31408
G1 X82.052 Y106.953 E90.3902
G1 X81.937 Y108.475 E90.46635
G1 X81.9 Y110 E90.54246
G1 X81.937 Y111.525 E90.61856
G1 X82.052 Y113.047 E90.69471
G1 X82.241 Y114.561 E90.77083
G1 X82.507 Y116.063 E90.84693
G1 X82.846 Y117.551 E90.92307
G1 X83.26 Y119.02 E90.99922
G1 X83.745 Y120.466 E91.07531
G1 X84.303 Y121.886 E91.15142
G1 X84.93 Y123.277 E91.22755
G1 X85.626 Y124.635 E91.30368
G1 X86.389 Y125.956 E91.37978
G1 X87.217 Y127.238 E91.45592
G1 X88.108 Y128.477 E91.53206
G1 X89.059 Y129.67 E91.60818
G1 X90.068 Y130.813 E91.68424
G1 X91.134 Y131.905 E91.76038
G1 X92.252 Y132.943 E91.83649
G1 X93.421 Y133.924 E91.91262
G1 X94.637 Y134.845 E91.98873
G1 X95.898 Y135.705 E92.06488
G1 X97.2 Y136.501 E92.14101
G1 X98.541 Y137.23 E92.21716
G1 X99.914 Y137.892 E92.29321
G1 X101.321 Y138.484 E92.36936
G1 X102.753 Y139.007 E92.44542
G1 X104.213 Y139.457 E92.52164
G1 X105.691 Y139.833 E92.59773
G1 X107.186 Y140.135 E92.67382
G1 X108.695 Y140.363 E92.74996
G1 X110.213 Y140.514 E92.82607
M205 X10 Y10
G0 F6000 X110.243 Y140.115
M205 X8 Y8
;TYPE:WALL-OUTER
G1 F1200 X111.747 Y140.191 E92.9012
G1 X113.253 Y140.191 E92.97633
G1 X114.757 Y140.115 E93.05146
G1 X116.255 Y139.966 E93.12657
G1 X117.744 Y139.741 E93.2017
G1 X119.22 Y139.443 E93.27682
G1 X120.679 Y139.072 E93.35193
G1 X122.119 Y138.628 E93.42711
G1 X123.533 Y138.112 E93.5022
G1 X124.921 Y137.527 E93.57735
G1 X126.277 Y136.874 E93.65244
G1 X127.6 Y136.154 E93.72758
G1 X128.885 Y135.369 E93.80271
G1 X130.129 Y134.52 E93.87785
G1 X131.33 Y133.611 E93.95299
G1 X132.483 Y132.643 E94.0281
G1 X133.587 Y131.619 E94.10322
G1 X134.639 Y130.541 E94.17837
G1 X135.634 Y129.413 E94.25341
G1 X136.573 Y128.235 E94.32857
G1 X137.452 Y127.013 E94.40367
G1 X138.27 Y125.747 E94.47887
G1 X139.023 Y124.444 E94.55395
G1 X139.709 Y123.104 E94.62905
G1 X140.328 Y121.731 E94.70419
G1 X140.879 Y120.329 E94.77935
G1 X141.358 Y118.902 E94.85444
G1 X141.766 Y117.452 E94.92959
G1 X142.101 Y115.984 E95.00471
G1 X142.363 Y114.501 E95.07985
G1 X142.55 Y113.007 E95.15497
G1 X142.663 Y111.505 E95.23011
G1 X142.7 Y110 E95.30522
G1 X142.663 Y108.495 E95.38033
G1 X142.55 Y106.993 E95.45547
G1 X142.363 Y105.499 E95.53059
G1 X142.101 Y104.016 E95.60572
G1 X141.766 Y102.548 E95.68085
G1 X141.358 Y101.098 E95.756
G1 X140.879 Y99.671 E95.83109
G1 X140.328 Y98.269 E95.90625
G1 X139.709 Y96.896 E95.98139
G1 X139.023 Y95.556 E96.05649
G1 X138.27 Y94.253 E96.13157
G1 X137.452 Y92.987 E96.20677
G1 X136.573 Y91.765 E96.28187
G1 X135.634 Y90.587 E96.35703
G1 X134.639 Y89.459 E96.43207
G1 X133.587 Y88.381 E96.50722
G1 X132.483 Y87.357 E96.58234
G1 X131.33 Y86.389 E96.65745
G1 X130.129 Y85.48 E96.73259
G1 X128.885 Y84.631 E96.80773
G1 X127.6 Y83.846 E96.88286
G1 X126.277 Y83.126 E96.958
G1 X124.921 Y82.473 E97.03309
G1 X123.533 Y81.888 E97.10824
G1 X122.119 Y81.372 E97.18333
G1 X120.679 Y80.928 E97.25851
G1 X119.22 Y80.557 E97.33362
G1 X117.744 Y80.259 E97.40874
G1 X116.255 Y80.034 E97.48387
G1 X114.757 Y79.885 E97.55898
G1 X113.253 Y79.809 E97.63411
G1 X111.747 Y79.809 E97.70924
G1 X110.243 Y79.885 E97.78437
G1 X108.745 Y80.034 E97.85948
G1 X107.256 Y80.259 E97.93461
G1 X105.78 Y80.557 E98.00973
G1 X104.321 Y80.928 E98.08484
G1 X102.881 Y81.372 E98.16001
G1 X101.467 Y81.888 E98.23511
G1 X100.079 Y82.473 E98.31026
G1 X98.723 Y83.126 E98.38534
G1 X97.4 Y83.846 E98.46049
G1 X96.115 Y84.631 E98.53561
G1 X94.871 Y85.48 E98.61075
G1 X93.67 Y86.389 E98.6859
G1 X92.517 Y87.357 E98.76101
G1 X91.413 Y88.381 E98.83613
G1 X90.361 Y89.459 E98.91128
G1 X89.366 Y90.587 E98.98632
G1 X88.427 Y91.765 E99.06148
G1 X87.548 Y92.987 E99.13658
G1 X86.73 Y94.253 E99.21178
G1 X85.977 Y95.556 E99.28686
G1 X85.291 Y96.896 E99.36196
G1 X84.672 Y98.269 E99.4371
G1 X84.121 Y99.671 E99.51225
G1 X83.642 Y101.098 E99.58735
G1 X83.234 Y102.548 E99.6625
G1 X82.899 Y104.016 E99.73762
G1 X82.637 Y105.499 E99.81276
G1 X82.45 Y106.993 E99.88787
G1 X82.337 Y108.495 E99.96302
G1 X82.3 Y110 E100.03813
G1 X82.337 Y111.505 E100.11323
G1 X82.45 Y113.007 E100.18838
G1 X82.637 Y114.501 E100.2635
G1 X82.899 Y115.984 E100.33863
G1 X83.234 Y117.452 E100.41375
G1 X83.642 Y118.902 E100.4889
G1 X84.121 Y120.329 E100.564
G1 X84.672 Y121.731 E100.63915
G1 X85.291 Y123.104 E100.71429
G1 X85.977 Y124.444 E100.7894
G1 X86.73 Y125.747 E100.86448
G1 X87.548 Y127.013 E100.93968
G1 X88.427 Y128.235 E101.01478
G1 X89.366 Y129.413 E101.08993
G1 X90.361 Y130.541 E101.16498
G1 X91.413 Y131.619 E101.24012
G1 X92.517 Y132.643 E101.31525
G1 X93.67 Y133.611 E101.39035
G1 X94.871 Y134.52 E101.4655
G1 X96.115 Y135.369 E101.54064
G1 X97.4 Y136.154 E101.61576
G1 X98.723 Y136.874 E101.69091
G1 X100.079 Y137.527 E101.766
G1 X101.467 Y138.112 E101.84114
G1 X102.881 Y138.628 E101.91624
G1 X104.321 Y139.072 E101.99142
G1 X105.78 Y139.443 E102.06653
G1 X107.256 Y139.741 E102.14165
G1 X108.745 Y139.966 E102.21678
G1 X110.243 Y140.115 E102.29188
M205 X10 Y10
G0 F6000 X110.442 Y140.125
G0 X110.419 Y140.564
G1 F1500 E96.29188
G1 F600 Z0.375
G0 F6000 X146 Y143.5 Z0.375
M205 X8 Y8
;TYPE:WALL-INNER
G1 F600 Z0.3
G1 F1500 E102.29188
G1 F1200 X146 Y155.5 E102.89057
G1 X79 Y155.5 E106.23321
G1 X79 Y143.5 E106.83189
G1 X67 Y143.5 E107.43057
G1 X67 Y76.5 E110.77322
G1 X79 Y76.5 E111.3719
G1 X79 Y64.5 E111.97058
G1 X146 Y64.5 E115.31323
G1 X146 Y76.5 E115.91191
G1 X158 Y76.5 E116.51059
G1 X158 Y143.5 E119.85323
G1 X146 Y143.5 E120.45192
M205 X10 Y10
G0 F6000 X146.4 Y143.9
M205 X8 Y8
G1 F1200 X146.4 Y155.9 E121.0506
