;FLAVOR:Marlin
;TIME:4873
;Filament used: 3.92366m
;Layer height: 0.2
;MINX:62.7
;MINY:62.7
;MINZ:0.3
;MAXX:162.3
;MAXY:157.3
;MAXZ:2.175
;Generated with Cura_SteamEngine 4.13.1
M140 S60
M105
M190 S60
M104 S200
M105
M109 S200
M82 ;absolute extrusion mode
G21                                        ; metric values
G90                                        ; absolute positioning
M82                                        ; set extruder to absolute mode
M107                                       ; start with the fan off
M190 S60                                   ; preheat and wait for bed
M109 S210                                  ; preheat and wait for hotend
M300 S1000 P500                            ; BEEP heating done
G28 X0 Y10 Z0                              ; move X/Y to min endstops
M420 S1                                    ; enable mesh leveling
G0 Z0.15                                   ; lift nozzle a bit
G0 X2                                      ; move away from clips
G92 E0                                     ; zero the extruded length
G1 Y50 E25 F500                            ; Extrude 25mm of filament in a 5cm line.
G92 E0                                     ; zero the extruded length again
G1 E-2 F500                                ; Retract a little
G1 Y120 F4000                              ; Quickly wipe away from the filament line
G92 E0
G92 E0
G1 F1500 E-6
;LAYER_COUNT:10
;LAYER:0
M106 S76.5
M205 X10 Y10
G1 F600 Z0.375
;MESH:sonoglas-glas-ablage.stl
G0 F6000 X109.436 Y150.886 Z0.375
M205 X8 Y8
;TYPE:WALL-INNER
G1 F600 Z0.3
G1 F1500 E0
G1 F1200 X111.478 Y150.988 E0.102
G1 X113.522 Y150.988 E0.20398
G1 X115.564 Y150.886 E0.30598
G1 X117.599 Y150.683 E0.40801
G1 X119.621 Y150.377 E0.51004
G1 X121.623 Y149.972 E0.61194
G1 X123.604 Y149.468 E0.71392
G1 X125.558 Y148.865 E0.81594
G1 X127.479 Y148.165 E0.91795
G1 X129.363 Y147.372 E1.01993
G1 X131.203 Y146.485 E1.12184
G1 X133 Y145.508 E1.22388
G1 X134.745 Y144.441 E1.32593
G1 X136.435 Y143.29 E1.42794
G1 X138.065 Y142.055 E1.52996
G1 X139.629 Y140.741 E1.63188
G1 X141.127 Y139.351 E1.73383
G1 X142.555 Y137.887 E1.83586
G1 X143.909 Y136.355 E1.93786
G1 X145.182 Y134.757 E2.03979
G1 X146.377 Y133.096 E2.14188
G1 X147.485 Y131.379 E2.24383
G1 X148.507 Y129.608 E2.34584
G1 X149.441 Y127.79 E2.44781
G1 X150.281 Y125.925 E2.54986
G1 X151.028 Y124.023 E2.65181
G1 X151.678 Y122.085 E2.75379
G1 X152.233 Y120.117 E2.8558
G1 X152.687 Y118.124 E2.95778
G1 X153.043 Y116.112 E3.05972
G1 X153.296 Y114.083 E3.16173
G1 X153.45 Y112.044 E3.26374
G1 X153.5 Y110 E3.36575
G1 X153.45 Y107.956 E3.46776
G1 X153.296 Y105.917 E3.56977
G1 X153.043 Y103.888 E3.67178
G1 X152.687 Y101.876 E3.77372
G1 X152.233 Y99.883 E3.8757
G1 X151.678 Y97.915 E3.97771
G1 X151.028 Y95.977 E4.07969
G1 X150.281 Y94.075 E4.18164
G1 X149.441 Y92.21 E4.28369
G1 X148.507 Y90.392 E4.38566
G1 X147.485 Y88.621 E4.48767
G1 X146.377 Y86.904 E4.58962
G1 X145.182 Y85.243 E4.6917
G1 X143.909 Y83.645 E4.79363
G1 X142.555 Y82.113 E4.89564
G1 X141.127 Y80.649 E4.99767
G1 X139.629 Y79.259 E5.09962
G1 X138.065 Y77.945 E5.20153
G1 X136.435 Y76.71 E5.30356
G1 X134.745 Y75.559 E5.40557
G1 X133 Y74.492 E5.50762
G1 X131.203 Y73.515 E5.60966
G1 X129.363 Y72.628 E5.71157
G1 X127.479 Y71.835 E5.81355
G1 X125.558 Y71.135 E5.91555
G1 X123.604 Y70.532 E6.01758
G1 X121.623 Y70.028 E6.11956
G1 X119.621 Y69.623 E6.22146
G1 X117.599 Y69.317 E6.32349
G1 X115.564 Y69.114 E6.42552
G1 X113.522 Y69.012 E6.52752
G1 X111.478 Y69.012 E6.6295
G1 X109.436 Y69.114 E6.7315
G1 X107.401 Y69.317 E6.83353
G1 X105.379 Y69.623 E6.93556
G1 X103.377 Y70.028 E7.03746
G1 X101.396 Y70.532 E7.13944
G1 X99.442 Y71.135 E7.24146
G1 X97.521 Y71.835 E7.34347
G1 X95.637 Y72.628 E7.44545
G1 X93.797 Y73.515 E7.54735
G1 X92 Y74.492 E7.6494
G1 X90.255 Y75.559 E7.75144
G1 X88.565 Y76.71 E7.85345
G1 X86.935 Y77.945 E7.95548
G1 X85.371 Y79.259 E8.05739
G1 X83.873 Y80.649 E8.15935
G1 X82.445 Y82.113 E8.26138
G1 X81.091 Y83.645 E8.36338
G1 X79.818 Y85.243 E8.46531
G1 X78.623 Y86.904 E8.5674
G1 X77.515 Y88.621 E8.66935
G1 X76.493 Y90.392 E8.77136
G1 X75.559 Y92.21 E8.87333
G1 X74.719 Y94.075 E8.97537
G1 X73.972 Y95.977 E9.07732
G1 X73.322 Y97.915 E9.1793
G1 X72.767 Y99.883 E9.28132
G1 X72.313 Y101.876 E9.38329
G1 X71.957 Y103.888 E9.48523
G1 X71.704 Y105.917 E9.58724
G1 X71.55 Y107.956 E9.68926
G1 X71.5 Y110 E9.79127
G1 X71.55 Y112.044 E9.89327
G1 X71.704 Y114.083 E9.99529
G1 X71.957 Y116.112 E10.0973
G1 X72.313 Y118.124 E10.19924
G1 X72.767 Y120.117 E10.30122
G1 X73.322 Y122.085 E10.40323
G1 X73.972 Y124.023 E10.50521
G1 X74.719 Y125.925 E10.60716
G1 X75.559 Y127.79 E10.7092
G1 X76.493 Y129.608 E10.81117
G1 X77.515 Y131.379 E10.91319
G1 X78.623 Y133.096 E11.01514
G1 X79.818 Y134.757 E11.11722
G1 X81.091 Y136.355 E11.21915
G1 X82.445 Y137.887 E11.32115
G1 X83.873 Y139.351 E11.42319
G1 X85.371 Y140.741 E11.52514
G1 X86.935 Y142.055 E11.62705
G1 X88.565 Y143.29 E11.72908
G1 X90.255 Y144.441 E11.83109
G1 X92 Y145.508 E11.93313
G1 X93.797 Y146.485 E12.03518
G1 X95.637 Y147.372 E12.13709
G1 X97.521 Y148.165 E12.23907
G1 X99.442 Y148.865 E12.34107
G1 X101.396 Y149.468 E12.44309
G1 X103.377 Y149.972 E12.54507
G1 X105.379 Y150.377 E12.64698
G1 X107.401 Y150.683 E12.749
G1 X109.436 Y150.886 E12.85103
M205 X10 Y10
G0 F6000 X109.466 Y150.487
M205 X8 Y8
G1 F1200 X111.488 Y150.588 E12.95204
G1 X113.512 Y150.588 E13.05302
G1 X115.534 Y150.487 E13.15402
G1 X117.549 Y150.286 E13.25505
G1 X119.551 Y149.983 E13.35606
G1 X121.534 Y149.582 E13.457
G1 X123.496 Y149.083 E13.558
G1 X125.43 Y148.486 E13.65898
G1 X127.333 Y147.793 E13.76002
G1 X129.198 Y147.007 E13.86099
G1 X131.021 Y146.129 E13.96194
G1 X132.8 Y145.161 E14.06298
G1 X134.528 Y144.105 E14.16402
G1 X136.201 Y142.965 E14.26502
G1 X137.815 Y141.742 E14.36605
G1 X139.364 Y140.441 E14.46697
G1 X140.848 Y139.065 E14.56794
G1 X142.262 Y137.615 E14.66898
G1 X143.602 Y136.098 E14.76996
G1 X144.863 Y134.515 E14.87093
G1 X146.046 Y132.871 E14.97198
G1 X147.144 Y131.17 E15.07299
G1 X148.156 Y129.417 E15.17397
G1 X149.08 Y127.616 E15.27496
G1 X149.912 Y125.77 E15.37598
G1 X150.652 Y123.886 E15.47696
G1 X151.296 Y121.967 E15.57795
G1 X151.845 Y120.018 E15.67897
G1 X152.295 Y118.045 E15.77993
G1 X152.647 Y116.052 E15.8809
G1 X152.898 Y114.043 E15.98191
G1 X153.05 Y112.024 E16.08292
G1 X153.1 Y110 E16.18393
G1 X153.05 Y107.976 E16.28494
G1 X152.898 Y105.957 E16.38595
G1 X152.647 Y103.948 E16.48696
G1 X152.295 Y101.955 E16.58793
G1 X151.845 Y99.982 E16.68889
G1 X151.296 Y98.033 E16.78991
G1 X150.652 Y96.114 E16.8909
G1 X149.912 Y94.23 E16.99188
G1 X149.08 Y92.384 E17.0929
G1 X148.156 Y90.583 E17.19389
G1 X147.144 Y88.83 E17.29487
G1 X146.046 Y87.129 E17.39588
G1 X144.863 Y85.485 E17.49693
G1 X143.602 Y83.902 E17.5979
G1 X142.262 Y82.385 E17.69888
G1 X140.848 Y80.935 E17.79992
G1 X139.364 Y79.559 E17.90089
G1 X137.815 Y78.258 E18.00181
G1 X136.201 Y77.035 E18.10284
G1 X134.528 Y75.895 E18.20384
G1 X132.8 Y74.839 E18.30488
G1 X131.021 Y73.871 E18.40592
G1 X129.198 Y72.993 E18.50687
G1 X127.333 Y72.207 E18.60784
G1 X125.43 Y71.514 E18.70888
G1 X123.496 Y70.917 E18.80986
G1 X121.534 Y70.418 E18.91086
G1 X119.551 Y70.017 E19.0118
G1 X117.549 Y69.714 E19.11281
G1 X115.534 Y69.513 E19.21384
G1 X113.512 Y69.412 E19.31484
G1 X111.488 Y69.412 E19.41582
G1 X109.466 Y69.513 E19.51683
G1 X107.451 Y69.714 E19.61785
G1 X105.449 Y70.017 E19.71887
G1 X103.466 Y70.418 E19.81981
G1 X101.504 Y70.917 E19.92081
G1 X99.57 Y71.514 E20.02179
G1 X97.667 Y72.207 E20.12283
G1 X95.802 Y72.993 E20.2238
G1 X93.979 Y73.871 E20.32475
G1 X92.2 Y74.839 E20.42579
G1 X90.472 Y75.895 E20.52682
G1 X88.799 Y77.035 E20.62783
G1 X87.185 Y78.258 E20.72885
G1 X85.636 Y79.559 E20.82978
G1 X84.152 Y80.935 E20.93074
G1 X82.738 Y82.385 E21.03178
G1 X81.398 Y83.902 E21.13277
G1 X80.137 Y85.485 E21.23374
G1 X78.954 Y87.129 E21.33478
G1 X77.856 Y88.83 E21.43579
G1 X76.844 Y90.583 E21.53678
G1 X75.92 Y92.384 E21.63776
G1 X75.088 Y94.23 E21.73878
G1 X74.348 Y96.114 E21.83977
G1 X73.704 Y98.033 E21.94075
G1 X73.155 Y99.982 E22.04177
G1 X72.705 Y101.955 E22.14274
G1 X72.353 Y103.948 E22.24371
G1 X72.102 Y105.957 E22.34471
G1 X71.95 Y107.976 E22.44573
G1 X71.9 Y110 E22.54674
G1 X71.95 Y112.024 E22.64774
G1 X72.102 Y114.043 E22.74876
G1 X72.353 Y116.052 E22.84977
G1 X72.705 Y118.045 E22.95074
G1 X73.155 Y120.018 E23.0517
G1 X73.704 Y121.967 E23.15272
G1 X74.348 Y123.886 E23.2537
G1 X75.088 Y125.77 E23.35469
G1 X75.92 Y127.616 E23.45571
G1 X76.844 Y129.417 E23.5567
G1 X77.856 Y131.17 E23.65768
G1 X78.954 Y132.871 E23.75869
G1 X80.137 Y134.515 E23.85974
G1 X81.398 Y136.098 E23.96071
G1 X82.738 Y137.615 E24.06169
G1 X84.152 Y139.065 E24.16273
G1 X85.636 Y140.441 E24.2637
G1 X87.185 Y141.742 E24.36462
G1 X88.799 Y142.965 E24.46565
G1 X90.472 Y144.105 E24.56665
G1 X92.2 Y145.161 E24.66768
G1 X93.979 Y146.129 E24.76873
G1 X95.802 Y147.007 E24.86967
G1 X97.667 Y147.793 E24.97065
G1 X99.57 Y148.486 E25.07169
G1 X101.504 Y149.083 E25.17267
G1 X103.466 Y149.582 E25.27367
G1 X105.449 Y149.983 E25.3746
G1 X107.451 Y150.286 E25.47562
G1 X109.466 Y150.487 E25.57665
M205 X10 Y10
G0 F6000 X109.496 Y150.088
M205 X8 Y8
;TYPE:WALL-OUTER
G1 F1200 X111.498 Y150.188 E25.67665
G1 X113.502 Y150.188 E25.77663
G1 X115.504 Y150.088 E25.87664
G1 X117.499 Y149.889 E25.97666
G1 X119.481 Y149.589 E26.07667
G1 X121.445 Y149.192 E26.17664
G1 X123.388 Y148.698 E26.27666
G1 X125.303 Y148.107 E26.37664
G1 X127.187 Y147.421 E26.47667
G1 X129.033 Y146.642 E26.57663
G1 X130.839 Y145.773 E26.67662
G1 X132.6 Y144.814 E26.77666
G1 X134.311 Y143.769 E26.87669
G1 X135.967 Y142.64 E26.97668
G1 X137.565 Y141.429 E27.07671
G1 X139.099 Y140.141 E27.17664
G1 X140.569 Y138.778 E27.27666
G1 X141.969 Y137.343 E27.37668
G1 X143.295 Y135.841 E27.47663
G1 X144.544 Y134.273 E27.57665
G1 X145.715 Y132.646 E27.67666
G1 X146.803 Y130.961 E27.77672
G1 X147.805 Y129.226 E27.87668
G1 X148.719 Y127.442 E27.97668
G1 X149.543 Y125.615 E28.07668
G1 X150.276 Y123.749 E28.1767
G1 X150.914 Y121.849 E28.27669
G1 X151.457 Y119.919 E28.37671
G1 X151.903 Y117.966 E28.47666
G1 X152.251 Y115.992 E28.57666
G1 X152.5 Y114.003 E28.67667
G1 X152.65 Y112.004 E28.77668
G1 X152.7 Y110 E28.87669
G1 X152.65 Y107.996 E28.9767
G1 X152.5 Y105.997 E29.07671
G1 X152.251 Y104.008 E29.17672
G1 X151.903 Y102.034 E29.27672
G1 X151.457 Y100.081 E29.37666
G1 X150.914 Y98.151 E29.47669
G1 X150.276 Y96.251 E29.57668
G1 X149.543 Y94.385 E29.6767
G1 X148.719 Y92.558 E29.77669
G1 X147.805 Y90.774 E29.8767
G1 X146.803 Y89.039 E29.97666
G1 X145.715 Y87.354 E30.07672
G1 X144.544 Y85.727 E30.17673
G1 X143.295 Y84.159 E30.27674
G1 X141.969 Y82.657 E30.3767
G1 X140.569 Y81.222 E30.47672
G1 X139.099 Y79.859 E30.57674
G1 X137.565 Y78.571 E30.67667
G1 X135.967 Y77.36 E30.7767
G1 X134.311 Y76.231 E30.87669
G1 X132.6 Y75.186 E30.97671
G1 X130.839 Y74.227 E31.07675
G1 X129.033 Y73.358 E31.17674
G1 X127.187 Y72.579 E31.27671
G1 X125.303 Y71.893 E31.37674
G1 X123.388 Y71.302 E31.47672
G1 X121.445 Y70.808 E31.57674
G1 X119.481 Y70.411 E31.67671
G1 X117.499 Y70.111 E31.77672
G1 X115.504 Y69.912 E31.87674
G1 X113.502 Y69.812 E31.97675
G1 X111.498 Y69.812 E32.07673
G1 X109.496 Y69.912 E32.17673
G1 X107.501 Y70.111 E32.27676
G1 X105.519 Y70.411 E32.37676
G1 X103.555 Y70.808 E32.47673
G1 X101.612 Y71.302 E32.57675
G1 X99.697 Y71.893 E32.67674
G1 X97.813 Y72.579 E32.77677
G1 X95.967 Y73.358 E32.87673
G1 X94.161 Y74.227 E32.97672
G1 X92.4 Y75.186 E33.07676
G1 X90.689 Y76.231 E33.17678
G1 X89.033 Y77.36 E33.27677
G1 X87.435 Y78.571 E33.37681
G1 X85.901 Y79.859 E33.47674
G1 X84.431 Y81.222 E33.57675
G1 X83.031 Y82.657 E33.67677
G1 X81.705 Y84.159 E33.77673
G1 X80.456 Y85.727 E33.87674
G1 X79.285 Y87.354 E33.97675
G1 X78.197 Y89.039 E34.07682
G1 X77.195 Y90.774 E34.17677
G1 X76.281 Y92.558 E34.27678
G1 X75.457 Y94.385 E34.37677
G1 X74.724 Y96.251 E34.47679
G1 X74.086 Y98.151 E34.57678
G1 X73.543 Y100.081 E34.67681
G1 X73.097 Y102.034 E34.77675
G1 X72.749 Y104.008 E34.87676
G1 X72.5 Y105.997 E34.97676
G1 X72.35 Y107.996 E35.07677
G1 X72.3 Y110 E35.17678
G1 X72.35 Y112.004 E35.27679
G1 X72.5 Y114.003 E35.37681
G1 X72.749 Y115.992 E35.47681
G1 X73.097 Y117.966 E35.57681
G1 X73.543 Y119.919 E35.67676
G1 X74.086 Y121.849 E35.77678
G1 X74.724 Y123.749 E35.87678
G1 X75.457 Y125.615 E35.9768
G1 X76.281 Y127.442 E36.07679
G1 X77.195 Y129.226 E36.17679
G1 X78.197 Y130.961 E36.27675
G1 X79.285 Y132.646 E36.37682
G1 X80.456 Y134.273 E36.47683
G1 X81.705 Y135.841 E36.57684
G1 X83.031 Y137.343 E36.6768
G1 X84.431 Y138.778 E36.77682
G1 X85.901 Y140.141 E36.87683
G1 X87.435 Y141.429 E36.97676
G1 X89.033 Y142.64 E37.07679
G1 X90.689 Y143.769 E37.17678
G1 X92.4 Y144.814 E37.27681
G1 X94.161 Y145.773 E37.37685
G1 X95.967 Y146.642 E37.47684
G1 X97.813 Y147.421 E37.5768
G1 X99.697 Y148.107 E37.67683
G1 X101.612 Y148.698 E37.77682
G1 X103.555 Y149.192 E37.87684
G1 X105.519 Y149.589 E37.9768
G1 X107.501 Y149.889 E38.07681
G1 X109.496 Y150.088 E38.17684
M205 X10 Y10
G0 F6000 X109.695 Y150.097
G0 X109.673 Y150.536
G1 F1500 E32.17684
G1 F600 Z0.375
G0 F6000 X161.5 Y156.5 Z0.375
M205 X8 Y8
;TYPE:WALL-INNER
G1 F600 Z0.3
G1 F1500 E38.17684
G1 F1200 X63.5 Y156.5 E43.06608
G1 X63.5 Y63.5 E47.70586
G1 X161.5 Y63.5 E52.5951
G1 X161.5 Y156.5 E57.23489
M205 X10 Y10
G0 F6000 X161.9 Y156.9
M205 X8 Y8
G1 F1200 X63.1 Y156.9 E62.16405
G1 X63.1 Y63.1 E66.84375
G1 X161.9 Y63.1 E71.7729
G1 X161.9 Y156.9 E76.4526
M205 X10 Y10
G0 F6000 X162.3 Y157.3
M205 X8 Y8
;TYPE:WALL-OUTER
G1 F1200 X62.7 Y157.3 E81.42166
G1 X62.7 Y62.7 E86.14128
G1 X162.3 Y62.7 E91.11034
G1 X162.3 Y157.3 E95.82995
M205 X10 Y10
G0 F6000 X162.1 Y157.3
G0 X161.86 Y156.86
G0 X161.11 Y156.11
M205 X8 Y8
;TYPE:SKIN
G1 F1200 X63.89 Y156.11 E100.68028
G1 X63.89 Y63.89 E105.28115
G1 X161.11 Y63.89 E110.13148
G1 X161.11 Y156.11 E114.73235
M205 X10 Y10
G1 F1500 E108.73235
G1 F600 Z0.375
G0 F6000 X142.841 Y138.152 Z0.375
M205 X8 Y8
G1 F600 Z0.3
G1 F1500 E114.73235
G1 F1200 X144.208 Y136.606 E114.83531
G1 X145.493 Y134.993 E114.9382
G1 X146.699 Y133.316 E115.04125
G1 X147.818 Y131.582 E115.14421
G1 X148.85 Y129.795 E115.24717
G1 X149.792 Y127.959 E115.35012
G1 X150.64 Y126.077 E115.4531
G1 X151.395 Y124.156 E115.55608
G1 X152.051 Y122.2 E115.659
G1 X152.611 Y120.213 E115.762
G1 X153.069 Y118.202 E115.8649
G1 X153.429 Y116.17 E115.96785
G1 X153.684 Y114.122 E116.07082
G1 X153.84 Y112.063 E116.17383
G1 X153.89 Y110 E116.27679
G1 X153.84 Y107.937 E116.37974
G1 X153.684 Y105.878 E116.48276
G1 X153.429 Y103.83 E116.58572
G1 X153.069 Y101.798 E116.68868
G1 X152.611 Y99.787 E116.79158
G1 X152.051 Y97.8 E116.89457
G1 X151.395 Y95.844 E116.9975
G1 X150.64 Y93.923 E117.10047
G1 X149.792 Y92.041 E117.20346
G1 X148.85 Y90.205 E117.30641
G1 X147.818 Y88.418 E117.40936
G1 X146.699 Y86.684 E117.51232
G1 X145.493 Y85.007 E117.61538
G1 X144.208 Y83.394 E117.71826
G1 X142.841 Y81.848 E117.82122
G1 X141.4 Y80.37 E117.9242
G1 X139.887 Y78.967 E118.02715
G1 X138.309 Y77.64 E118.13001
G1 X136.663 Y76.394 E118.23301
G1 X134.957 Y75.231 E118.33601
G1 X133.195 Y74.154 E118.43904
G1 X131.381 Y73.168 E118.54205
G1 X129.523 Y72.273 E118.64494
G1 X127.621 Y71.472 E118.7479
G1 X125.683 Y70.765 E118.85082
G1 X123.709 Y70.156 E118.95388
G1 X121.71 Y69.648 E119.05678
G1 X119.689 Y69.239 E119.15966
G1 X117.648 Y68.929 E119.26265
G1 X115.593 Y68.724 E119.36568
G1 X113.532 Y68.622 E119.46863
G1 X111.468 Y68.622 E119.57161
G1 X109.407 Y68.724 E119.67456
G1 X107.352 Y68.929 E119.77759
G1 X105.311 Y69.239 E119.88058
G1 X103.29 Y69.648 E119.98345
G1 X101.291 Y70.156 E120.08636
G1 X99.317 Y70.765 E120.18942
G1 X97.379 Y71.472 E120.29234
G1 X95.477 Y72.273 E120.3953
G1 X93.619 Y73.168 E120.49819
G1 X91.805 Y74.154 E120.6012
G1 X90.043 Y75.231 E120.70422
G1 X88.337 Y76.394 E120.80723
G1 X86.691 Y77.64 E120.91023
G1 X85.113 Y78.967 E121.01309
G1 X83.6 Y80.37 E121.11603
G1 X82.159 Y81.848 E121.21902
G1 X80.792 Y83.394 E121.32198
G1 X79.507 Y85.007 E121.42486
G1 X78.301 Y86.684 E121.52792
G1 X77.182 Y88.418 E121.63088
G1 X76.15 Y90.205 E121.73383
G1 X75.208 Y92.041 E121.83678
G1 X74.36 Y93.923 E121.93976
