;FLAVOR:Marlin
;TIME:3478
;Filament used: 2.52069m
;Layer height: 0.2
;MINX:85.124
;MINY:83.451
;MINZ:0.3
;MAXX:130.007
;MAXY:127.447
;MAXZ:45.175
;Generated with Cura_SteamEngine 4.13.1
M140 S60
M105
M190 S60
M104 S200
M105
M109 S200
M82 ;absolute extrusion mode
G21                                        ; metric values
G90                                        ; absolute positioning
M82                                        ; set extruder to absolute mode
M107                                       ; start with the fan off
M190 S60                                   ; preheat and wait for bed
M109 S210                                  ; preheat and wait for hotend
M300 S1000 P500                            ; BEEP heating done
G28 X0 Y10 Z0                              ; move X/Y to min endstops
M420 S1                                    ; enable mesh leveling
G0 Z0.15                                   ; lift nozzle a bit
G0 X2                                      ; move away from clips
G92 E0                                     ; zero the extruded length
G1 Y50 E25 F500                            ; Extrude 25mm of filament in a 5cm line.
G92 E0                                     ; zero the extruded length again
G1 E-2 F500                                ; Retract a little
G1 Y120 F4000                              ; Quickly wipe away from the filament line
G92 E0
G92 E0
G1 F1500 E-6
;LAYER_COUNT:225
;LAYER:0
M106 S76.5
M205 X10 Y10
G1 F600 Z0.375
G0 F6000 X94.776 Y94.319 Z0.375
M205 X8 Y8
;TYPE:SKIRT
G1 F600 Z0.3
G1 F1500 E0
G1 F1200 X96.863 Y92.305 E0.1447
G1 X99.757 Y90.123 E0.32552
G1 X102.19 Y88.75 E0.4649
G1 X104.507 Y87.592 E0.59413
G1 X105.991 Y87.114 E0.67191
G1 X107.08 Y87.114 E0.72624
G1 X107.45 Y87.384 E0.74909
G1 X107.59 Y87.812 E0.77156
G1 X107.472 Y88.172 E0.79046
G1 X106.473 Y88.849 E0.85066
G1 X103.841 Y89.672 E0.98824
G1 X103.153 Y89.965 E1.02555
G1 X100.484 Y91.424 E1.17731
G1 X99.936 Y91.789 E1.21015
G1 X97.408 Y93.808 E1.37156
G1 X96.912 Y94.283 E1.40583
G1 X94.923 Y96.57 E1.55704
G1 X94.48 Y97.197 E1.59534
G1 X92.94 Y99.927 E1.75172
G1 X92.771 Y100.266 E1.77062
G1 X91.337 Y103.531 E1.94853
G1 X91.152 Y104.05 E1.97601
G1 X91.073 Y104.405 E1.99416
G1 X90.549 Y107.406 E2.14614
G1 X90.494 Y108.195 E2.1856
G1 X90.615 Y111.595 E2.35534
G1 X90.641 Y112.019 E2.37653
G1 X90.346 Y112.925 E2.42407
G1 X89.976 Y113.195 E2.44692
G1 X89.528 Y113.195 E2.46927
G1 X89.187 Y112.947 E2.49031
G1 X88.793 Y111.66 E2.55746
G1 X88.731 Y109.2 E2.68022
G1 X89.124 Y106.514 E2.81566
G1 X89.446 Y104.664 E2.90934
G1 X90.542 Y101.334 E3.08424
G1 X91.529 Y98.918 E3.21445
G1 X92.947 Y96.638 E3.3484
G1 X94.776 Y94.319 E3.49575
M205 X10 Y10
G0 F6000 X94.476 Y94.053
M205 X8 Y8
G1 F1200 X96.605 Y91.999 E3.64334
G1 X99.54 Y89.786 E3.82673
G1 X102.002 Y88.397 E3.96776
G1 X104.354 Y87.22 E4.09897
G1 X105.928 Y86.714 E4.18146
G1 X107.21 Y86.714 E4.24542
G1 X107.79 Y87.136 E4.2812
G1 X108.01 Y87.812 E4.31667
G1 X107.81 Y88.426 E4.34888
G1 X106.646 Y89.214 E4.41901
G1 X103.961 Y90.054 E4.55937
G1 X103.345 Y90.316 E4.59277
G1 X100.676 Y91.775 E4.74452
G1 X100.185 Y92.101 E4.77392
G1 X97.657 Y94.12 E4.93533
G1 X97.214 Y94.546 E4.966
G1 X95.225 Y96.833 E5.11721
G1 X94.829 Y97.394 E5.15147
G1 X93.289 Y100.124 E5.30784
G1 X93.137 Y100.427 E5.32476
G1 X91.703 Y103.692 E5.50267
G1 X91.531 Y104.184 E5.52867
G1 X91.467 Y104.474 E5.54349
G1 X90.943 Y107.475 E5.69547
G1 X90.894 Y108.181 E5.73078
G1 X91.015 Y111.581 E5.90051
G1 X91.046 Y112.066 E5.92476
G1 X90.686 Y113.173 E5.98283
G1 X90.106 Y113.595 E6.01862
G1 X89.398 Y113.595 E6.05394
G1 X88.844 Y113.192 E6.08812
G1 X88.394 Y111.724 E6.16472
G1 X88.33 Y109.175 E6.29193
G1 X88.726 Y106.465 E6.42857
G1 X89.058 Y104.565 E6.5248
G1 X90.168 Y101.189 E6.7021
G1 X91.168 Y98.742 E6.83398
G1 X92.623 Y96.402 E6.97145
G1 X94.476 Y94.053 E7.12072
M205 X10 Y10
G0 F6000 X94.18 Y93.783
M205 X8 Y8
G1 F1200 X96.346 Y91.692 E7.27092
G1 X99.316 Y89.453 E7.45648
G1 X101.821 Y88.04 E7.59997
G1 X104.197 Y86.851 E7.73252
G1 X105.867 Y86.314 E7.82004
G1 X107.341 Y86.314 E7.89358
G1 X108.13 Y86.889 E7.94228
G1 X108.43 Y87.812 E7.9907
G1 X108.148 Y88.68 E8.03624
G1 X106.82 Y89.579 E8.11624
G1 X104.08 Y90.436 E8.25947
G1 X103.537 Y90.667 E8.28891
G1 X100.868 Y92.126 E8.44067
G1 X100.435 Y92.414 E8.46661
G1 X97.907 Y94.433 E8.62802
G1 X97.515 Y94.808 E8.65509
G1 X95.526 Y97.095 E8.8063
G1 X95.177 Y97.59 E8.83652
G1 X93.637 Y100.32 E8.99289
G1 X93.503 Y100.588 E9.00784
G1 X92.069 Y103.853 E9.18575
G1 X91.861 Y104.543 E9.2217
G1 X91.337 Y107.544 E9.37369
G1 X91.294 Y108.167 E9.40485
G1 X91.415 Y111.567 E9.57458
G1 X91.45 Y112.116 E9.60203
G1 X91.026 Y113.42 E9.67043
G1 X90.237 Y113.995 E9.71914
G1 X89.267 Y113.995 E9.76754
G1 X88.501 Y113.437 E9.81482
G1 X87.996 Y111.79 E9.90076
G1 X87.929 Y109.15 E10.03251
G1 X88.335 Y106.375 E10.17243
G1 X88.667 Y104.474 E10.26871
G1 X89.791 Y101.056 E10.44822
G1 X90.812 Y98.557 E10.5829
G1 X92.295 Y96.171 E10.72306
G1 X94.18 Y93.783 E10.87484
M205 X10 Y10
G0 F6000 X93.883 Y93.512
M205 X8 Y8
G1 F1200 X96.083 Y91.39 E11.02733
G1 X99.097 Y89.117 E11.21567
G1 X101.639 Y87.683 E11.36128
G1 X104.044 Y86.48 E11.49544
G1 X105.804 Y85.914 E11.58767
G1 X107.471 Y85.914 E11.67084
G1 X108.471 Y86.642 E11.73255
G1 X108.852 Y87.812 E11.79394
G1 X108.486 Y88.935 E11.85287
G1 X106.996 Y89.943 E11.94262
G1 X104.2 Y90.818 E12.08878
G1 X103.729 Y91.018 E12.11431
G1 X101.06 Y92.477 E12.26606
G1 X100.684 Y92.726 E12.28856
G1 X98.156 Y94.745 E12.44997
G1 X97.817 Y95.071 E12.47343
G1 X95.828 Y97.358 E12.62465
G1 X95.525 Y97.787 E12.65085
G1 X93.985 Y100.517 E12.80723
G1 X93.869 Y100.748 E12.82012
G1 X92.435 Y104.013 E12.99803
G1 X92.255 Y104.612 E13.02924
G1 X91.731 Y107.613 E13.18122
G1 X91.694 Y108.152 E13.20818
G1 X91.819 Y111.633 E13.38196
G1 X91.855 Y112.169 E13.40876
G1 X91.367 Y113.667 E13.48736
G1 X90.367 Y114.395 E13.54907
G1 X89.137 Y114.395 E13.61044
G1 X88.158 Y113.682 E13.67086
G1 X87.597 Y111.852 E13.76635
G1 X87.529 Y109.132 E13.90209
G1 X87.946 Y106.277 E14.04604
G1 X88.277 Y104.376 E14.14231
G1 X89.415 Y100.918 E14.32393
G1 X90.455 Y98.374 E14.46105
G1 X91.967 Y95.941 E14.60396
G1 X93.883 Y93.512 E14.75831
M205 X10 Y10
G0 F6000 X93.59 Y93.239
M205 X8 Y8
G1 F1200 X95.82 Y91.088 E14.91289
G1 X98.881 Y88.78 E15.10415
G1 X101.436 Y87.339 E15.25049
G1 X103.899 Y86.107 E15.38789
G1 X105.74 Y85.514 E15.48438
G1 X107.6 Y85.514 E15.57718
G1 X108.811 Y86.396 E15.65192
G1 X109.272 Y87.812 E15.72621
G1 X108.824 Y89.189 E15.79846
G1 X107.173 Y90.306 E15.89791
G1 X104.319 Y91.199 E16.0471
G1 X103.921 Y91.369 E16.06869
G1 X101.252 Y92.828 E16.22045
G1 X100.934 Y93.039 E16.23948
G1 X98.406 Y95.058 E16.40089
G1 X98.119 Y95.333 E16.42073
G1 X96.13 Y97.62 E16.57194
G1 X95.874 Y97.983 E16.5941
G1 X94.334 Y100.713 E16.75048
G1 X94.236 Y100.909 E16.76141
G1 X92.802 Y104.174 E16.93932
G1 X92.649 Y104.681 E16.96574
G1 X92.125 Y107.682 E17.11772
G1 X92.093 Y108.138 E17.14053
G1 X92.214 Y111.538 E17.31026
G1 X92.259 Y112.219 E17.34431
G1 X91.707 Y113.913 E17.4332
G1 X90.496 Y114.795 E17.50794
G1 X89.008 Y114.795 E17.58218
G1 X87.814 Y113.926 E17.65586
G1 X87.198 Y111.918 E17.76064
G1 X87.128 Y109.107 E17.90093
G1 X87.55 Y106.219 E18.04654
G1 X87.889 Y104.278 E18.14484
G1 X89.038 Y100.785 E18.3283
G1 X90.1 Y98.186 E18.46837
G1 X91.633 Y95.72 E18.61323
G1 X93.59 Y93.239 E18.77088
M205 X10 Y10
G0 F6000 X93.29 Y92.973
M205 X8 Y8
G1 F1200 X95.562 Y90.781 E18.92839
G1 X98.66 Y88.445 E19.12196
G1 X101.254 Y86.982 E19.27054
G1 X103.746 Y85.735 E19.40957
G1 X105.677 Y85.114 E19.51076
G1 X107.731 Y85.114 E19.61324
G1 X109.151 Y86.148 E19.70087
G1 X109.693 Y87.812 E19.78818
G1 X109.161 Y89.443 E19.87377
G1 X107.346 Y90.671 E19.9831
G1 X104.439 Y91.581 E20.13507
G1 X104.113 Y91.72 E20.15275
G1 X101.444 Y93.179 E20.30451
G1 X101.184 Y93.352 E20.32009
G1 X98.656 Y95.371 E20.4815
G1 X98.421 Y95.596 E20.49773
G1 X96.432 Y97.883 E20.64894
G1 X96.222 Y98.18 E20.66709
G1 X94.682 Y100.91 E20.82347
G1 X94.602 Y101.07 E20.83239
G1 X93.168 Y104.335 E21.0103
G1 X93.043 Y104.749 E21.03188
G1 X92.519 Y107.75 E21.18386
G1 X92.493 Y108.124 E21.20257
G1 X92.617 Y111.58 E21.3751
G1 X92.663 Y112.269 E21.40955
G1 X92.047 Y114.161 E21.50882
G1 X90.627 Y115.195 E21.59645
G1 X88.877 Y115.195 E21.68376
G1 X87.471 Y114.171 E21.77054
G1 X86.8 Y111.981 E21.88481
G1 X86.727 Y109.082 E22.02949
G1 X87.151 Y106.18 E22.17581
G1 X87.5 Y104.18 E22.2771
G1 X88.665 Y100.64 E22.46303
G1 X89.739 Y98.01 E22.60476
G1 X91.309 Y95.484 E22.75314
G1 X93.29 Y92.973 E22.9127
M205 X10 Y10
G0 F6000 X92.99 Y92.707
M205 X8 Y8
G1 F1200 X95.304 Y90.475 E23.0731
G1 X98.444 Y88.108 E23.26928
G1 X101.066 Y86.629 E23.41947
G1 X103.589 Y85.366 E23.56023
G1 X105.616 Y84.714 E23.66646
G1 X107.861 Y84.714 E23.77847
G1 X109.491 Y85.901 E23.87906
G1 X110.114 Y87.812 E23.97934
G1 X109.5 Y89.697 E24.07825
G1 X107.52 Y91.036 E24.1975
G1 X104.558 Y91.963 E24.35234
G1 X104.304 Y92.071 E24.36611
G1 X101.635 Y93.53 E24.51787
G1 X101.433 Y93.664 E24.52996
G1 X98.905 Y95.683 E24.69137
G1 X98.723 Y95.858 E24.70397
G1 X96.734 Y98.145 E24.85518
G1 X96.571 Y98.376 E24.86928
G1 X95.031 Y101.106 E25.02566
G1 X94.968 Y101.231 E25.03264
G1 X93.534 Y104.496 E25.21055
G1 X93.437 Y104.818 E25.22733
G1 X92.913 Y107.819 E25.37932
G1 X92.893 Y108.11 E25.39387
G1 X93.016 Y111.553 E25.56575
G1 X93.067 Y112.321 E25.60415
G1 X92.387 Y114.408 E25.71366
G1 X90.757 Y115.595 E25.81426
G1 X88.747 Y115.595 E25.91454
G1 X87.128 Y114.416 E26.01446
G1 X86.402 Y112.048 E26.13803
G1 X86.327 Y109.053 E26.28749
G1 X86.758 Y106.104 E26.43618
G1 X87.111 Y104.082 E26.53859
G1 X88.289 Y100.502 E26.72661
G1 X89.382 Y97.826 E26.87083
G1 X90.981 Y95.254 E27.02192
G1 X92.99 Y92.707 E27.18376
M205 X10 Y10
G0 F6000 X92.693 Y92.437
M205 X8 Y8
G1 F1200 X95.045 Y90.169 E27.34677
G1 X98.219 Y87.775 E27.54512
G1 X100.884 Y86.272 E27.69776
G1 X103.438 Y84.994 E27.84024
G1 X105.552 Y84.314 E27.95103
G1 X107.992 Y84.314 E28.07277
G1 X109.831 Y85.653 E28.18626
G1 X110.534 Y87.812 E28.29954
G1 X109.837 Y89.953 E28.41187
G1 X107.699 Y91.4 E28.54067
G1 X104.677 Y92.345 E28.69864
G1 X104.496 Y92.422 E28.70845
G1 X101.827 Y93.881 E28.8602
G1 X101.683 Y93.977 E28.86884
G1 X99.155 Y95.996 E29.03025
G1 X99.024 Y96.121 E29.03928
G1 X97.035 Y98.408 E29.19049
G1 X96.919 Y98.573 E29.20056
G1 X95.379 Y101.303 E29.35693
G1 X95.334 Y101.392 E29.36191
G1 X93.9 Y104.657 E29.53982
G1 X93.831 Y104.887 E29.5518
G1 X93.307 Y107.888 E29.70378
G1 X93.293 Y108.096 E29.71418
G1 X93.415 Y111.526 E29.88541
G1 X93.471 Y112.371 E29.92766
G1 X92.727 Y114.656 E30.04755
G1 X90.888 Y115.995 E30.16105
G1 X88.616 Y115.995 E30.2744
G1 X86.784 Y114.661 E30.38746
G1 X86.004 Y112.114 E30.52035
G1 X85.926 Y109.028 E30.67436
G1 X86.358 Y106.073 E30.82336
G1 X86.722 Y103.984 E30.92915
G1 X87.911 Y100.369 E31.11901
G1 X89.026 Y97.641 E31.26604
G1 X90.653 Y95.024 E31.41977
G1 X92.693 Y92.437 E31.58414
M205 X10 Y10
G0 F6000 X92.397 Y92.168
M205 X8 Y8
G1 F1200 X94.786 Y89.863 E31.74976
G1 X97.997 Y87.442 E31.95039
G1 X100.696 Y85.919 E32.105
G1 X103.291 Y84.622 E32.24974
G1 X105.489 Y83.914 E32.36494
G1 X108.122 Y83.914 E32.49631
G1 X110.171 Y85.406 E32.62276
G1 X110.954 Y87.812 E32.74899
G1 X110.174 Y90.207 E32.87466
G1 X107.875 Y91.763 E33.01315
G1 X104.797 Y92.726 E33.17406
G1 X104.688 Y92.773 E33.17998
G1 X102.019 Y94.232 E33.33173
G1 X101.933 Y94.289 E33.33688
G1 X99.405 Y96.308 E33.49829
G1 X99.326 Y96.383 E33.50372
G1 X97.337 Y98.67 E33.65494
G1 X97.267 Y98.769 E33.66099
G1 X95.727 Y101.499 E33.81736
G1 X95.701 Y101.553 E33.82035
G1 X94.267 Y104.818 E33.99826
G1 X94.225 Y104.956 E34.00546
G1 X93.701 Y107.957 E34.15745
G1 X93.692 Y108.081 E34.16365
G1 X93.814 Y111.5 E34.33433
G1 X93.875 Y112.421 E34.38038
G1 X93.067 Y114.903 E34.5106
G1 X91.018 Y116.395 E34.63706
G1 X88.486 Y116.395 E34.76338
G1 X86.442 Y114.906 E34.88955
G1 X85.605 Y112.177 E35.03196
G1 X85.525 Y109.009 E35.19006
G1 X85.967 Y105.988 E35.34238
G1 X86.333 Y103.886 E35.44883
G1 X87.538 Y100.224 E35.64116
G1 X88.665 Y97.465 E35.78985
G1 X90.327 Y94.792 E35.94688
G1 X92.397 Y92.168 E36.11363
M205 X10 Y10
G0 F6000 X92.1 Y91.898
M205 X8 Y8
G1 F1200 X94.523 Y89.561 E36.28158
G1 X97.784 Y87.102 E36.48534
G1 X100.498 Y85.571 E36.6408
G1 X103.14 Y84.25 E36.78817
G1 X105.425 Y83.514 E36.90793
G1 X108.251 Y83.514 E37.04892
G1 X110.512 Y85.16 E37.18845
G1 X111.376 Y87.812 E37.3276
G1 X110.513 Y90.46 E37.46655
G1 X108.049 Y92.128 E37.615
G1 X104.916 Y93.108 E37.77877
G1 X104.88 Y93.124 E37.78074
G1 X102.211 Y94.583 E37.93249
G1 X102.182 Y94.602 E37.93422
G1 X99.654 Y96.621 E38.09563
G1 X99.628 Y96.646 E38.09743
G1 X97.639 Y98.933 E38.24864
G1 X97.616 Y98.966 E38.25065
G1 X96.067 Y101.714 E38.40803
G1 X94.633 Y104.979 E38.58594
G1 X94.619 Y105.025 E38.58834
G1 X94.095 Y108.026 E38.74033
G1 X94.092 Y108.067 E38.74238
G1 X94.213 Y111.473 E38.91241
G1 X94.28 Y112.473 E38.96241
G1 X93.408 Y115.149 E39.10283
G1 X91.147 Y116.795 E39.24235
G1 X88.357 Y116.795 E39.38155
G1 X86.097 Y115.15 E39.521
G1 X85.206 Y112.243 E39.6727
G1 X85.124 Y108.984 E39.83534
G1 X85.57 Y105.935 E39.98907
G1 X85.944 Y103.788 E40.0978
G1 X87.162 Y100.087 E40.29219
G1 X88.309 Y97.28 E40.44347
G1 X89.999 Y94.562 E40.60314
G1 X92.1 Y91.898 E40.77241
M205 X10 Y10
G1 F1500 E34.77241
G1 F600 Z0.375
G0 F6000 X95.069 Y94.592 Z0.375
M205 X8 Y8
;TYPE:SUPPORT
G1 F600 Z0.3
G1 F1500 E40.77241
G1 F1200 X97.125 Y92.608 E40.91496
G1 X99.981 Y90.455 E41.09339
G1 X102.385 Y89.099 E41.23109
G1 X104.65 Y87.967 E41.35742
G1 X106.055 Y87.514 E41.43107
G1 X106.949 Y87.514 E41.47567
G1 X107.11 Y87.631 E41.4856
G1 X107.136 Y87.916 E41.49988
G1 X106.294 Y88.486 E41.55061
G1 X103.325 Y89.415 E41.70581
G1 X99.972 Y91.248 E41.89646
G1 X96.86 Y93.733 E42.09515
G1 X94.341 Y96.629 E42.28664
G1 X92.489 Y99.913 E42.47473
G1 X90.766 Y103.836 E42.6885
G1 X90.079 Y107.77 E42.88774
G1 X90.218 Y111.674 E43.08263
G1 X90.238 Y111.968 E43.09733
G1 X90.006 Y112.678 E43.1346
G1 X89.845 Y112.795 E43.14453
G1 X89.658 Y112.795 E43.15386
G1 X89.531 Y112.702 E43.16171
G1 X89.191 Y111.597 E43.21939
G1 X89.132 Y109.224 E43.33782
G1 X89.519 Y106.579 E43.47118
G1 X89.835 Y104.761 E43.56324
G1 X90.919 Y101.468 E43.7362
G1 X91.885 Y99.104 E43.86361
G1 X93.282 Y96.858 E43.99557
G1 X95.069 Y94.592 E44.13954
M205 X10 Y10
G1 F1500 E38.13954
G1 F600 Z0.375
;MESH:sono-spulenform-45x20.stl
G0 F6000 X110.241 Y119.901 Z0.375
M205 X8 Y8
;TYPE:WALL-INNER
G1 F600 Z0.3
G1 F1500 E44.13954
G1 F1200 X112.044 Y120.144 E44.23031
G1 X113.863 Y120.062 E44.32115
G1 X115.638 Y119.657 E44.41198
G1 X117.311 Y118.942 E44.50275
G1 X118.83 Y117.939 E44.59357
G1 X120.151 Y116.676 E44.68475
G1 X121.217 Y115.208 E44.77526
G1 X122.007 Y113.568 E44.86608
G1 X122.491 Y111.814 E44.95685
G1 X122.655 Y110 E45.04772
G1 X122.49 Y108.181 E45.13885
G1 X122.007 Y106.432 E45.22937
G1 X121.217 Y104.792 E45.32019
G1 X120.146 Y103.32 E45.41101
G1 X118.83 Y102.061 E45.50187
G1 X117.311 Y101.058 E45.59268
G1 X115.638 Y100.343 E45.68345
G1 X113.863 Y99.938 E45.77429
G1 X112.044 Y99.856 E45.86513
G1 X110.241 Y100.099 E45.95589
G1 X108.504 Y100.665 E46.04704
G1 X106.902 Y101.529 E46.13784
G1 X105.482 Y102.661 E46.22844
G1 X104.285 Y104.032 E46.31924
G1 X103.351 Y105.595 E46.41009
G1 X102.712 Y107.299 E46.50088
G1 X102.387 Y109.09 E46.59169
G1 X102.387 Y110.91 E46.68249
G1 X102.712 Y112.701 E46.7733
G1 X103.351 Y114.405 E46.8641
G1 X104.288 Y115.972 E46.95519
G1 X105.482 Y117.339 E47.04574
G1 X106.906 Y118.474 E47.13659
G1 X108.509 Y119.337 E47.22742
G1 X110.241 Y119.901 E47.31829
M205 X10 Y10
G0 F6000 X110.33 Y119.509
M205 X8 Y8
G1 F1200 X112.062 Y119.743 E47.40549
G1 X113.809 Y119.664 E47.49273
G1 X115.514 Y119.275 E47.57998
G1 X117.121 Y118.588 E47.66717
G1 X118.58 Y117.625 E47.75439
G1 X119.848 Y116.412 E47.84194
G1 X120.872 Y115.002 E47.92887
G1 X121.631 Y113.427 E48.0161
G1 X122.096 Y111.742 E48.10331
G1 X122.253 Y110 E48.19057
G1 X122.095 Y108.253 E48.27808
G1 X121.631 Y106.573 E48.36504
G1 X120.872 Y104.998 E48.45226
G1 X119.844 Y103.584 E48.53948
G1 X118.58 Y102.375 E48.62674
G1 X117.121 Y101.412 E48.71396
G1 X115.514 Y100.725 E48.80115
