;FLAVOR:Marlin
;TIME:2652
;Filament used: 1.87486m
;Layer height: 0.2
;MINX:90.378
;MINY:87.976
;MINZ:0.3
;MAXX:134.567
;MAXY:132.022
;MAXZ:15.175
;Generated with Cura_SteamEngine 4.13.1
M140 S60
M105
M190 S60
M104 S200
M105
M109 S200
M82 ;absolute extrusion mode
G21                                        ; metric values
G90                                        ; absolute positioning
M82                                        ; set extruder to absolute mode
M107                                       ; start with the fan off
M190 S60                                   ; preheat and wait for bed
M109 S210                                  ; preheat and wait for hotend
M300 S1000 P500                            ; BEEP heating done
G28 X0 Y10 Z0                              ; move X/Y to min endstops
M420 S1                                    ; enable mesh leveling
G0 Z0.15                                   ; lift nozzle a bit
G0 X2                                      ; move away from clips
G92 E0                                     ; zero the extruded length
G1 Y50 E25 F500                            ; Extrude 25mm of filament in a 5cm line.
G92 E0                                     ; zero the extruded length again
G1 E-2 F500                                ; Retract a little
G1 Y120 F4000                              ; Quickly wipe away from the filament line
G92 E0
G92 E0
G1 F1500 E-6
;LAYER_COUNT:75
;LAYER:0
M106 S76.5
M205 X10 Y10
G1 F600 Z0.375
G0 F6000 X98.322 Y95.298 Z0.375
M205 X8 Y8
;TYPE:SKIRT
G1 F600 Z0.3
G1 F1500 E0
G1 F1200 X99.902 Y93.949 E0.10365
G1 X101.211 Y92.988 E0.18467
G1 X102.421 Y92.19 E0.25698
G1 X103.571 Y91.554 E0.32254
G1 X104.932 Y90.953 E0.39677
G1 X106.224 Y90.474 E0.46551
G1 X107.522 Y90.1 E0.53291
G1 X108.832 Y89.853 E0.59941
G1 X110.505 Y89.673 E0.68336
G1 X112.969 Y89.578 E0.80638
G1 X114.857 Y89.669 E0.90068
G1 X116.162 Y89.894 E0.96675
G1 X117.794 Y90.189 E1.04949
G1 X118.927 Y90.516 E1.10832
G1 X120.429 Y91.231 E1.19132
G1 X122.059 Y91.977 E1.28075
G1 X123.16 Y92.628 E1.34456
G1 X124.454 Y93.467 E1.4215
G1 X126.081 Y94.708 E1.52359
G1 X127.272 Y95.793 E1.60397
G1 X128.019 Y96.787 E1.666
G1 X128.971 Y98.033 E1.74424
G1 X129.835 Y99.296 E1.82058
G1 X130.702 Y100.823 E1.90819
G1 X131.346 Y102.174 E1.98285
G1 X132.074 Y104.173 E2.08899
G1 X132.502 Y105.66 E2.16619
G1 X132.768 Y107.082 E2.23836
G1 X132.944 Y108.584 E2.31381
G1 X132.891 Y110.214 E2.39518
G1 X132.942 Y110.897 E2.42935
G1 X132.783 Y111.226 E2.44758
G1 X132.678 Y111.209 E2.45288
G1 X132.529 Y110.643 E2.48208
G1 X132.537 Y109.325 E2.54784
G1 X132.534 Y109.211 E2.55353
G1 X132.452 Y107.764 E2.62584
G1 X132.432 Y107.581 E2.63502
G1 X132.137 Y105.743 E2.72789
G1 X132.106 Y105.59 E2.73568
G1 X131.658 Y103.804 E2.82754
G1 X131.604 Y103.629 E2.83668
G1 X131.004 Y101.972 E2.9246
G1 X130.937 Y101.811 E2.9333
G1 X130.231 Y100.328 E3.01525
G1 X130.122 Y100.132 E3.02643
G1 X129.306 Y98.856 E3.102
G1 X129.245 Y98.767 E3.10738
G1 X128.362 Y97.554 E3.18223
G1 X128.188 Y97.349 E3.19565
G1 X127.158 Y96.305 E3.26882
G1 X126.189 Y95.294 E3.33868
G1 X126.121 Y95.227 E3.34345
G1 X125.101 Y94.271 E3.41319
G1 X124.92 Y94.122 E3.42489
G1 X123.354 Y92.998 E3.52106
G1 X123.16 Y92.877 E3.53246
G1 X121.768 Y92.124 E3.61142
G1 X121.578 Y92.035 E3.62189
G1 X120.194 Y91.484 E3.69621
G1 X118.82 Y90.879 E3.77111
G1 X118.603 Y90.799 E3.78265
G1 X117.222 Y90.393 E3.85446
G1 X116.941 Y90.334 E3.86878
G1 X115.375 Y90.135 E3.94754
G1 X114.035 Y89.915 E4.01529
G1 X113.766 Y89.891 E4.02876
G1 X111.74 Y89.866 E4.12985
G1 X111.488 Y89.881 E4.14244
G1 X110.042 Y90.067 E4.21518
G1 X108.322 Y90.282 E4.30166
G1 X108.074 Y90.331 E4.31427
G1 X106.683 Y90.708 E4.38617
G1 X106.452 Y90.787 E4.39835
G1 X104.78 Y91.495 E4.48894
G1 X103.301 Y92.148 E4.5696
G1 X103.157 Y92.22 E4.57763
G1 X101.873 Y92.93 E4.65083
G1 X101.753 Y93.003 E4.65784
G1 X100.436 Y93.872 E4.73656
G1 X100.266 Y93.999 E4.74714
G1 X98.896 Y95.156 E4.83661
G1 X98.765 Y95.278 E4.84554
G1 X97.655 Y96.424 E4.92513
G1 X96.7 Y97.464 E4.99558
G1 X96.565 Y97.63 E5.00625
G1 X95.61 Y98.958 E5.08786
G1 X95.461 Y99.204 E5.10221
G1 X94.618 Y100.891 E5.19629
G1 X93.761 Y102.717 E5.29693
G1 X93.69 Y102.889 E5.30621
G1 X93.114 Y104.541 E5.3935
G1 X93.044 Y104.805 E5.40712
G1 X92.785 Y106.197 E5.47776
G1 X92.543 Y107.866 E5.5619
G1 X92.373 Y109.453 E5.64153
G1 X92.363 Y109.678 E5.65276
G1 X92.392 Y111.236 E5.73051
G1 X92.413 Y111.48 E5.74272
G1 X92.655 Y113.032 E5.82109
G1 X92.945 Y114.747 E5.90787
G1 X92.988 Y114.936 E5.91754
G1 X93.397 Y116.386 E5.9927
G1 X93.447 Y116.539 E6.00073
G1 X94.163 Y118.416 E6.10096
G1 X94.289 Y118.679 E6.11551
G1 X95.046 Y119.981 E6.19064
G1 X95.115 Y120.09 E6.19708
G1 X95.915 Y121.264 E6.26796
G1 X96.658 Y122.444 E6.33753
G1 X96.895 Y122.745 E6.35664
G1 X98.033 Y123.906 E6.43775
G1 X99.073 Y124.944 E6.51105
G1 X99.182 Y125.044 E6.51843
G1 X100.625 Y126.266 E6.61277
G1 X100.788 Y126.389 E6.62296
G1 X102.197 Y127.33 E6.70749
G1 X102.363 Y127.428 E6.71711
G1 X103.649 Y128.1 E6.7895
G1 X103.768 Y128.157 E6.79608
G1 X105.263 Y128.804 E6.87735
G1 X105.42 Y128.863 E6.88572
G1 X106.904 Y129.347 E6.96359
G1 X107.03 Y129.384 E6.97014
G1 X108.5 Y129.747 E7.04569
G1 X108.722 Y129.787 E7.05694
G1 X110.25 Y129.966 E7.13369
G1 X111.77 Y130.102 E7.20983
G1 X111.953 Y130.109 E7.21897
G1 X113.38 Y130.091 E7.29017
G1 X113.546 Y130.081 E7.29846
G1 X114.994 Y129.928 E7.37111
G1 X116.723 Y129.71 E7.45805
G1 X117.091 Y129.624 E7.4769
G1 X118.238 Y129.224 E7.53751
G1 X118.667 Y129.274 E7.55905
G1 X118.687 Y129.371 E7.564
G1 X118.233 Y129.66 E7.59085
G1 X117.14 Y129.875 E7.64642
G1 X115.834 Y130.145 E7.71295
G1 X114.518 Y130.306 E7.7791
G1 X112.071 Y130.42 E7.90131
G1 X110.746 Y130.351 E7.96751
G1 X109.388 Y130.244 E8.03547
G1 X107.933 Y129.997 E8.1091
G1 X106.57 Y129.625 E8.17958
G1 X105.328 Y129.115 E8.24657
G1 X103.906 Y128.537 E8.32315
G1 X102.493 Y127.762 E8.40355
G1 X101.035 Y126.879 E8.48859
G1 X99.75 Y125.959 E8.56744
G1 X98.8 Y125.183 E8.62864
G1 X97.908 Y124.195 E8.69504
G1 X96.968 Y123.199 E8.76337
G1 X96.102 Y122.102 E8.8331
G1 X95.297 Y121.157 E8.89503
G1 X94.097 Y118.751 E9.02917
G1 X93.382 Y117.16 E9.11619
G1 X92.795 Y115.373 E9.21003
G1 X92.424 Y114.056 E9.27829
G1 X92.171 Y112.563 E9.35384
G1 X92.143 Y111.272 E9.41827
G1 X92.131 Y111.106 E9.42657
G1 X91.987 Y109.85 E9.48964
G1 X92.131 Y108.527 E9.55604
G1 X92.344 Y107.004 E9.63276
G1 X92.587 Y105.668 E9.70051
G1 X92.862 Y104.397 E9.76538
G1 X93.351 Y102.839 E9.84685
G1 X94.027 Y101.176 E9.93641
G1 X94.72 Y100.047 E10.0025
G1 X95.476 Y98.782 E10.07602
G1 X96.38 Y97.501 E10.15424
G1 X97.237 Y96.423 E10.22295
G1 X98.322 Y95.298 E10.30093
M205 X10 Y10
G0 F6000 X98.046 Y95.008
M205 X8 Y8
G1 F1200 X99.651 Y93.637 E10.40624
G1 X100.971 Y92.669 E10.4879
G1 X102.225 Y91.841 E10.56287
G1 X103.394 Y91.195 E10.62951
G1 X104.776 Y90.584 E10.70489
G1 X106.108 Y90.09 E10.77577
G1 X107.421 Y89.712 E10.84394
G1 X108.779 Y89.456 E10.91288
G1 X110.475 Y89.273 E10.99799
G1 X112.973 Y89.177 E11.1227
G1 X114.895 Y89.27 E11.2187
G1 X116.23 Y89.5 E11.28629
G1 X117.887 Y89.8 E11.3703
G1 X119.068 Y90.141 E11.43163
G1 X120.596 Y90.868 E11.51605
G1 X122.243 Y91.622 E11.60642
G1 X123.365 Y92.285 E11.67144
G1 X124.689 Y93.143 E11.75015
G1 X126.34 Y94.403 E11.85377
G1 X127.572 Y95.526 E11.93693
G1 X128.337 Y96.544 E12.00046
G1 X129.296 Y97.798 E12.07922
G1 X130.173 Y99.079 E12.15668
G1 X131.054 Y100.632 E12.24575
G1 X131.712 Y102.014 E12.32212
G1 X132.461 Y104.07 E12.43129
G1 X132.89 Y105.56 E12.50864
G1 X133.164 Y107.02 E12.58276
G1 X133.344 Y108.57 E12.6606
G1 X133.291 Y110.227 E12.74332
G1 X133.297 Y110.407 E12.7523
G1 X133.349 Y110.941 E12.77907
G1 X133.193 Y111.422 E12.8043
G1 X132.912 Y111.626 E12.82162
G1 X132.572 Y111.626 E12.83858
G1 X132.328 Y111.448 E12.85365
G1 X132.128 Y110.691 E12.89271
G1 X132.137 Y109.322 E12.96101
G1 X132.135 Y109.234 E12.96541
G1 X132.053 Y107.787 E13.03771
G1 X132.037 Y107.644 E13.04489
G1 X131.742 Y105.806 E13.13776
G1 X131.718 Y105.687 E13.14382
G1 X131.27 Y103.901 E13.23568
G1 X131.228 Y103.765 E13.24279
G1 X130.628 Y102.108 E13.33071
G1 X130.576 Y101.983 E13.33746
G1 X129.87 Y100.5 E13.4194
G1 X129.785 Y100.348 E13.42809
G1 X128.969 Y99.072 E13.50366
G1 X128.922 Y99.002 E13.50786
G1 X128.039 Y97.789 E13.58272
G1 X127.903 Y97.63 E13.59315
G1 X126.87 Y96.582 E13.66657
G1 X125.901 Y95.571 E13.73643
G1 X124.827 Y94.563 E13.80992
G1 X124.686 Y94.447 E13.81903
G1 X123.12 Y93.323 E13.9152
G1 X122.97 Y93.229 E13.92403
G1 X121.578 Y92.476 E14.00299
G1 X121.43 Y92.406 E14.01116
G1 X120.032 Y91.849 E14.08623
G1 X118.659 Y91.245 E14.16107
G1 X118.49 Y91.183 E14.17005
G1 X117.109 Y90.777 E14.24186
G1 X116.891 Y90.731 E14.25298
G1 X115.34 Y90.534 E14.33098
G1 X113.97 Y90.309 E14.40025
G1 X113.761 Y90.291 E14.41071
G1 X111.735 Y90.266 E14.5118
G1 X111.539 Y90.277 E14.52159
G1 X110.086 Y90.465 E14.59468
G1 X108.371 Y90.679 E14.68091
G1 X108.179 Y90.717 E14.69067
G1 X106.788 Y91.094 E14.76258
G1 X106.608 Y91.156 E14.77207
G1 X104.942 Y91.861 E14.86233
G1 X103.463 Y92.514 E14.94299
G1 X103.351 Y92.57 E14.94923
G1 X102.067 Y93.28 E15.02243
G1 X101.973 Y93.336 E15.02789
G1 X100.656 Y94.205 E15.10661
G1 X100.524 Y94.304 E15.11484
G1 X99.154 Y95.461 E15.20431
G1 X99.052 Y95.557 E15.2113
G1 X97.95 Y96.694 E15.29029
G1 X96.995 Y97.734 E15.36073
G1 X96.889 Y97.864 E15.3691
G1 X95.934 Y99.192 E15.45071
G1 X95.819 Y99.383 E15.46183
G1 X94.98 Y101.061 E15.55543
G1 X94.123 Y102.887 E15.65606
G1 X94.068 Y103.021 E15.66329
G1 X93.492 Y104.673 E15.75057
G1 X93.438 Y104.878 E15.76115
G1 X93.169 Y106.325 E15.83458
G1 X92.947 Y107.857 E15.91181
G1 X92.771 Y109.496 E15.99405
G1 X92.763 Y109.671 E16.00279
G1 X92.792 Y111.229 E16.08053
G1 X92.809 Y111.418 E16.09
G1 X93.05 Y112.965 E16.16811
G1 X93.34 Y114.68 E16.25489
G1 X93.373 Y114.827 E16.2624
G1 X93.782 Y116.277 E16.33757
G1 X93.821 Y116.396 E16.34381
G1 X94.537 Y118.273 E16.44404
G1 X94.635 Y118.478 E16.45538
G1 X95.392 Y119.78 E16.53051
G1 X95.445 Y119.865 E16.53551
G1 X96.251 Y121.047 E16.60689
G1 X96.996 Y122.231 E16.67668
G1 X97.181 Y122.465 E16.69156
G1 X98.316 Y123.623 E16.77246
G1 X99.356 Y124.661 E16.84576
G1 X99.44 Y124.738 E16.85145
G1 X100.883 Y125.96 E16.94579
G1 X101.01 Y126.056 E16.95373
G1 X102.419 Y126.997 E17.03826
G1 X102.549 Y127.074 E17.0458
G1 X103.835 Y127.746 E17.11819
G1 X103.927 Y127.79 E17.12328
G1 X105.422 Y128.437 E17.20455
G1 X105.544 Y128.483 E17.21105
G1 X107.028 Y128.967 E17.28893
G1 X107.126 Y128.995 E17.29401
G1 X108.596 Y129.358 E17.36955
G1 X108.768 Y129.389 E17.37827
G1 X110.285 Y129.567 E17.45447
G1 X111.805 Y129.703 E17.53061
G1 X111.948 Y129.709 E17.53775
G1 X113.375 Y129.691 E17.60895
G1 X113.504 Y129.683 E17.6154
G1 X114.944 Y129.531 E17.68764
G1 X116.673 Y129.313 E17.77458
G1 X116.959 Y129.246 E17.78924
G1 X118.169 Y128.824 E17.85317
G1 X118.728 Y128.824 E17.88106
G1 X119.009 Y129.028 E17.89838
G1 X119.114 Y129.353 E17.91542
G1 X119.023 Y129.632 E17.93006
G1 X118.387 Y130.036 E17.96765
G1 X117.221 Y130.267 E18.02696
G1 X115.903 Y130.54 E18.09411
G1 X114.559 Y130.704 E18.16166
G1 X112.058 Y130.82 E18.28657
G1 X110.762 Y130.753 E18.35131
G1 X109.324 Y130.639 E18.42328
G1 X107.853 Y130.39 E18.49771
G1 X106.441 Y130.005 E18.57073
G1 X105.178 Y129.485 E18.63887
G1 X103.728 Y128.895 E18.71697
G1 X102.289 Y128.107 E18.79882
G1 X100.818 Y127.216 E18.88462
G1 X99.504 Y126.275 E18.96526
G1 X98.528 Y125.477 E19.02815
G1 X97.617 Y124.47 E19.0959
G1 X96.667 Y123.463 E19.16497
G1 X95.754 Y122.308 E19.23842
G1 X94.961 Y121.378 E19.29939
G1 X93.732 Y118.915 E19.43672
G1 X93.01 Y117.308 E19.52462
G1 X92.41 Y115.48 E19.6206
G1 X92.031 Y114.139 E19.69013
G1 X91.772 Y112.605 E19.76774
G1 X91.743 Y111.28 E19.83386
G1 X91.734 Y111.151 E19.84031
G1 X91.585 Y109.852 E19.90554
G1 X91.74 Y108.429 E19.97696
G1 X91.947 Y106.95 E20.05147
G1 X92.192 Y105.601 E20.11987
G1 X92.473 Y104.302 E20.18617
G1 X92.975 Y102.702 E20.26984
G1 X93.671 Y100.99 E20.36204
G1 X94.377 Y99.841 E20.42932
G1 X95.142 Y98.561 E20.50371
G1 X96.055 Y97.267 E20.58272
G1 X96.938 Y96.157 E20.65348
G1 X98.046 Y95.008 E20.73312
M205 X10 Y10
G0 F6000 X97.781 Y94.708
M205 X8 Y8
G1 F1200 X99.395 Y93.329 E20.83903
G1 X100.741 Y92.341 E20.92233
G1 X102.015 Y91.5 E20.99849
G1 X103.218 Y90.835 E21.06707
G1 X104.627 Y90.213 E21.14391
G1 X105.977 Y89.712 E21.21575
G1 X107.333 Y89.322 E21.28614
G1 X108.725 Y89.059 E21.35682
G1 X110.446 Y88.874 E21.44317
G1 X112.965 Y88.777 E21.56894
G1 X114.95 Y88.872 E21.66809
G1 X116.29 Y89.104 E21.73593
G1 X117.972 Y89.409 E21.82122
G1 X119.211 Y89.766 E21.88555
G1 X120.763 Y90.504 E21.97128
G1 X122.431 Y91.268 E22.06281
G1 X123.57 Y91.94 E22.12879
G1 X124.916 Y92.813 E22.20883
G1 X126.595 Y94.093 E22.31416
G1 X127.869 Y95.255 E22.40019
G1 X128.655 Y96.301 E22.46547
G1 X129.611 Y97.551 E22.54398
G1 X130.509 Y98.864 E22.62334
G1 X131.414 Y100.457 E22.71474
G1 X132.083 Y101.862 E22.79238
G1 X132.839 Y103.938 E22.90261
G1 X133.28 Y105.468 E22.98205
G1 X133.562 Y106.974 E23.05849
G1 X133.746 Y108.551 E23.1377
G1 X133.691 Y110.24 E23.22201
G1 X133.695 Y110.369 E23.22845
G1 X133.755 Y110.985 E23.25932
G1 X133.532 Y111.67 E23.29526
G1 X133.043 Y112.026 E23.32544
G1 X132.441 Y112.026 E23.35547
G1 X131.977 Y111.688 E23.38411
G1 X131.728 Y110.742 E23.43292
G1 X131.737 Y109.319 E23.50391
G1 X131.735 Y109.256 E23.50706
G1 X131.653 Y107.809 E23.57936
G1 X131.642 Y107.708 E23.58443
G1 X131.347 Y105.87 E23.6773
G1 X131.33 Y105.785 E23.68163
G1 X130.882 Y103.999 E23.77349
G1 X130.852 Y103.902 E23.77856
G1 X130.252 Y102.245 E23.86648
G1 X130.215 Y102.155 E23.87133
G1 X129.509 Y100.672 E23.95328
G1 X129.448 Y100.563 E23.95951
G1 X128.632 Y99.287 E24.03507
G1 X128.598 Y99.237 E24.03809
G1 X127.715 Y98.024 E24.11294
G1 X127.619 Y97.911 E24.12034
G1 X126.571 Y96.849 E24.19478
G1 X125.574 Y95.81 E24.26662
G1 X124.554 Y94.854 E24.33636
G1 X124.453 Y94.772 E24.34285
G1 X122.887 Y93.648 E24.43902
G1 X122.78 Y93.58 E24.44535
G1 X121.388 Y92.827 E24.52431
G1 X121.282 Y92.778 E24.53013
G1 X119.891 Y92.224 E24.60483
G1 X118.498 Y91.611 E24.68076
G1 X118.377 Y91.567 E24.68718
G1 X116.996 Y91.161 E24.759
G1 X116.84 Y91.128 E24.76695
G1 X115.286 Y90.93 E24.84511
G1 X113.906 Y90.704 E24.91487
G1 X113.756 Y90.691 E24.92239
G1 X111.73 Y90.666 E25.02347
G1 X111.59 Y90.674 E25.03047
G1 X110.137 Y90.861 E25.10356
G1 X108.421 Y91.076 E25.18984
G1 X108.283 Y91.103 E25.19685
G1 X106.892 Y91.48 E25.26875
G1 X106.764 Y91.524 E25.27551
G1 X105.103 Y92.227 E25.36549
G1 X103.624 Y92.88 E25.44615
G1 X103.544 Y92.92 E25.45061
G1 X102.26 Y93.63 E25.52381
G1 X102.193 Y93.67 E25.5277
G1 X100.876 Y94.539 E25.60642
G1 X100.782 Y94.61 E25.6123
G1 X99.412 Y95.767 E25.70176
G1 X99.339 Y95.835 E25.70674
G1 X98.244 Y96.965 E25.78524
G1 X97.289 Y98.005 E25.85569
G1 X97.214 Y98.097 E25.86161
G1 X96.259 Y99.425 E25.94322
G1 X96.177 Y99.562 E25.95118
G1 X95.342 Y101.231 E26.04429
G1 X94.485 Y103.057 E26.14492
G1 X94.446 Y103.153 E26.15009
G1 X93.87 Y104.805 E26.23738
G1 X93.831 Y104.951 E26.24492
G1 X93.565 Y106.383 E26.31758
G1 X93.339 Y107.951 E26.39662
G1 X93.169 Y109.538 E26.47625
G1 X93.163 Y109.664 E26.48254
G1 X93.192 Y111.222 E26.56028
G1 X93.204 Y111.357 E26.56704
G1 X93.444 Y112.899 E26.6449
G1 X93.734 Y114.614 E26.73168
G1 X93.758 Y114.718 E26.737
G1 X94.167 Y116.168 E26.81216
G1 X94.195 Y116.253 E26.81663
G1 X94.911 Y118.13 E26.91686
G1 X94.98 Y118.277 E26.92496
G1 X95.737 Y119.579 E27.00009
G1 X95.776 Y119.639 E27.00367
G1 X96.574 Y120.809 E27.07432
G1 X97.335 Y122.018 E27.14559
G1 X97.467 Y122.185 E27.15621
G1 X98.599 Y123.34 E27.2369
G1 X99.639 Y124.378 E27.3102
G1 X99.699 Y124.433 E27.31426
G1 X101.142 Y125.655 E27.4086
G1 X101.233 Y125.724 E27.4143
G1 X102.642 Y126.665 E27.49883
G1 X102.734 Y126.719 E27.50415
G1 X104.02 Y127.391 E27.57654
G1 X104.086 Y127.423 E27.5802
G1 X105.581 Y128.07 E27.66147
G1 X105.668 Y128.103 E27.66612
G1 X107.152 Y128.587 E27.74399
G1 X107.222 Y128.607 E27.74762
G1 X108.692 Y128.97 E27.82316
G1 X108.815 Y128.992 E27.8294
G1 X110.321 Y129.169 E27.90505
G1 X111.841 Y129.305 E27.98119
