;FLAVOR:Marlin
;TIME:3257
;Filament used: 2.08712m
;Layer height: 0.2
;MINX:95.7
;MINY:80.2
;MINZ:0.3
;MAXX:129.3
;MAXY:139.8
;MAXZ:15.975
;Generated with Cura_SteamEngine 4.13.1
M140 S60
M105
M190 S60
M104 S200
M105
M109 S200
M82 ;absolute extrusion mode
G21                                        ; metric values
G90                                        ; absolute positioning
M82                                        ; set extruder to absolute mode
M107                                       ; start with the fan off
M190 S60                                   ; preheat and wait for bed
M109 S210                                  ; preheat and wait for hotend
M300 S1000 P500                            ; BEEP heating done
G28 X0 Y10 Z0                              ; move X/Y to min endstops
M420 S1                                    ; enable mesh leveling
G0 Z0.15                                   ; lift nozzle a bit
G0 X2                                      ; move away from clips
G92 E0                                     ; zero the extruded length
G1 Y50 E25 F500                            ; Extrude 25mm of filament in a 5cm line.
G92 E0                                     ; zero the extruded length again
G1 E-2 F500                                ; Retract a little
G1 Y120 F4000                              ; Quickly wipe away from the filament line
G92 E0
G92 E0
G1 F1500 E-6
;LAYER_COUNT:79
;LAYER:0
M106 S76.5
M205 X10 Y10
G1 F600 Z0.375
;MESH:bat-exo-paralell-2xAA.stl
G0 F6000 X106.5 Y90 Z0.375
M205 X8 Y8
;TYPE:WALL-INNER
G1 F600 Z0.3
G1 F1500 E0
G1 F1200 X106.5 Y103 E0.64857
G1 X118.5 Y103 E1.24726
G1 X118.5 Y90 E1.89583
G1 X106.5 Y90 E2.49451
M205 X10 Y10
G0 F6000 X106.9 Y90.4
M205 X8 Y8
G1 F1200 X106.9 Y102.6 E3.10317
G1 X118.1 Y102.6 E3.66194
G1 X118.1 Y90.4 E4.2706
G1 X106.9 Y90.4 E4.82937
M205 X10 Y10
G0 F6000 X107.3 Y90.8
M205 X8 Y8
;TYPE:WALL-OUTER
G1 F1200 X107.3 Y102.2 E5.39812
G1 X117.7 Y102.2 E5.91698
G1 X117.7 Y90.8 E6.48573
G1 X107.3 Y90.8 E7.00458
M205 X10 Y10
G0 F6000 X107.3 Y91
G0 X106.86 Y91
G1 F1500 E1.00458
G1 F600 Z0.375
G0 F6000 X106.5 Y108 Z0.375
M205 X8 Y8
;TYPE:WALL-INNER
G1 F600 Z0.3
G1 F1500 E7.00458
G1 F1200 X106.5 Y121 E7.65316
G1 X118.5 Y121 E8.25184
G1 X118.5 Y108 E8.90041
G1 X106.5 Y108 E9.49909
M205 X10 Y10
G0 F6000 X106.9 Y108.4
M205 X8 Y8
G1 F1200 X106.9 Y120.6 E10.10776
G1 X118.1 Y120.6 E10.66653
G1 X118.1 Y108.4 E11.27519
G1 X106.9 Y108.4 E11.83396
M205 X10 Y10
G0 F6000 X107.3 Y108.8
M205 X8 Y8
;TYPE:WALL-OUTER
G1 F1200 X107.3 Y120.2 E12.4027
G1 X117.7 Y120.2 E12.92156
G1 X117.7 Y108.8 E13.49031
G1 X107.3 Y108.8 E14.00917
M205 X10 Y10
G0 F6000 X107.3 Y109
G0 X106.86 Y109
G1 F1500 E8.00917
G1 F600 Z0.375
G0 F6000 X106.5 Y123 Z0.375
M205 X8 Y8
;TYPE:WALL-INNER
G1 F600 Z0.3
G1 F1500 E14.00917
G1 F1200 X106.5 Y134 E14.55796
G1 X118.5 Y134 E15.15664
G1 X118.5 Y123 E15.70544
G1 X106.5 Y123 E16.30412
M205 X10 Y10
G0 F6000 X106.9 Y123.4
M205 X8 Y8
G1 F1200 X106.9 Y133.6 E16.813
G1 X118.1 Y133.6 E17.37177
G1 X118.1 Y123.4 E17.88065
G1 X106.9 Y123.4 E18.43942
M205 X10 Y10
G0 F6000 X107.3 Y123.8
M205 X8 Y8
;TYPE:WALL-OUTER
G1 F1200 X107.3 Y133.2 E18.90839
G1 X117.7 Y133.2 E19.42724
G1 X117.7 Y123.8 E19.89621
G1 X107.3 Y123.8 E20.41507
M205 X10 Y10
G0 F6000 X107.3 Y124
G0 X106.86 Y124
G1 F1500 E14.41507
G1 F600 Z0.375
G0 F6000 X122.5 Y123 Z0.375
M205 X8 Y8
;TYPE:WALL-INNER
G1 F600 Z0.3
G1 F1500 E20.41507
G1 F1200 X122.5 Y139 E21.21331
G1 X102.5 Y139 E22.21112
G1 X102.5 Y123 E23.00936
G1 X96.5 Y123 E23.3087
G1 X96.5 Y121 E23.40848
G1 X102.5 Y121 E23.70782
G1 X102.5 Y90 E25.25442
G1 X96.5 Y90 E25.55376
G1 X96.5 Y88 E25.65354
G1 X102.5 Y88 E25.95288
G1 X102.5 Y81 E26.30211
G1 X122.5 Y81 E27.29992
G1 X122.5 Y88 E27.64915
G1 X128.5 Y88 E27.94849
G1 X128.5 Y90 E28.04827
G1 X122.5 Y90 E28.34761
G1 X122.5 Y121 E29.89421
G1 X128.5 Y121 E30.19355
G1 X128.5 Y123 E30.29333
G1 X122.5 Y123 E30.59267
M205 X10 Y10
G0 F6000 X122.9 Y123.4
M205 X8 Y8
G1 F1200 X122.9 Y139.4 E31.39092
G1 X102.1 Y139.4 E32.42863
G1 X102.1 Y123.4 E33.22687
G1 X96.1 Y123.4 E33.52622
G1 X96.1 Y120.6 E33.66591
G1 X102.1 Y120.6 E33.96525
G1 X102.1 Y90.4 E35.47193
G1 X96.1 Y90.4 E35.77128
G1 X96.1 Y87.6 E35.91097
G1 X102.1 Y87.6 E36.21031
G1 X102.1 Y80.6 E36.55954
G1 X122.9 Y80.6 E37.59726
G1 X122.9 Y87.6 E37.94649
G1 X128.9 Y87.6 E38.24583
G1 X128.9 Y90.4 E38.38552
G1 X122.9 Y90.4 E38.68486
G1 X122.9 Y120.6 E40.19155
G1 X128.9 Y120.6 E40.49089
G1 X128.9 Y123.4 E40.63058
G1 X122.9 Y123.4 E40.92992
M205 X10 Y10
G0 F6000 X123.3 Y123.8
M205 X8 Y8
;TYPE:WALL-OUTER
G1 F1200 X123.3 Y139.8 E41.72817
G1 X101.7 Y139.8 E42.80579
G1 X101.7 Y123.8 E43.60404
G1 X95.7 Y123.8 E43.90338
G1 X95.7 Y120.2 E44.08298
G1 X101.7 Y120.2 E44.38232
G1 X101.7 Y90.8 E45.8491
G1 X95.7 Y90.8 E46.14844
G1 X95.7 Y87.2 E46.32804
G1 X101.7 Y87.2 E46.62738
G1 X101.7 Y80.2 E46.97661
G1 X123.3 Y80.2 E48.05424
G1 X123.3 Y87.2 E48.40347
G1 X129.3 Y87.2 E48.70282
G1 X129.3 Y90.8 E48.88242
G1 X123.3 Y90.8 E49.18176
G1 X123.3 Y120.2 E50.64853
G1 X129.3 Y120.2 E50.94787
G1 X129.3 Y123.8 E51.12748
G1 X123.3 Y123.8 E51.42682
M205 X10 Y10
G0 F6000 X123.3 Y124
G0 X122.86 Y124
G1 F1500 E45.42682
G1 F600 Z0.375
G0 F6000 X122.11 Y122.61 Z0.375
M205 X8 Y8
;TYPE:SKIN
G1 F600 Z0.3
G1 F1500 E51.42682
G1 F1200 X122.11 Y138.61 E52.22506
G1 X102.89 Y138.61 E53.18395
G1 X102.89 Y122.61 E53.9822
G1 X96.89 Y122.61 E54.28154
G1 X96.89 Y121.39 E54.3424
G1 X102.89 Y121.39 E54.64175
G1 X102.89 Y89.61 E56.22726
G1 X96.89 Y89.61 E56.5266
G1 X96.89 Y88.39 E56.58746
G1 X102.89 Y88.39 E56.8868
G1 X102.89 Y81.39 E57.23604
G1 X122.11 Y81.39 E58.19493
G1 X122.11 Y88.39 E58.54416
G1 X128.11 Y88.39 E58.8435
G1 X128.11 Y89.61 E58.90436
G1 X122.11 Y89.61 E59.20371
G1 X122.11 Y121.39 E60.78922
G1 X128.11 Y121.39 E61.08856
G1 X128.11 Y122.61 E61.14942
G1 X122.11 Y122.61 E61.44876
M205 X10 Y10
G1 F1500 E55.44876
G1 F600 Z0.375
G0 F6000 X118.89 Y122.61 Z0.375
M205 X8 Y8
G1 F600 Z0.3
G1 F1500 E61.44876
G1 F1200 X106.11 Y122.61 E62.08636
G1 X106.11 Y134.39 E62.67407
G1 X118.89 Y134.39 E63.31166
G1 X118.89 Y122.61 E63.89937
M205 X10 Y10
G0 F6000 X118.89 Y121.39
M205 X8 Y8
G1 F1200 X118.89 Y107.61 E64.58686
G1 X106.11 Y107.61 E65.22446
G1 X106.11 Y121.39 E65.91194
G1 X118.89 Y121.39 E66.54954
M205 X10 Y10
G1 F1500 E60.54954
G1 F600 Z0.375
G0 F6000 X118.89 Y103.39 Z0.375
M205 X8 Y8
G1 F600 Z0.3
G1 F1500 E66.54954
G1 F1200 X118.89 Y89.61 E67.23703
G1 X106.11 Y89.61 E67.87462
G1 X106.11 Y103.39 E68.56211
G1 X118.89 Y103.39 E69.19971
M205 X10 Y10
G1 F1500 E63.19971
G1 F600 Z0.375
G0 F6000 X121.929 Y81.765 Z0.375
M205 X8 Y8
G1 F600 Z0.3
G1 F1500 E69.19971
G1 F1200 X121.734 Y81.57 E69.21346
M205 X10 Y10
G0 F6000 X121.168 Y81.57
M205 X8 Y8
G1 F1200 X121.929 Y82.331 E69.26716
M205 X10 Y10
G0 F6000 X121.929 Y82.896
M205 X8 Y8
G1 F1200 X120.602 Y81.57 E69.36075
M205 X10 Y10
G0 F6000 X120.037 Y81.57
M205 X8 Y8
G1 F1200 X121.929 Y83.462 E69.49424
M205 X10 Y10
G0 F6000 X121.929 Y84.028
M205 X8 Y8
G1 F1200 X119.471 Y81.57 E69.66767
M205 X10 Y10
G0 F6000 X118.905 Y81.57
M205 X8 Y8
G1 F1200 X121.929 Y84.594 E69.88102
M205 X10 Y10
G0 F6000 X121.929 Y85.159
M205 X8 Y8
G1 F1200 X118.339 Y81.57 E70.13428
M205 X10 Y10
G0 F6000 X117.774 Y81.57
M205 X8 Y8
G1 F1200 X121.929 Y85.725 E70.42744
M205 X10 Y10
G0 F6000 X121.929 Y86.291
M205 X8 Y8
G1 F1200 X117.208 Y81.57 E70.76053
M205 X10 Y10
G0 F6000 X116.642 Y81.57
M205 X8 Y8
G1 F1200 X121.929 Y86.856 E71.13352
M205 X10 Y10
G0 F6000 X121.929 Y87.422
M205 X8 Y8
G1 F1200 X116.077 Y81.57 E71.54641
M205 X10 Y10
G0 F6000 X115.511 Y81.57
M205 X8 Y8
G1 F1200 X121.929 Y87.988 E71.99924
M205 X10 Y10
G0 F6000 X121.929 Y88.553
M205 X8 Y8
G1 F1200 X114.945 Y81.57 E72.49196
M205 X10 Y10
G0 F6000 X114.38 Y81.57
M205 X8 Y8
G1 F1200 X122.239 Y89.429 E73.04646
M205 X10 Y10
G0 F6000 X121.929 Y89.685
M205 X8 Y8
G1 F1200 X113.814 Y81.57 E73.61901
M205 X10 Y10
G0 F6000 X113.248 Y81.57
M205 X8 Y8
G1 F1200 X121.929 Y90.25 E74.23147
M205 X10 Y10
G0 F6000 X121.929 Y90.816
M205 X8 Y8
G1 F1200 X112.683 Y81.57 E74.88383
M205 X10 Y10
G0 F6000 X112.117 Y81.57
M205 X8 Y8
G1 F1200 X121.929 Y91.382 E75.57612
M205 X10 Y10
G0 F6000 X121.929 Y91.947
M205 X8 Y8
G1 F1200 X111.551 Y81.57 E76.3083
M205 X10 Y10
G0 F6000 X110.986 Y81.57
M205 X8 Y8
G1 F1200 X118.845 Y89.429 E76.8628
M205 X10 Y10
G0 F6000 X119.069 Y89.653
M205 X8 Y8
G1 F1200 X121.929 Y92.513 E77.06459
M205 X10 Y10
G0 F6000 X121.929 Y93.079
M205 X8 Y8
G1 F1200 X119.069 Y90.219 E77.26638
M205 X10 Y10
G0 F6000 X119.069 Y90.784
M205 X8 Y8
G1 F1200 X121.929 Y93.644 E77.46816
M205 X10 Y10
G0 F6000 X121.929 Y94.21
M205 X8 Y8
G1 F1200 X119.069 Y91.35 E77.66995
M205 X10 Y10
G0 F6000 X119.069 Y91.916
M205 X8 Y8
G1 F1200 X121.929 Y94.776 E77.87174
M205 X10 Y10
G0 F6000 X121.929 Y95.342
M205 X8 Y8
G1 F1200 X119.069 Y92.481 E78.07357
M205 X10 Y10
G0 F6000 X119.069 Y93.047
M205 X8 Y8
G1 F1200 X121.929 Y95.907 E78.27535
M205 X10 Y10
G0 F6000 X121.929 Y96.473
M205 X8 Y8
G1 F1200 X119.069 Y93.613 E78.47714
M205 X10 Y10
G0 F6000 X119.069 Y94.178
M205 X8 Y8
G1 F1200 X121.929 Y97.039 E78.67897
M205 X10 Y10
G0 F6000 X121.929 Y97.604
M205 X8 Y8
G1 F1200 X119.069 Y94.744 E78.88075
M205 X10 Y10
G0 F6000 X119.069 Y95.31
M205 X8 Y8
G1 F1200 X121.929 Y98.17 E79.08254
M205 X10 Y10
G0 F6000 X121.929 Y98.736
M205 X8 Y8
G1 F1200 X119.069 Y95.875 E79.28437
M205 X10 Y10
G0 F6000 X119.069 Y96.441
M205 X8 Y8
G1 F1200 X121.929 Y99.301 E79.48615
M205 X10 Y10
G0 F6000 X121.929 Y99.867
M205 X8 Y8
G1 F1200 X119.069 Y97.007 E79.68794
M205 X10 Y10
G0 F6000 X119.069 Y97.572
M205 X8 Y8
G1 F1200 X121.929 Y100.433 E79.88977
M205 X10 Y10
G0 F6000 X121.929 Y100.998
M205 X8 Y8
G1 F1200 X119.069 Y98.138 E80.09156
M205 X10 Y10
G0 F6000 X119.069 Y98.704
M205 X8 Y8
G1 F1200 X121.929 Y101.564 E80.29334
M205 X10 Y10
G0 F6000 X121.929 Y102.13
M205 X8 Y8
G1 F1200 X119.069 Y99.27 E80.49513
M205 X10 Y10
G0 F6000 X119.069 Y99.835
M205 X8 Y8
G1 F1200 X121.929 Y102.695 E80.69692
M205 X10 Y10
G0 F6000 X121.929 Y103.261
M205 X8 Y8
G1 F1200 X119.069 Y100.401 E80.89871
M205 X10 Y10
G0 F6000 X119.069 Y100.967
M205 X8 Y8
G1 F1200 X121.929 Y103.827 E81.1005
M205 X10 Y10
G0 F6000 X121.929 Y104.393
M205 X8 Y8
G1 F1200 X119.069 Y101.532 E81.30232
M205 X10 Y10
G0 F6000 X119.069 Y102.098
M205 X8 Y8
G1 F1200 X121.929 Y104.958 E81.50411
M205 X10 Y10
G0 F6000 X121.929 Y105.524
M205 X8 Y8
G1 F1200 X119.069 Y102.664 E81.7059
M205 X10 Y10
G0 F6000 X119.069 Y103.229
M205 X8 Y8
G1 F1200 X121.929 Y106.09 E81.90772
M205 X10 Y10
G0 F6000 X121.929 Y106.655
M205 X8 Y8
G1 F1200 X118.843 Y103.569 E82.12546
M205 X10 Y10
G0 F6000 X118.277 Y103.569
M205 X8 Y8
G1 F1200 X121.929 Y107.221 E82.38312
M205 X10 Y10
G0 F6000 X121.929 Y107.787
M205 X8 Y8
G1 F1200 X117.712 Y103.569 E82.68069
M205 X10 Y10
G0 F6000 X117.146 Y103.569
M205 X8 Y8
G1 F1200 X121.929 Y108.352 E83.01816
M205 X10 Y10
G0 F6000 X121.929 Y108.918
M205 X8 Y8
G1 F1200 X116.58 Y103.569 E83.39556
M205 X10 Y10
G0 F6000 X116.015 Y103.569
M205 X8 Y8
G1 F1200 X121.929 Y109.484 E83.81286
M205 X10 Y10
G0 F6000 X121.929 Y110.049
M205 X8 Y8
G1 F1200 X115.449 Y103.569 E84.27006
M205 X10 Y10
G0 F6000 X114.883 Y103.569
M205 X8 Y8
G1 F1200 X118.743 Y107.429 E84.5424
M205 X10 Y10
G0 F6000 X119.069 Y107.755
M205 X8 Y8
G1 F1200 X121.929 Y110.615 E84.74419
M205 X10 Y10
G0 F6000 X121.929 Y111.181
M205 X8 Y8
G1 F1200 X119.069 Y108.32 E84.94601
M205 X10 Y10
G0 F6000 X119.069 Y108.886
M205 X8 Y8
G1 F1200 X121.929 Y111.746 E85.1478
M205 X10 Y10
G0 F6000 X121.929 Y112.312
M205 X8 Y8
G1 F1200 X119.069 Y109.452 E85.34959
M205 X10 Y10
G0 F6000 X119.069 Y110.018
M205 X8 Y8
G1 F1200 X121.929 Y112.878 E85.55138
M205 X10 Y10
G0 F6000 X121.929 Y113.443
M205 X8 Y8
G1 F1200 X119.069 Y110.583 E85.75317
M205 X10 Y10
G0 F6000 X119.069 Y111.149
M205 X8 Y8
G1 F1200 X121.929 Y114.009 E85.95496
M205 X10 Y10
G0 F6000 X121.929 Y114.575
M205 X8 Y8
G1 F1200 X119.069 Y111.715 E86.15674
M205 X10 Y10
G0 F6000 X119.069 Y112.28
M205 X8 Y8
G1 F1200 X121.929 Y115.141 E86.35857
M205 X10 Y10
G0 F6000 X121.929 Y115.706
M205 X8 Y8
G1 F1200 X119.069 Y112.846 E86.56036
M205 X10 Y10
G0 F6000 X119.069 Y113.412
M205 X8 Y8
G1 F1200 X121.929 Y116.272 E86.76215
M205 X10 Y10
G0 F6000 X121.929 Y116.838
M205 X8 Y8
G1 F1200 X119.069 Y113.977 E86.96397
M205 X10 Y10
G0 F6000 X119.069 Y114.544
M205 X8 Y8
G1 F1200 X121.929 Y117.403 E87.16572
M205 X10 Y10
G0 F6000 X121.929 Y117.969
M205 X8 Y8
G1 F1200 X119.069 Y115.109 E87.36751
M205 X10 Y10
G0 F6000 X119.069 Y115.675
M205 X8 Y8
G1 F1200 X121.929 Y118.535 E87.5693
M205 X10 Y10
G0 F6000 X121.929 Y119.1
M205 X8 Y8
G1 F1200 X119.069 Y116.241 E87.77105
M205 X10 Y10
G0 F6000 X119.069 Y116.806
M205 X8 Y8
G1 F1200 X121.929 Y119.666 E87.97284
M205 X10 Y10
G0 F6000 X121.929 Y120.232
M205 X8 Y8
G1 F1200 X119.069 Y117.372 E88.17463
M205 X10 Y10
G0 F6000 X119.069 Y117.938
M205 X8 Y8
G1 F1200 X121.929 Y120.797 E88.37638
M205 X10 Y10
G0 F6000 X121.929 Y121.363
M205 X8 Y8
G1 F1200 X119.069 Y118.504 E88.57814
M205 X10 Y10
G0 F6000 X119.069 Y119.069
M205 X8 Y8
G1 F1200 X122.429 Y122.429 E88.8152
M205 X10 Y10
G0 F6000 X121.929 Y122.495
M205 X8 Y8
G1 F1200 X119.069 Y119.635 E89.01699
M205 X10 Y10
G0 F6000 X119.069 Y120.201
M205 X8 Y8
G1 F1200 X121.929 Y123.061 E89.21878
M205 X10 Y10
G0 F6000 X121.929 Y123.627
M205 X8 Y8
G1 F1200 X119.069 Y120.766 E89.4206
M205 X10 Y10
G0 F6000 X119.069 Y121.332
M205 X8 Y8
G1 F1200 X121.929 Y124.192 E89.62239
M205 X10 Y10
G0 F6000 X121.929 Y124.758
M205 X8 Y8
G1 F1200 X118.74 Y121.569 E89.84739
M205 X10 Y10
G0 F6000 X118.175 Y121.569
M205 X8 Y8
G1 F1200 X119.035 Y122.429 E89.90807
G1 X119.069 Y122.463
G1 X121.929 Y125.324 E90.10989
M205 X10 Y10
G0 F6000 X121.929 Y125.889
M205 X8 Y8
G1 F1200 X119.069 Y123.029 E90.31168
M205 X10 Y10
G0 F6000 X119.069 Y123.595
M205 X8 Y8
G1 F1200 X121.929 Y126.455 E90.51347
M205 X10 Y10
G0 F6000 X121.929 Y127.021
M205 X8 Y8
G1 F1200 X119.069 Y124.16 E90.71529
M205 X10 Y10
G0 F6000 X119.069 Y124.726
M205 X8 Y8
G1 F1200 X121.929 Y127.586 E90.91708
M205 X10 Y10
G0 F6000 X121.929 Y128.152
M205 X8 Y8
G1 F1200 X119.069 Y125.292 E91.11887
M205 X10 Y10
G0 F6000 X119.069 Y125.857
M205 X8 Y8
G1 F1200 X121.929 Y128.718 E91.32069
M205 X10 Y10
G0 F6000 X121.929 Y129.283
M205 X8 Y8
G1 F1200 X119.069 Y126.423 E91.52248
M205 X10 Y10
G0 F6000 X119.069 Y126.989
M205 X8 Y8
G1 F1200 X121.929 Y129.849 E91.72427
M205 X10 Y10
G0 F6000 X121.929 Y130.415
M205 X8 Y8
G1 F1200 X119.069 Y127.554 E91.9261
M205 X10 Y10
G0 F6000 X119.069 Y128.12
M205 X8 Y8
G1 F1200 X121.929 Y130.98 E92.12788
M205 X10 Y10
G0 F6000 X121.929 Y131.546
M205 X8 Y8
G1 F1200 X119.069 Y128.686 E92.32967
M205 X10 Y10
G0 F6000 X119.069 Y129.252
M205 X8 Y8
G1 F1200 X121.929 Y132.112 E92.53146
M205 X10 Y10
G0 F6000 X121.929 Y132.677
M205 X8 Y8
G1 F1200 X119.069 Y129.817 E92.73325
M205 X10 Y10
G0 F6000 X119.069 Y130.383
M205 X8 Y8
G1 F1200 X121.929 Y133.243 E92.93504
M205 X10 Y10
G0 F6000 X121.929 Y133.809
M205 X8 Y8
G1 F1200 X119.069 Y130.949 E93.13683
M205 X10 Y10
G0 F6000 X119.069 Y131.514
M205 X8 Y8
G1 F1200 X121.929 Y134.375 E93.33865
M205 X10 Y10
G0 F6000 X121.929 Y134.94
M205 X8 Y8
G1 F1200 X119.069 Y132.08 E93.54044
M205 X10 Y10
G0 F6000 X119.069 Y132.646
M205 X8 Y8
G1 F1200 X121.929 Y135.506 E93.74223
M205 X10 Y10
G0 F6000 X121.929 Y136.072
M205 X8 Y8
G1 F1200 X119.069 Y133.211 E93.94405
M205 X10 Y10
G0 F6000 X119.069 Y133.777
M205 X8 Y8
G1 F1200 X121.929 Y136.637 E94.14584
M205 X10 Y10
G0 F6000 X121.929 Y137.203
M205 X8 Y8
G1 F1200 X119.069 Y134.343 E94.34763
M205 X10 Y10
G0 F6000 X118.73 Y134.569
M205 X8 Y8
G1 F1200 X121.929 Y137.769 E94.57337
M205 X10 Y10
G0 F6000 X121.929 Y138.334
M205 X8 Y8
G1 F1200 X118.164 Y134.569 E94.83901
M205 X10 Y10
G0 F6000 X117.598 Y134.569
M205 X8 Y8
G1 F1200 X121.459 Y138.429 E95.11139
M205 X10 Y10
G0 F6000 X120.893 Y138.429
M205 X8 Y8
G1 F1200 X117.033 Y134.569 E95.38373
M205 X10 Y10
G0 F6000 X116.467 Y134.569
M205 X8 Y8
G1 F1200 X120.327 Y138.429 E95.65608
M205 X10 Y10
G0 F6000 X119.761 Y138.429
M205 X8 Y8
G1 F1200 X115.901 Y134.569 E95.92842
M205 X10 Y10
G0 F6000 X115.336 Y134.569
M205 X8 Y8
G1 F1200 X119.196 Y138.429 E96.20076
M205 X10 Y10
G0 F6000 X118.63 Y138.429
