;FLAVOR:Marlin
;TIME:221
;Filament used: 0.171026m
;Layer height: 0.2
;MINX:86.1
;MINY:102.1
;MINZ:0.3
;MAXX:138.9
;MAXY:117.9
;MAXZ:3.1
;Generated with Cura_SteamEngine 4.13.1
M140 S60
M105
M190 S60
M104 S200
M105
M109 S200
M82 ;absolute extrusion mode
G21                                        ; metric values
G90                                        ; absolute positioning
M82                                        ; set extruder to absolute mode
M107                                       ; start with the fan off
M190 S60                                   ; preheat and wait for bed
M109 S210                                  ; preheat and wait for hotend
M300 S1000 P500                            ; BEEP heating done
G28 X0 Y10 Z0                              ; move X/Y to min endstops
M420 S1                                    ; enable mesh leveling
G0 Z0.15                                   ; lift nozzle a bit
G0 X2                                      ; move away from clips
G92 E0                                     ; zero the extruded length
G1 Y50 E25 F500                            ; Extrude 25mm of filament in a 5cm line.
G92 E0                                     ; zero the extruded length again
G1 E-2 F500                                ; Retract a little
G1 Y120 F4000                              ; Quickly wipe away from the filament line
G92 E0
G92 E0
G1 F1500 E-6
;LAYER_COUNT:15
;LAYER:0
M106 S76.5
M205 X10 Y10
G1 F600 Z0.375
G0 F6000 X88.571 Y103.464 Z0.375
M205 X8 Y8
;TYPE:SKIRT
G1 F600 Z0.3
G1 F1500 E0
G1 F1200 X89.159 Y103.056 E0.03571
G1 X89.788 Y102.716 E0.07138
G1 X90.452 Y102.449 E0.10708
G1 X91.141 Y102.257 E0.14277
G1 X91.847 Y102.143 E0.17845
G1 X92.651 Y102.103 E0.21861
G1 X92.83 Y102.1 E0.22754
G1 X131.793 Y102.1 E2.17141
G1 X132.583 Y102.111 E2.21083
G1 X133.296 Y102.161 E2.24649
G1 X134 Y102.29 E2.28219
G1 X134.684 Y102.498 E2.31786
G1 X135.341 Y102.78 E2.35353
G1 X135.963 Y103.134 E2.38924
G1 X136.541 Y103.555 E2.42491
G1 X137.069 Y104.038 E2.46061
G1 X137.539 Y104.576 E2.49625
G1 X137.947 Y105.164 E2.53196
G1 X138.286 Y105.794 E2.56765
G1 X138.553 Y106.457 E2.60331
G1 X138.744 Y107.147 E2.63903
G1 X138.857 Y107.853 E2.6747
G1 X138.897 Y108.65 E2.71451
G1 X138.9 Y108.83 E2.72349
G1 X138.9 Y110.843 E2.82392
G1 X138.891 Y111.57 E2.8602
G1 X138.842 Y112.284 E2.8959
G1 X138.714 Y112.988 E2.9316
G1 X138.508 Y113.673 E2.96729
G1 X138.227 Y114.33 E3.00294
G1 X137.874 Y114.953 E3.03866
G1 X137.454 Y115.532 E3.07435
G1 X136.972 Y116.06 E3.11001
G1 X136.435 Y116.532 E3.14568
G1 X135.847 Y116.94 E3.18139
G1 X135.218 Y117.281 E3.21709
G1 X134.555 Y117.549 E3.25276
G1 X133.866 Y117.741 E3.28845
G1 X133.16 Y117.856 E3.32413
G1 X132.349 Y117.897 E3.36465
G1 X132.17 Y117.9 E3.37358
G1 X93.124 Y117.899 E5.32159
G1 X92.426 Y117.89 E5.35642
G1 X91.713 Y117.841 E5.39207
G1 X91.009 Y117.713 E5.42777
G1 X90.324 Y117.507 E5.46346
G1 X89.667 Y117.225 E5.49913
G1 X89.045 Y116.872 E5.53481
G1 X88.466 Y116.452 E5.57049
G1 X87.937 Y115.97 E5.6062
G1 X87.466 Y115.432 E5.64187
G1 X87.058 Y114.845 E5.67754
G1 X86.718 Y114.215 E5.71325
G1 X86.45 Y113.552 E5.74893
G1 X86.258 Y112.863 E5.78461
G1 X86.144 Y112.157 E5.82029
G1 X86.102 Y111.331 E5.86156
G1 X86.1 Y111.158 E5.87019
G1 X86.101 Y109.087 E5.97351
G1 X86.11 Y108.422 E6.00669
G1 X86.159 Y107.709 E6.04234
G1 X86.288 Y107.005 E6.07805
G1 X86.495 Y106.321 E6.11371
G1 X86.777 Y105.663 E6.14942
G1 X87.13 Y105.041 E6.1851
G1 X87.55 Y104.463 E6.22075
G1 X88.033 Y103.935 E6.25645
G1 X88.571 Y103.464 E6.29212
M205 X10 Y10
G0 F6000 X88.958 Y103.673
M205 X8 Y8
G1 F1200 X89.539 Y103.296 E6.32668
G1 X90.159 Y102.988 E6.36121
G1 X90.811 Y102.754 E6.39577
G1 X91.485 Y102.597 E6.4303
G1 X92.341 Y102.511 E6.47322
G1 X92.83 Y102.5 E6.49762
G1 X131.793 Y102.5 E8.4415
G1 X132.577 Y102.511 E8.48061
G1 X133.268 Y102.56 E8.51517
G1 X133.948 Y102.69 E8.54971
G1 X134.609 Y102.896 E8.58426
G1 X135.242 Y103.178 E8.61883
G1 X135.838 Y103.53 E8.65336
G1 X136.389 Y103.949 E8.6879
G1 X136.889 Y104.429 E8.72248
G1 X137.33 Y104.963 E8.75703
G1 X137.707 Y105.544 E8.79158
G1 X138.014 Y106.165 E8.82614
G1 X138.247 Y106.817 E8.86069
G1 X138.404 Y107.491 E8.89521
G1 X138.489 Y108.341 E8.93783
G1 X138.5 Y108.83 E8.96223
G1 X138.5 Y110.838 E9.06241
G1 X138.491 Y111.565 E9.09869
G1 X138.442 Y112.256 E9.13325
G1 X138.314 Y112.937 E9.16782
G1 X138.109 Y113.598 E9.20234
G1 X137.829 Y114.231 E9.23688
G1 X137.477 Y114.828 E9.27145
G1 X137.06 Y115.381 E9.30601
G1 X136.581 Y115.881 E9.34055
G1 X136.048 Y116.323 E9.3751
G1 X135.467 Y116.701 E9.40968
G1 X134.847 Y117.009 E9.44422
G1 X134.196 Y117.244 E9.47874
G1 X133.521 Y117.402 E9.51333
G1 X132.659 Y117.489 E9.55655
G1 X132.17 Y117.5 E9.58096
G1 X93.13 Y117.5 E11.52867
G1 X92.432 Y117.491 E11.5635
G1 X91.741 Y117.442 E11.59806
G1 X91.06 Y117.313 E11.63264
G1 X90.399 Y117.108 E11.66716
G1 X89.766 Y116.827 E11.70172
G1 X89.169 Y116.476 E11.73627
G1 X88.617 Y116.058 E11.77081
G1 X88.117 Y115.579 E11.80536
G1 X87.675 Y115.045 E11.83994
G1 X87.298 Y114.465 E11.87445
G1 X86.99 Y113.844 E11.90904
G1 X86.755 Y113.193 E11.94357
G1 X86.598 Y112.518 E11.97814
G1 X86.511 Y111.653 E12.02151
G1 X86.5 Y111.158 E12.04621
G1 X86.501 Y109.093 E12.14924
G1 X86.51 Y108.428 E12.18242
G1 X86.559 Y107.737 E12.21698
G1 X86.687 Y107.057 E12.2515
G1 X86.894 Y106.395 E12.2861
G1 X87.175 Y105.762 E12.32066
G1 X87.527 Y105.166 E12.35519
G1 X87.945 Y104.614 E12.38973
G1 X88.424 Y104.114 E12.42428
G1 X88.958 Y103.673 E12.45883
M205 X10 Y10
G0 F6000 X88.814 Y104.301
M205 X8 Y8
G1 F1200 X89.343 Y103.89 E12.49225
G1 X89.916 Y103.545 E12.52562
G1 X90.527 Y103.272 E12.55901
G1 X91.165 Y103.073 E12.59235
G1 X91.823 Y102.951 E12.62574
G1 X92.352 Y102.911 E12.6522
G1 X92.83 Y102.9 E12.67606
G1 X131.793 Y102.9 E14.61993
G1 X132.571 Y102.911 E14.65875
G1 X133.238 Y102.96 E14.69212
G1 X133.895 Y103.089 E14.72552
G1 X134.531 Y103.295 E14.75887
G1 X135.139 Y103.576 E14.79229
G1 X135.708 Y103.926 E14.82562
G1 X136.232 Y104.343 E14.85903
G1 X136.702 Y104.819 E14.8924
G1 X137.112 Y105.347 E14.92575
G1 X137.457 Y105.921 E14.95916
G1 X137.73 Y106.532 E14.99255
G1 X137.928 Y107.171 E15.02593
G1 X138.049 Y107.829 E15.0593
G1 X138.089 Y108.353 E15.08552
G1 X138.1 Y108.83 E15.10933
G1 X138.1 Y110.833 E15.20926
G1 X138.091 Y111.56 E15.24553
G1 X138.042 Y112.228 E15.27895
G1 X137.915 Y112.884 E15.31228
G1 X137.71 Y113.521 E15.34567
G1 X137.431 Y114.129 E15.37904
G1 X137.081 Y114.699 E15.41241
G1 X136.665 Y115.224 E15.44583
G1 X136.19 Y115.695 E15.4792
G1 X135.663 Y116.106 E15.51255
G1 X135.09 Y116.452 E15.54594
G1 X134.48 Y116.726 E15.5793
G1 X133.841 Y116.926 E15.61271
G1 X133.183 Y117.048 E15.64609
G1 X132.648 Y117.089 E15.67286
G1 X132.17 Y117.1 E15.69672
G1 X93.135 Y117.1 E17.64418
G1 X92.437 Y117.091 E17.67901
G1 X91.77 Y117.042 E17.71237
G1 X91.113 Y116.914 E17.74577
G1 X90.476 Y116.709 E17.77915
G1 X89.868 Y116.429 E17.81255
G1 X89.298 Y116.079 E17.84592
G1 X88.774 Y115.663 E17.8793
G1 X88.303 Y115.188 E17.91267
G1 X87.892 Y114.66 E17.94605
G1 X87.547 Y114.087 E17.97942
G1 X87.273 Y113.477 E18.01278
G1 X87.073 Y112.838 E18.04619
G1 X86.952 Y112.18 E18.07957
G1 X86.911 Y111.642 E18.10649
G1 X86.9 Y111.158 E18.13064
G1 X86.901 Y109.098 E18.23341
G1 X86.91 Y108.433 E18.26659
G1 X86.959 Y107.766 E18.29996
G1 X87.087 Y107.109 E18.33335
G1 X87.292 Y106.473 E18.36669
G1 X87.572 Y105.865 E18.40009
G1 X87.923 Y105.295 E18.43348
G1 X88.339 Y104.771 E18.46686
G1 X88.814 Y104.301 E18.5002
M205 X10 Y10
G0 F6000 X89.203 Y104.495
M205 X8 Y8
G1 F1200 X89.726 Y104.117 E18.53239
G1 X90.29 Y103.806 E18.56453
G1 X90.889 Y103.568 E18.59668
G1 X91.513 Y103.405 E18.62886
G1 X92.363 Y103.311 E18.67153
G1 X92.83 Y103.3 E18.69483
G1 X131.793 Y103.3 E20.6387
G1 X132.565 Y103.311 E20.67722
G1 X133.208 Y103.36 E20.70939
G1 X133.84 Y103.488 E20.74156
G1 X134.451 Y103.694 E20.77373
G1 X135.032 Y103.973 E20.80589
G1 X135.574 Y104.322 E20.83805
G1 X136.068 Y104.736 E20.87021
G1 X136.508 Y105.208 E20.9024
G1 X136.886 Y105.73 E20.93455
G1 X137.196 Y106.295 E20.96671
G1 X137.434 Y106.894 E20.99886
G1 X137.596 Y107.518 E21.03103
G1 X137.689 Y108.364 E21.07349
G1 X137.7 Y108.83 E21.09674
G1 X137.7 Y110.828 E21.19642
G1 X137.691 Y111.555 E21.2327
G1 X137.643 Y112.198 E21.26486
G1 X137.516 Y112.83 E21.29703
G1 X137.311 Y113.442 E21.32923
G1 X137.033 Y114.023 E21.36136
G1 X136.685 Y114.566 E21.39354
G1 X136.272 Y115.061 E21.4257
G1 X135.801 Y115.501 E21.45785
G1 X135.279 Y115.88 E21.49004
G1 X134.715 Y116.191 E21.52217
G1 X134.116 Y116.43 E21.55435
G1 X133.493 Y116.594 E21.58649
G1 X132.637 Y116.689 E21.62945
G1 X132.17 Y116.7 E21.65276
G1 X93.14 Y116.7 E23.59997
G1 X92.442 Y116.691 E23.6348
G1 X91.799 Y116.642 E23.66697
G1 X91.167 Y116.515 E23.69913
G1 X90.556 Y116.31 E23.73129
G1 X89.975 Y116.032 E23.76342
G1 X89.432 Y115.683 E23.79562
G1 X88.937 Y115.27 E23.82779
G1 X88.497 Y114.799 E23.85994
G1 X88.118 Y114.277 E23.89213
G1 X87.807 Y113.713 E23.92426
G1 X87.569 Y113.114 E23.95641
G1 X87.406 Y112.49 E23.98859
G1 X87.311 Y111.631 E24.03171
G1 X87.3 Y111.158 E24.05531
G1 X87.3 Y109.104 E24.15779
G1 X87.309 Y108.439 E24.19097
G1 X87.358 Y107.796 E24.22314
G1 X87.486 Y107.164 E24.25531
G1 X87.691 Y106.553 E24.28746
G1 X87.97 Y105.972 E24.31962
G1 X88.319 Y105.429 E24.35182
G1 X88.732 Y104.935 E24.38395
G1 X89.203 Y104.495 E24.4161
M205 X10 Y10
G1 F1500 E18.4161
G1 F600 Z0.375
;MESH:frame-balken-40mm.stl
G0 F6000 X95.919 Y110.5 Z0.375
M205 X8 Y8
;TYPE:WALL-INNER
G1 F600 Z0.3
G1 F1500 E24.4161
G1 F1200 X96.01 Y109.755 E24.45355
G1 X95.913 Y109.5 E24.46716
G1 X129.088 Y109.5 E26.12226
G1 X128.99 Y109.759 E26.13608
G1 X129.085 Y110.5 E26.17335
G1 X95.919 Y110.5 E27.82801
M205 X10 Y10
G0 F6000 X95.507 Y110.572
M205 X8 Y8
G1 F1200 X95.601 Y109.805 E27.86656
G1 X95.333 Y109.1 E27.90419
G1 X129.667 Y109.1 E29.61712
G1 X129.399 Y109.807 E29.65484
G1 X129.499 Y110.587 E29.69408
G1 X129.717 Y110.9 E29.71311
G1 X95.281 Y110.9 E31.43112
G1 X95.507 Y110.572 E31.451
M205 X10 Y10
G1 F1500 E25.451
G1 F600 Z0.375
G0 F6000 X93.204 Y110.899 Z0.375
M205 X8 Y8
;TYPE:WALL-OUTER
G1 F600 Z0.3
G1 F1500 E31.451
G1 F1200 X93.713 Y111.165 E31.47965
G1 X94.299 Y111.162 E31.50889
G1 X94.796 Y110.899 E31.53694
G1 X95.122 Y110.426 E31.5656
G1 X95.192 Y109.855 E31.5943
G1 X94.988 Y109.319 E31.62291
G1 X94.558 Y108.938 E31.65157
G1 X93.987 Y108.8 E31.68088
G1 X93.431 Y108.944 E31.70954
G1 X93.011 Y109.319 E31.73763
G1 X92.808 Y109.855 E31.76622
G1 X92.883 Y110.439 E31.7956
G1 X93.204 Y110.899 E31.82358
M205 X10 Y10
G0 F6000 X93.381 Y110.991
G1 F1500 E25.82358
G1 F600 Z0.375
G0 F6000 X130.204 Y110.899 Z0.375
M205 X8 Y8
G1 F600 Z0.3
G1 F1500 E31.82358
G1 F1200 X130.713 Y111.165 E31.85223
G1 X131.299 Y111.162 E31.88147
G1 X131.796 Y110.899 E31.90952
G1 X132.122 Y110.426 E31.93818
G1 X132.192 Y109.855 E31.96688
G1 X131.988 Y109.319 E31.9955
G1 X131.558 Y108.938 E32.02416
G1 X130.987 Y108.8 E32.05347
G1 X130.431 Y108.944 E32.08212
G1 X130.011 Y109.319 E32.11021
G1 X129.808 Y109.855 E32.1388
G1 X129.883 Y110.439 E32.16818
G1 X130.204 Y110.899 E32.19616
M205 X10 Y10
G0 F6000 X130.381 Y110.991
G1 F1500 E26.19616
G1 F600 Z0.375
G0 F6000 X132.3 Y111.3 Z0.375
M205 X8 Y8
G1 F600 Z0.3
G1 F1500 E32.19616
G1 F1200 X92.7 Y111.3 E34.17182
G1 X92.7 Y108.7 E34.30153
G1 X132.3 Y108.7 E36.27718
G1 X132.3 Y111.3 E36.4069
M205 X10 Y10
G0 F6000 X132.1 Y111.3
G1 F1500 E30.4069
G1 F600 Z0.375
G0 F6000 X128.642 Y110.11 Z0.375
M205 X8 Y8
;TYPE:SKIN
G1 F600 Z0.3
G1 F1500 E36.4069
G1 F1200 X96.36 Y110.11 E38.01745
G1 X96.387 Y109.89 E38.02851
G1 X128.614 Y109.89 E39.63632
G1 X128.642 Y110.11 E39.64739
M205 X10 Y10
G1 F1500 E33.64739
G1 F600 Z0.375
;MESH:NONMESH
G0 F6000 X95.919 Y110.5 Z0.375
;TIME_ELAPSED:44.741195
;LAYER:1
M106 S127.5
;MESH:frame-balken-40mm.stl
G0 X95.919 Y110.5 Z0.575
M205 X8 Y8
;TYPE:WALL-INNER
G1 F600 Z0.5
G1 F1500 E39.64739
G1 F1350 X96.01 Y109.755 E39.67235
G1 X95.913 Y109.5 E39.68142
G1 X129.087 Y109.5 E40.7848
G1 X128.99 Y109.755 E40.79387
G1 X129.081 Y110.5 E40.81883
G1 X95.919 Y110.5 E41.92181
M205 X10 Y10
G0 F6000 X95.507 Y110.572
M205 X8 Y8
G1 F1350 X95.601 Y109.805 E41.94751
G1 X95.333 Y109.1 E41.97259
G1 X129.667 Y109.1 E43.11455
G1 X129.399 Y109.805 E43.13963
G1 X129.493 Y110.572 E43.16533
G1 X129.719 Y110.9 E43.17858
G1 X95.281 Y110.9 E44.32399
G1 X95.507 Y110.572 E44.33724
M205 X10 Y10
G1 F1500 E38.33724
G1 F600 Z0.575
G0 F6000 X93.204 Y110.899 Z0.575
M205 X8 Y8
;TYPE:WALL-OUTER
G1 F600 Z0.5
G1 F1500 E44.33724
G1 F1350 X93.713 Y111.165 E44.35634
G1 X94.287 Y111.165 E44.37544
G1 X94.796 Y110.899 E44.39454
G1 X95.122 Y110.426 E44.41364
G1 X95.192 Y109.855 E44.43278
G1 X94.988 Y109.319 E44.45185
G1 X94.558 Y108.938 E44.47096
G1 X94 Y108.8 E44.49008
G1 X93.442 Y108.938 E44.5092
G1 X93.012 Y109.319 E44.52831
G1 X92.808 Y109.855 E44.54738
G1 X92.878 Y110.426 E44.56651
G1 X93.204 Y110.899 E44.58562
M205 X10 Y10
G0 F6000 X93.381 Y110.991
G1 F1500 E38.58562
G1 F600 Z0.575
G0 F6000 X130.204 Y110.899 Z0.575
M205 X8 Y8
G1 F600 Z0.5
G1 F1500 E44.58562
G1 F1350 X130.713 Y111.165 E44.60472
G1 X131.287 Y111.165 E44.62381
G1 X131.796 Y110.899 E44.64292
G1 X132.122 Y110.426 E44.66202
G1 X132.192 Y109.855 E44.68116
G1 X131.988 Y109.319 E44.70023
G1 X131.558 Y108.938 E44.71934
G1 X131 Y108.8 E44.73846
G1 X130.442 Y108.938 E44.75758
G1 X130.012 Y109.319 E44.77668
G1 X129.808 Y109.855 E44.79576
G1 X129.878 Y110.426 E44.81489
G1 X130.204 Y110.899 E44.834
M205 X10 Y10
G0 F6000 X130.381 Y110.991
G1 F1500 E38.834
G1 F600 Z0.575
G0 F6000 X132.3 Y111.3 Z0.575
M205 X8 Y8
G1 F600 Z0.5
G1 F1500 E44.834
G1 F1350 X92.7 Y111.3 E46.1511
G1 X92.7 Y108.7 E46.23758
G1 X132.3 Y108.7 E47.55468
G1 X132.3 Y111.3 E47.64116
M205 X10 Y10
G0 F6000 X132.1 Y111.3
G1 F1500 E41.64116
G1 F600 Z0.575
G0 F6000 X128.64 Y110.11 Z0.575
M205 X8 Y8
;TYPE:SKIN
G1 F600 Z0.5
G1 F1500 E47.64116
G1 F1350 X96.36 Y110.11 E48.71479
G1 X96.387 Y109.89 E48.72216
G1 X128.613 Y109.89 E49.79401
G1 X128.64 Y110.11 E49.80138
M205 X10 Y10
G1 F1500 E43.80138
G1 F600 Z0.575
;MESH:NONMESH
G0 F6000 X95.919 Y110.5 Z0.575
;TIME_ELAPSED:60.680521
;LAYER:2
M106 S178.5
;MESH:frame-balken-40mm.stl
G0 X95.919 Y110.5 Z0.775
M205 X8 Y8
;TYPE:WALL-INNER
G1 F600 Z0.7
G1 F1500 E49.80138
G1 X96.01 Y109.755 E49.82634
G1 X95.913 Y109.5 E49.83542
G1 X129.087 Y109.5 E50.93879
G1 X128.99 Y109.755 E50.94786
G1 X129.081 Y110.5 E50.97282
G1 X95.919 Y110.5 E52.0758
M205 X10 Y10
G0 F6000 X95.507 Y110.572
M205 X8 Y8
G1 F1500 X95.601 Y109.805 E52.1015
G1 X95.333 Y109.1 E52.12658
G1 X129.667 Y109.1 E53.26854
G1 X129.399 Y109.805 E53.29362
G1 X129.493 Y110.572 E53.31932
G1 X129.719 Y110.9 E53.33257
G1 X95.281 Y110.9 E54.47798
G1 X95.507 Y110.572 E54.49123
M205 X10 Y10
G1 F1500 E48.49123
G1 F600 Z0.775
G0 F6000 X93.204 Y110.899 Z0.775
M205 X8 Y8
;TYPE:WALL-OUTER
G1 F600 Z0.7
G1 F1500 E54.49123
G1 X93.713 Y111.165 E54.51033
G1 X94.287 Y111.165 E54.52943
G1 X94.796 Y110.899 E54.54853
G1 X95.122 Y110.426 E54.56763
G1 X95.192 Y109.855 E54.58677
G1 X94.988 Y109.319 E54.60584
G1 X94.558 Y108.938 E54.62495
G1 X94 Y108.8 E54.64407
G1 X93.442 Y108.938 E54.66319
G1 X93.012 Y109.319 E54.6823
G1 X92.808 Y109.855 E54.70137
G1 X92.878 Y110.426 E54.7205
G1 X93.204 Y110.899 E54.73961
M205 X10 Y10
G0 F6000 X93.381 Y110.991
G1 F1500 E48.73961
G1 F600 Z0.775
G0 F6000 X130.204 Y110.899 Z0.775
M205 X8 Y8
G1 F600 Z0.7
G1 F1500 E54.73961
G1 X130.713 Y111.165 E54.75871
G1 X131.287 Y111.165 E54.7778
G1 X131.796 Y110.899 E54.79691
G1 X132.122 Y110.426 E54.81601
G1 X132.192 Y109.855 E54.83515
G1 X131.988 Y109.319 E54.85422
G1 X131.558 Y108.938 E54.87333
G1 X131 Y108.8 E54.89245
G1 X130.442 Y108.938 E54.91157
G1 X130.012 Y109.319 E54.93067
G1 X129.808 Y109.855 E54.94975
G1 X129.878 Y110.426 E54.96888
G1 X130.204 Y110.899 E54.98799
M205 X10 Y10
G0 F6000 X130.381 Y110.991
G1 F1500 E48.98799
G1 F600 Z0.775
G0 F6000 X132.3 Y111.3 Z0.775
M205 X8 Y8
G1 F600 Z0.7
G1 F1500 E54.98799
G1 X92.7 Y111.3 E56.30509
G1 X92.7 Y108.7 E56.39157
G1 X132.3 Y108.7 E57.70867
G1 X132.3 Y111.3 E57.79515
M205 X10 Y10
G0 F6000 X132.1 Y111.3
G1 F1500 E51.79515
G1 F600 Z0.775
G0 F6000 X128.64 Y110.11 Z0.775
