;FLAVOR:Marlin
;TIME:329
;Filament used: 0.260501m
;Layer height: 0.2
;MINX:76.1
;MINY:102.1
;MINZ:0.3
;MAXX:148.9
;MAXY:117.9
;MAXZ:3.1
;Generated with Cura_SteamEngine 4.13.1
M140 S60
M105
M190 S60
M104 S200
M105
M109 S200
M82 ;absolute extrusion mode
G21                                        ; metric values
G90                                        ; absolute positioning
M82                                        ; set extruder to absolute mode
M107                                       ; start with the fan off
M190 S60                                   ; preheat and wait for bed
M109 S210                                  ; preheat and wait for hotend
M300 S1000 P500                            ; BEEP heating done
G28 X0 Y10 Z0                              ; move X/Y to min endstops
M420 S1                                    ; enable mesh leveling
G0 Z0.15                                   ; lift nozzle a bit
G0 X2                                      ; move away from clips
G92 E0                                     ; zero the extruded length
G1 Y50 E25 F500                            ; Extrude 25mm of filament in a 5cm line.
G92 E0                                     ; zero the extruded length again
G1 E-2 F500                                ; Retract a little
G1 Y120 F4000                              ; Quickly wipe away from the filament line
G92 E0
G92 E0
G1 F1500 E-6
;LAYER_COUNT:15
;LAYER:0
M106 S76.5
M205 X10 Y10
G1 F600 Z0.375
G0 F6000 X78.571 Y103.464 Z0.375
M205 X8 Y8
;TYPE:SKIRT
G1 F600 Z0.3
G1 F1500 E0
G1 F1200 X79.159 Y103.056 E0.03571
G1 X79.788 Y102.716 E0.07138
G1 X80.452 Y102.449 E0.10708
G1 X81.141 Y102.257 E0.14277
G1 X81.847 Y102.143 E0.17845
G1 X82.651 Y102.103 E0.21861
G1 X82.83 Y102.1 E0.22754
G1 X141.793 Y102.1 E3.16921
G1 X142.583 Y102.111 E3.20863
G1 X143.296 Y102.161 E3.24429
G1 X144 Y102.29 E3.28
G1 X144.684 Y102.498 E3.31567
G1 X145.341 Y102.78 E3.35134
G1 X145.963 Y103.134 E3.38704
G1 X146.541 Y103.555 E3.42272
G1 X147.069 Y104.038 E3.45842
G1 X147.539 Y104.576 E3.49406
G1 X147.947 Y105.164 E3.52976
G1 X148.286 Y105.794 E3.56546
G1 X148.553 Y106.457 E3.60111
G1 X148.744 Y107.147 E3.63683
G1 X148.857 Y107.853 E3.6725
G1 X148.897 Y108.65 E3.71232
G1 X148.9 Y108.83 E3.7213
G1 X148.9 Y110.843 E3.82173
G1 X148.891 Y111.57 E3.858
G1 X148.842 Y112.284 E3.89371
G1 X148.714 Y112.988 E3.9294
G1 X148.508 Y113.673 E3.96509
G1 X148.227 Y114.33 E4.00074
G1 X147.874 Y114.953 E4.03647
G1 X147.454 Y115.532 E4.07215
G1 X146.972 Y116.06 E4.10782
G1 X146.435 Y116.532 E4.14349
G1 X145.847 Y116.94 E4.17919
G1 X145.218 Y117.281 E4.21489
G1 X144.555 Y117.549 E4.25057
G1 X143.866 Y117.741 E4.28625
G1 X143.16 Y117.856 E4.32194
G1 X142.349 Y117.897 E4.36245
G1 X142.17 Y117.9 E4.37138
G1 X83.124 Y117.899 E7.3172
G1 X82.426 Y117.89 E7.35202
G1 X81.713 Y117.841 E7.38768
G1 X81.009 Y117.713 E7.42338
G1 X80.324 Y117.507 E7.45907
G1 X79.667 Y117.225 E7.49474
G1 X79.045 Y116.872 E7.53042
G1 X78.466 Y116.452 E7.5661
G1 X77.937 Y115.97 E7.60181
G1 X77.466 Y115.432 E7.63748
G1 X77.058 Y114.845 E7.67314
G1 X76.718 Y114.215 E7.70886
G1 X76.45 Y113.552 E7.74454
G1 X76.258 Y112.863 E7.78022
G1 X76.144 Y112.157 E7.8159
G1 X76.102 Y111.331 E7.85716
G1 X76.1 Y111.158 E7.86579
G1 X76.101 Y109.087 E7.96912
G1 X76.11 Y108.422 E8.0023
G1 X76.159 Y107.709 E8.03795
G1 X76.288 Y107.005 E8.07366
G1 X76.495 Y106.321 E8.10931
G1 X76.777 Y105.663 E8.14503
G1 X77.13 Y105.041 E8.18071
G1 X77.55 Y104.463 E8.21636
G1 X78.033 Y103.935 E8.25206
G1 X78.571 Y103.464 E8.28773
M205 X10 Y10
G0 F6000 X78.958 Y103.673
M205 X8 Y8
G1 F1200 X79.539 Y103.296 E8.32228
G1 X80.159 Y102.988 E8.35682
G1 X80.811 Y102.754 E8.39138
G1 X81.485 Y102.597 E8.42591
G1 X82.341 Y102.511 E8.46883
G1 X82.83 Y102.5 E8.49323
G1 X141.793 Y102.5 E11.43491
G1 X142.577 Y102.511 E11.47403
G1 X143.268 Y102.56 E11.50859
G1 X143.948 Y102.69 E11.54313
G1 X144.609 Y102.896 E11.57767
G1 X145.242 Y103.178 E11.61224
G1 X145.838 Y103.53 E11.64677
G1 X146.389 Y103.949 E11.68131
G1 X146.889 Y104.429 E11.71589
G1 X147.33 Y104.963 E11.75044
G1 X147.707 Y105.544 E11.78499
G1 X148.014 Y106.165 E11.81956
G1 X148.247 Y106.817 E11.8541
G1 X148.404 Y107.491 E11.88862
G1 X148.489 Y108.341 E11.93124
G1 X148.5 Y108.83 E11.95564
G1 X148.5 Y110.838 E12.05582
G1 X148.491 Y111.565 E12.0921
G1 X148.442 Y112.256 E12.12666
G1 X148.314 Y112.937 E12.16123
G1 X148.109 Y113.598 E12.19576
G1 X147.829 Y114.231 E12.23029
G1 X147.477 Y114.828 E12.26486
G1 X147.06 Y115.381 E12.29942
G1 X146.581 Y115.881 E12.33396
G1 X146.048 Y116.323 E12.36851
G1 X145.467 Y116.701 E12.40309
G1 X144.847 Y117.009 E12.43763
G1 X144.196 Y117.244 E12.47216
G1 X143.521 Y117.402 E12.50674
G1 X142.659 Y117.489 E12.54997
G1 X142.17 Y117.5 E12.57437
G1 X83.13 Y117.5 E15.51989
G1 X82.432 Y117.491 E15.55471
G1 X81.741 Y117.442 E15.58927
G1 X81.06 Y117.313 E15.62385
G1 X80.399 Y117.108 E15.65838
G1 X79.766 Y116.827 E15.69293
G1 X79.169 Y116.476 E15.72748
G1 X78.617 Y116.058 E15.76203
G1 X78.117 Y115.579 E15.79657
G1 X77.675 Y115.045 E15.83116
G1 X77.298 Y114.465 E15.86567
G1 X76.99 Y113.844 E15.90025
G1 X76.755 Y113.193 E15.93478
G1 X76.598 Y112.518 E15.96936
G1 X76.511 Y111.653 E16.01273
G1 X76.5 Y111.158 E16.03743
G1 X76.501 Y109.093 E16.14045
G1 X76.51 Y108.428 E16.17363
G1 X76.559 Y107.737 E16.20819
G1 X76.687 Y107.057 E16.24272
G1 X76.894 Y106.395 E16.27732
G1 X77.175 Y105.762 E16.31187
G1 X77.527 Y105.166 E16.34641
G1 X77.945 Y104.614 E16.38095
G1 X78.424 Y104.114 E16.41549
G1 X78.958 Y103.673 E16.45005
M205 X10 Y10
G0 F6000 X78.814 Y104.301
M205 X8 Y8
G1 F1200 X79.343 Y103.89 E16.48347
G1 X79.916 Y103.545 E16.51684
G1 X80.527 Y103.272 E16.55022
G1 X81.165 Y103.073 E16.58357
G1 X81.823 Y102.951 E16.61695
G1 X82.352 Y102.911 E16.64342
G1 X82.83 Y102.9 E16.66727
G1 X141.793 Y102.9 E19.60895
G1 X142.571 Y102.911 E19.64777
G1 X143.238 Y102.96 E19.68114
G1 X143.895 Y103.089 E19.71454
G1 X144.531 Y103.295 E19.74789
G1 X145.139 Y103.576 E19.78131
G1 X145.708 Y103.926 E19.81464
G1 X146.232 Y104.343 E19.84805
G1 X146.702 Y104.819 E19.88142
G1 X147.112 Y105.347 E19.91477
G1 X147.457 Y105.921 E19.94818
G1 X147.73 Y106.532 E19.98157
G1 X147.928 Y107.171 E20.01495
G1 X148.049 Y107.829 E20.04832
G1 X148.089 Y108.353 E20.07454
G1 X148.1 Y108.83 E20.09835
G1 X148.1 Y110.833 E20.19828
G1 X148.091 Y111.56 E20.23455
G1 X148.042 Y112.228 E20.26797
G1 X147.915 Y112.884 E20.3013
G1 X147.71 Y113.521 E20.33469
G1 X147.431 Y114.129 E20.36806
G1 X147.081 Y114.699 E20.40143
G1 X146.665 Y115.224 E20.43485
G1 X146.19 Y115.695 E20.46822
G1 X145.663 Y116.106 E20.50157
G1 X145.09 Y116.452 E20.53496
G1 X144.48 Y116.726 E20.56832
G1 X143.841 Y116.926 E20.60173
G1 X143.183 Y117.048 E20.63511
G1 X142.648 Y117.089 E20.66188
G1 X142.17 Y117.1 E20.68574
G1 X83.135 Y117.1 E23.63101
G1 X82.437 Y117.091 E23.66583
G1 X81.77 Y117.042 E23.6992
G1 X81.113 Y116.914 E23.73259
G1 X80.476 Y116.709 E23.76598
G1 X79.868 Y116.429 E23.79937
G1 X79.298 Y116.079 E23.83274
G1 X78.774 Y115.663 E23.86612
G1 X78.303 Y115.188 E23.8995
G1 X77.892 Y114.66 E23.93288
G1 X77.547 Y114.087 E23.96625
G1 X77.273 Y113.477 E23.99961
G1 X77.073 Y112.838 E24.03301
G1 X76.952 Y112.18 E24.06639
G1 X76.911 Y111.642 E24.09331
G1 X76.9 Y111.158 E24.11746
G1 X76.901 Y109.098 E24.22024
G1 X76.91 Y108.433 E24.25342
G1 X76.959 Y107.766 E24.28678
G1 X77.087 Y107.109 E24.32018
G1 X77.292 Y106.473 E24.35352
G1 X77.572 Y105.865 E24.38691
G1 X77.923 Y105.295 E24.42031
G1 X78.339 Y104.771 E24.45369
G1 X78.814 Y104.301 E24.48702
M205 X10 Y10
G0 F6000 X79.203 Y104.495
M205 X8 Y8
G1 F1200 X79.726 Y104.117 E24.51922
G1 X80.29 Y103.806 E24.55135
G1 X80.889 Y103.568 E24.58351
G1 X81.513 Y103.405 E24.61568
G1 X82.363 Y103.311 E24.65835
G1 X82.83 Y103.3 E24.68165
G1 X141.793 Y103.3 E27.62333
G1 X142.565 Y103.311 E27.66185
G1 X143.208 Y103.36 E27.69402
G1 X143.84 Y103.488 E27.72619
G1 X144.451 Y103.694 E27.75836
G1 X145.032 Y103.973 E27.79052
G1 X145.574 Y104.322 E27.82268
G1 X146.068 Y104.736 E27.85483
G1 X146.508 Y105.208 E27.88703
G1 X146.886 Y105.73 E27.91918
G1 X147.196 Y106.295 E27.95133
G1 X147.434 Y106.894 E27.98349
G1 X147.596 Y107.518 E28.01565
G1 X147.689 Y108.364 E28.05812
G1 X147.7 Y108.83 E28.08137
G1 X147.7 Y110.828 E28.18105
G1 X147.691 Y111.555 E28.21732
G1 X147.643 Y112.198 E28.24949
G1 X147.516 Y112.83 E28.28165
G1 X147.311 Y113.442 E28.31385
G1 X147.033 Y114.023 E28.34599
G1 X146.685 Y114.566 E28.37816
G1 X146.272 Y115.061 E28.41033
G1 X145.801 Y115.501 E28.44248
G1 X145.279 Y115.88 E28.47467
G1 X144.715 Y116.191 E28.5068
G1 X144.116 Y116.43 E28.53897
G1 X143.493 Y116.594 E28.57111
G1 X142.637 Y116.689 E28.61408
G1 X142.17 Y116.7 E28.63739
G1 X83.14 Y116.7 E31.58241
G1 X82.442 Y116.691 E31.61723
G1 X81.799 Y116.642 E31.6494
G1 X81.167 Y116.515 E31.68157
G1 X80.556 Y116.31 E31.71372
G1 X79.975 Y116.032 E31.74585
G1 X79.432 Y115.683 E31.77806
G1 X78.937 Y115.27 E31.81022
G1 X78.497 Y114.799 E31.84237
G1 X78.118 Y114.277 E31.87456
G1 X77.807 Y113.713 E31.90669
G1 X77.569 Y113.114 E31.93885
G1 X77.406 Y112.49 E31.97102
G1 X77.311 Y111.631 E32.01414
G1 X77.3 Y111.158 E32.03774
G1 X77.3 Y109.104 E32.14022
G1 X77.309 Y108.439 E32.1734
G1 X77.358 Y107.796 E32.20557
G1 X77.486 Y107.164 E32.23774
G1 X77.691 Y106.553 E32.26989
G1 X77.97 Y105.972 E32.30205
G1 X78.319 Y105.429 E32.33425
G1 X78.732 Y104.935 E32.36638
G1 X79.203 Y104.495 E32.39853
M205 X10 Y10
G1 F1500 E26.39853
G1 F600 Z0.375
;MESH:frame-balken-60mm.stl
G0 F6000 X85.902 Y110.5 Z0.375
M205 X8 Y8
;TYPE:WALL-INNER
G1 F600 Z0.3
G1 F1500 E32.39853
G1 F1200 X86.025 Y110 E32.42422
G1 X85.902 Y109.5 E32.44991
G1 X139.042 Y109.5 E35.10108
G1 X139.033 Y109.517 E35.10204
G1 X139.033 Y110.483 E35.15023
G1 X139.042 Y110.5 E35.15119
G1 X85.902 Y110.5 E37.80236
M205 X10 Y10
G0 F6000 X85.428 Y110.751
M205 X8 Y8
G1 F1200 X85.613 Y110 E37.84094
G1 X85.428 Y109.249 E37.87953
G1 X85.296 Y109.1 E37.88946
G1 X139.703 Y109.1 E40.60384
G1 X139.433 Y109.615 E40.63285
G1 X139.433 Y110.385 E40.67126
G1 X139.703 Y110.9 E40.70027
G1 X85.296 Y110.9 E43.41465
G1 X85.428 Y110.751 E43.42458
M205 X10 Y10
G1 F1500 E37.42458
G1 F600 Z0.375
G0 F6000 X83.573 Y111.123 Z0.375
M205 X8 Y8
;TYPE:WALL-OUTER
G1 F600 Z0.3
G1 F1500 E43.42458
G1 F1200 X84.145 Y111.193 E43.45333
G1 X84.682 Y110.989 E43.48199
G1 X85.063 Y110.559 E43.51065
G1 X85.201 Y110 E43.53938
G1 X85.063 Y109.441 E43.56811
G1 X84.682 Y109.011 E43.59677
G1 X84.145 Y108.807 E43.62543
G1 X83.573 Y108.877 E43.65418
G1 X83.1 Y109.203 E43.68284
G1 X82.833 Y109.713 E43.71156
G1 X82.833 Y110.287 E43.74019
G1 X83.1 Y110.797 E43.76891
G1 X83.573 Y111.123 E43.79757
M205 X10 Y10
G0 F6000 X83.771 Y111.147
G1 F1500 E37.79757
G1 F600 Z0.375
G0 F6000 X140.573 Y111.123 Z0.375
M205 X8 Y8
G1 F600 Z0.3
G1 F1500 E43.79757
G1 F1200 X141.145 Y111.193 E43.82632
G1 X141.682 Y110.989 E43.85498
G1 X142.063 Y110.559 E43.88365
G1 X142.201 Y110 E43.91237
G1 X142.063 Y109.441 E43.9411
G1 X141.682 Y109.011 E43.96976
G1 X141.145 Y108.807 E43.99842
G1 X140.573 Y108.877 E44.02717
G1 X140.1 Y109.203 E44.05583
G1 X139.833 Y109.713 E44.08455
G1 X139.833 Y110.287 E44.11319
G1 X140.1 Y110.797 E44.14191
G1 X140.573 Y111.123 E44.17057
M205 X10 Y10
G0 F6000 X140.771 Y111.147
G1 F1500 E38.17057
G1 F600 Z0.375
G0 F6000 X142.3 Y111.3 Z0.375
M205 X8 Y8
G1 F600 Z0.3
G1 F1500 E44.17057
G1 F1200 X82.7 Y111.3 E47.14402
G1 X82.7 Y108.7 E47.27374
G1 X142.3 Y108.7 E50.24719
G1 X142.3 Y111.3 E50.37691
M205 X10 Y10
G0 F6000 X142.1 Y111.3
G1 F1500 E44.37691
G1 F600 Z0.375
G0 F6000 X138.643 Y110.11 Z0.375
M205 X8 Y8
;TYPE:SKIN
G1 F600 Z0.3
G1 F1500 E50.37691
G1 F1200 X86.4 Y110.11 E52.98332
G1 X86.4 Y109.89 E52.9943
G1 X138.643 Y109.89 E55.60071
G1 X138.643 Y110.11 E55.61169
M205 X10 Y10
G1 F1500 E49.61169
G1 F600 Z0.375
;MESH:NONMESH
G0 F6000 X85.902 Y110.5 Z0.375
;TIME_ELAPSED:61.072185
;LAYER:1
M106 S127.5
;MESH:frame-balken-60mm.stl
G0 X85.902 Y110.5 Z0.575
M205 X8 Y8
;TYPE:WALL-INNER
G1 F600 Z0.5
G1 F1500 E55.61169
G1 F1350 X86.025 Y110 E55.62881
G1 X85.902 Y109.5 E55.64594
G1 X139.042 Y109.5 E57.41338
G1 X139.033 Y109.517 E57.41402
G1 X139.033 Y110.483 E57.44615
G1 X139.042 Y110.5 E57.44679
G1 X85.902 Y110.5 E59.21423
M205 X10 Y10
G0 F6000 X85.428 Y110.751
M205 X8 Y8
G1 F1350 X85.613 Y110 E59.23996
G1 X85.428 Y109.249 E59.26568
G1 X85.296 Y109.1 E59.2723
G1 X139.703 Y109.1 E61.08189
G1 X139.433 Y109.615 E61.10123
G1 X139.433 Y110.385 E61.12684
G1 X139.703 Y110.9 E61.14618
G1 X85.296 Y110.9 E62.95576
G1 X85.428 Y110.751 E62.96238
M205 X10 Y10
G1 F1500 E56.96238
G1 F600 Z0.575
G0 F6000 X83.573 Y111.123 Z0.575
M205 X8 Y8
;TYPE:WALL-OUTER
G1 F600 Z0.5
G1 F1500 E62.96238
G1 F1350 X84.145 Y111.193 E62.98155
G1 X84.682 Y110.989 E63.00066
G1 X85.063 Y110.559 E63.01977
G1 X85.201 Y110 E63.03892
G1 X85.063 Y109.441 E63.05807
G1 X84.682 Y109.011 E63.07718
G1 X84.145 Y108.807 E63.09628
G1 X83.573 Y108.877 E63.11545
G1 X83.1 Y109.203 E63.13455
G1 X82.833 Y109.713 E63.1537
G1 X82.833 Y110.287 E63.17279
G1 X83.1 Y110.797 E63.19194
G1 X83.573 Y111.123 E63.21105
M205 X10 Y10
G0 F6000 X83.771 Y111.147
G1 F1500 E57.21105
G1 F600 Z0.575
G0 F6000 X140.573 Y111.123 Z0.575
M205 X8 Y8
G1 F600 Z0.5
G1 F1500 E63.21105
G1 F1350 X141.145 Y111.193 E63.23021
G1 X141.682 Y110.989 E63.24932
G1 X142.063 Y110.559 E63.26843
G1 X142.201 Y110 E63.28758
G1 X142.063 Y109.441 E63.30673
G1 X141.682 Y109.011 E63.32584
G1 X141.145 Y108.807 E63.34494
G1 X140.573 Y108.877 E63.36411
G1 X140.1 Y109.203 E63.38322
G1 X139.833 Y109.713 E63.40236
G1 X139.833 Y110.287 E63.42145
G1 X140.1 Y110.797 E63.4406
G1 X140.573 Y111.123 E63.45971
M205 X10 Y10
G0 F6000 X140.771 Y111.147
G1 F1500 E57.45971
G1 F600 Z0.575
G0 F6000 X142.3 Y111.3 Z0.575
M205 X8 Y8
G1 F600 Z0.5
G1 F1500 E63.45971
G1 F1350 X82.7 Y111.3 E65.44201
G1 X82.7 Y108.7 E65.52849
G1 X142.3 Y108.7 E67.51079
G1 X142.3 Y111.3 E67.59727
M205 X10 Y10
G0 F6000 X142.1 Y111.3
G1 F1500 E61.59727
G1 F600 Z0.575
G0 F6000 X138.643 Y110.11 Z0.575
M205 X8 Y8
;TYPE:SKIN
G1 F600 Z0.5
G1 F1500 E67.59727
G1 F1350 X86.4 Y110.11 E69.33488
G1 X86.4 Y109.89 E69.34219
G1 X138.643 Y109.89 E71.0798
G1 X138.643 Y110.11 E71.08712
M205 X10 Y10
G1 F1500 E65.08712
G1 F600 Z0.575
;MESH:NONMESH
G0 F6000 X85.902 Y110.5 Z0.575
;TIME_ELAPSED:84.516348
;LAYER:2
M106 S178.5
;MESH:frame-balken-60mm.stl
G0 X85.902 Y110.5 Z0.775
M205 X8 Y8
;TYPE:WALL-INNER
G1 F600 Z0.7
G1 F1500 E71.08712
G1 X86.025 Y110 E71.10425
G1 X85.902 Y109.5 E71.12137
G1 X139.042 Y109.5 E72.88882
G1 X139.033 Y109.517 E72.88946
G1 X139.033 Y110.483 E72.92159
G1 X139.042 Y110.5 E72.92223
G1 X85.902 Y110.5 E74.68967
M205 X10 Y10
G0 F6000 X85.428 Y110.751
M205 X8 Y8
G1 F1500 X85.613 Y110 E74.71539
G1 X85.428 Y109.249 E74.74112
G1 X85.296 Y109.1 E74.74774
G1 X139.703 Y109.1 E76.55732
G1 X139.433 Y109.615 E76.57666
G1 X139.433 Y110.385 E76.60227
G1 X139.703 Y110.9 E76.62161
G1 X85.296 Y110.9 E78.4312
G1 X85.428 Y110.751 E78.43782
M205 X10 Y10
G1 F1500 E72.43782
G1 F600 Z0.775
G0 F6000 X83.573 Y111.123 Z0.775
M205 X8 Y8
;TYPE:WALL-OUTER
G1 F600 Z0.7
G1 F1500 E78.43782
G1 X84.145 Y111.193 E78.45699
G1 X84.682 Y110.989 E78.47609
G1 X85.063 Y110.559 E78.4952
G1 X85.201 Y110 E78.51435
G1 X85.063 Y109.441 E78.5335
G1 X84.682 Y109.011 E78.55261
G1 X84.145 Y108.807 E78.57172
G1 X83.573 Y108.877 E78.59088
G1 X83.1 Y109.203 E78.60999
G1 X82.833 Y109.713 E78.62914
G1 X82.833 Y110.287 E78.64823
G1 X83.1 Y110.797 E78.66737
G1 X83.573 Y111.123 E78.68648
M205 X10 Y10
G0 F6000 X83.771 Y111.147
G1 F1500 E72.68648
G1 F600 Z0.775
G0 F6000 X140.573 Y111.123 Z0.775
M205 X8 Y8
G1 F600 Z0.7
G1 F1500 E78.68648
G1 X141.145 Y111.193 E78.70565
G1 X141.682 Y110.989 E78.72475
G1 X142.063 Y110.559 E78.74386
G1 X142.201 Y110 E78.76301
G1 X142.063 Y109.441 E78.78216
G1 X141.682 Y109.011 E78.80127
G1 X141.145 Y108.807 E78.82038
G1 X140.573 Y108.877 E78.83954
G1 X140.1 Y109.203 E78.85865
G1 X139.833 Y109.713 E78.8778
G1 X139.833 Y110.287 E78.89689
G1 X140.1 Y110.797 E78.91604
G1 X140.573 Y111.123 E78.93514
M205 X10 Y10
G0 F6000 X140.771 Y111.147
G1 F1500 E72.93514
G1 F600 Z0.775
G0 F6000 X142.3 Y111.3 Z0.775
M205 X8 Y8
G1 F600 Z0.7
G1 F1500 E78.93514
