;FLAVOR:Marlin
;TIME:1906
;Filament used: 1.48352m
;Layer height: 0.2
;MINX:55.614
;MINY:79.621
;MINZ:0.3
;MAXX:169.397
;MAXY:140.369
;MAXZ:2.175
;Generated with Cura_SteamEngine 4.13.1
M140 S60
M105
M190 S60
M104 S200
M105
M109 S200
M82 ;absolute extrusion mode
G21                                        ; metric values
G90                                        ; absolute positioning
M82                                        ; set extruder to absolute mode
M107                                       ; start with the fan off
M190 S60                                   ; preheat and wait for bed
M109 S210                                  ; preheat and wait for hotend
M300 S1000 P500                            ; BEEP heating done
G28 X0 Y10 Z0                              ; move X/Y to min endstops
M420 S1                                    ; enable mesh leveling
G0 Z0.15                                   ; lift nozzle a bit
G0 X2                                      ; move away from clips
G92 E0                                     ; zero the extruded length
G1 Y50 E25 F500                            ; Extrude 25mm of filament in a 5cm line.
G92 E0                                     ; zero the extruded length again
G1 E-2 F500                                ; Retract a little
G1 Y120 F4000                              ; Quickly wipe away from the filament line
G92 E0
G92 E0
G1 F1500 E-6
;LAYER_COUNT:10
;LAYER:0
M107
M205 X10 Y10
G1 F600 Z0.375
G0 F6000 X66.767 Y86.457 Z0.375
M205 X8 Y8
;TYPE:SKIRT
G1 F600 Z0.3
G1 F1500 E0
G1 F1200 X67.162 Y86.155 E0.02481
G1 X68.915 Y84.879 E0.13298
G1 X69.459 Y84.495 E0.1662
G1 X69.924 Y84.197 E0.19375
G1 X70.342 Y83.955 E0.21785
G1 X72.23 Y82.921 E0.32525
G1 X72.86 Y82.588 E0.3608
G1 X73.367 Y82.348 E0.38878
G1 X73.905 Y82.124 E0.41786
G1 X75.786 Y81.39 E0.51859
G1 X76.467 Y81.134 E0.55489
G1 X77.035 Y80.951 E0.58466
G1 X77.603 Y80.797 E0.61402
G1 X79.588 Y80.304 E0.71606
G1 X80.253 Y80.148 E0.75014
G1 X80.81 Y80.043 E0.77842
G1 X81.336 Y79.971 E0.8049
G1 X83.404 Y79.732 E0.90876
G1 X84.132 Y79.658 E0.94527
G1 X84.709 Y79.625 E0.9741
G1 X85.074 Y79.621 E0.99232
G1 X87.242 Y79.648 E1.10049
G1 X88.038 Y79.67 E1.14021
G1 X88.563 Y79.706 E1.16647
G1 X89.068 Y79.766 E1.19184
G1 X91.218 Y80.072 E1.30018
G1 X91.885 Y80.177 E1.33387
G1 X92.396 Y80.279 E1.35987
G1 X92.947 Y80.416 E1.38819
G1 X95.024 Y80.992 E1.49573
G1 X95.661 Y81.179 E1.52885
G1 X96.166 Y81.351 E1.55546
G1 X96.67 Y81.549 E1.58248
G1 X98.589 Y82.356 E1.68634
G1 X99.262 Y82.65 E1.72298
G1 X99.758 Y82.893 E1.75054
G1 X100.221 Y83.148 E1.77691
G1 X102.035 Y84.202 E1.88158
G1 X103.714 Y85.21 E1.97928
G1 X106.068 Y86.577 E2.11508
G1 X108.388 Y87.839 E2.24685
G1 X110.745 Y89.035 E2.37871
G1 X113.138 Y90.167 E2.51078
G1 X115.556 Y91.226 E2.64248
G1 X118.033 Y92.231 E2.77584
G1 X120.474 Y93.14 E2.90579
G1 X123.001 Y94.001 E3.03898
G1 X125.538 Y94.786 E3.17147
G1 X128.071 Y95.491 E3.30265
G1 X130.69 Y96.143 E3.4373
G1 X133.244 Y96.7 E3.56771
G1 X135.814 Y97.186 E3.69821
G1 X138.464 Y97.61 E3.8321
G1 X141.099 Y97.955 E3.96468
G1 X143.686 Y98.221 E4.09442
G1 X146.375 Y98.419 E4.22894
G1 X148.988 Y98.538 E4.35944
G1 X151.968 Y98.585 E4.50813
G1 X162.391 Y98.586 E5.02814
G1 X163.089 Y98.597 E5.06297
G1 X163.802 Y98.648 E5.09863
G1 X164.506 Y98.779 E5.13435
G1 X165.19 Y98.987 E5.17002
G1 X165.847 Y99.27 E5.20571
G1 X166.468 Y99.625 E5.2414
G1 X167.045 Y100.046 E5.27703
G1 X167.572 Y100.53 E5.31273
G1 X168.042 Y101.07 E5.34845
G1 X168.449 Y101.658 E5.38412
G1 X168.787 Y102.288 E5.41979
G1 X169.053 Y102.952 E5.45548
G1 X169.243 Y103.642 E5.49118
G1 X169.355 Y104.348 E5.52685
G1 X169.394 Y105.135 E5.56616
G1 X169.397 Y105.315 E5.57514
G1 X169.396 Y108.338 E5.72596
G1 X169.386 Y109.056 E5.76178
G1 X169.336 Y109.77 E5.79749
G1 X169.207 Y110.473 E5.83315
G1 X169 Y111.158 E5.86885
G1 X168.718 Y111.815 E5.90452
G1 X168.365 Y112.437 E5.9402
G1 X167.944 Y113.015 E5.97588
G1 X167.461 Y113.543 E6.01158
G1 X166.923 Y114.014 E6.04725
G1 X166.335 Y114.421 E6.08293
G1 X165.705 Y114.761 E6.11865
G1 X165.264 Y114.948 E6.14254
G1 X164.218 Y115.345 E6.19836
G1 X151.723 Y119.807 E6.86029
G1 X151.06 Y120.033 E6.89524
G1 X150.371 Y120.225 E6.93092
G1 X149.381 Y120.363 E6.98079
G1 X146.687 Y120.526 E7.11544
G1 X144.049 Y120.76 E7.24757
G1 X141.394 Y121.071 E7.38093
G1 X138.777 Y121.453 E7.51288
G1 X136.175 Y121.909 E7.64467
G1 X133.61 Y122.432 E7.77527
G1 X131.012 Y123.041 E7.9084
G1 X128.424 Y123.724 E8.04194
G1 X125.926 Y124.46 E8.17186
G1 X123.402 Y125.282 E8.30429
G1 X120.889 Y126.179 E8.43742
G1 X118.418 Y127.141 E8.56971
G1 X116.006 Y128.16 E8.70034
G1 X113.588 Y129.263 E8.83293
G1 X111.204 Y130.432 E8.9654
G1 X108.862 Y131.665 E9.09745
G1 X106.586 Y132.946 E9.22775
G1 X103.13 Y135.056 E9.42976
G1 X101.605 Y136.029 E9.52001
G1 X100.939 Y136.44 E9.55906
G1 X100.475 Y136.701 E9.58562
G1 X100.047 Y136.915 E9.60949
G1 X98.101 Y137.832 E9.71682
G1 X97.47 Y138.119 E9.7514
G1 X96.948 Y138.329 E9.77947
G1 X96.404 Y138.518 E9.8082
G1 X94.477 Y139.139 E9.90921
G1 X93.753 Y139.361 E9.94699
G1 X93.244 Y139.494 E9.97324
G1 X92.713 Y139.607 E10.00032
G1 X90.622 Y139.995 E10.10642
G1 X89.935 Y140.112 E10.14119
G1 X89.406 Y140.18 E10.1678
G1 X88.864 Y140.223 E10.19493
G1 X86.733 Y140.341 E10.3014
G1 X86.057 Y140.369 E10.33516
G1 X85.51 Y140.368 E10.36245
G1 X84.96 Y140.341 E10.38992
G1 X82.847 Y140.185 E10.49563
G1 X82.155 Y140.125 E10.53028
G1 X81.584 Y140.05 E10.55901
G1 X81.054 Y139.953 E10.58589
G1 X79.009 Y139.534 E10.69004
G1 X78.318 Y139.382 E10.72534
G1 X77.803 Y139.245 E10.75192
G1 X77.304 Y139.088 E10.77802
G1 X75.248 Y138.384 E10.88644
G1 X74.645 Y138.167 E10.91842
G1 X74.169 Y137.974 E10.94404
G1 X73.65 Y137.735 E10.97255
G1 X71.689 Y136.768 E11.08163
G1 X71.108 Y136.471 E11.11418
G1 X70.638 Y136.205 E11.14113
G1 X70.195 Y135.925 E11.16727
G1 X68.422 Y134.745 E11.27353
G1 X67.845 Y134.35 E11.30841
G1 X67.391 Y134.009 E11.33674
G1 X67.002 Y133.688 E11.3619
G1 X65.37 Y132.269 E11.4698
G1 X64.865 Y131.816 E11.50364
G1 X64.282 Y131.233 E11.54478
G1 X64.133 Y131.07 E11.5558
G1 X62.667 Y129.421 E11.66587
G1 X62.243 Y128.929 E11.69828
G1 X61.916 Y128.516 E11.72456
G1 X61.611 Y128.093 E11.75058
G1 X60.419 Y126.346 E11.85609
G1 X60.005 Y125.719 E11.89358
G1 X59.712 Y125.228 E11.9221
G1 X59.46 Y124.758 E11.94871
G1 X58.541 Y122.948 E12.04998
G1 X58.211 Y122.274 E12.08742
G1 X58.002 Y121.799 E12.11331
G1 X57.826 Y121.342 E12.13774
G1 X57.086 Y119.267 E12.24765
G1 X56.867 Y118.618 E12.28183
G1 X56.717 Y118.105 E12.30849
G1 X56.581 Y117.541 E12.33744
G1 X56.14 Y115.51 E12.44112
G1 X56.003 Y114.836 E12.47544
G1 X55.918 Y114.303 E12.50236
G1 X55.863 Y113.808 E12.52721
G1 X55.68 Y111.66 E12.63476
G1 X55.629 Y110.94 E12.67078
G1 X55.614 Y110.403 E12.69758
G1 X55.623 Y109.914 E12.72198
G1 X55.718 Y107.71 E12.83204
G1 X55.756 Y107.053 E12.86487
G1 X55.812 Y106.498 E12.8927
G1 X55.898 Y105.927 E12.92151
G1 X56.262 Y103.829 E13.02774
G1 X56.38 Y103.203 E13.05952
G1 X56.498 Y102.69 E13.08578
G1 X56.632 Y102.215 E13.11041
G1 X57.257 Y100.192 E13.21604
G1 X57.489 Y99.473 E13.25373
G1 X57.687 Y98.94 E13.2821
G1 X57.886 Y98.478 E13.3072
G1 X58.773 Y96.537 E13.41367
G1 X59.076 Y95.898 E13.44895
G1 X59.336 Y95.406 E13.47671
G1 X59.602 Y94.956 E13.50279
G1 X60.717 Y93.164 E13.60809
G1 X61.099 Y92.569 E13.64336
G1 X61.423 Y92.11 E13.67139
G1 X61.787 Y91.648 E13.70074
G1 X63.01 Y90.149 E13.79726
G1 X63.525 Y89.536 E13.8372
G1 X63.89 Y89.137 E13.86418
G1 X64.265 Y88.765 E13.89053
G1 X65.818 Y87.296 E13.99718
G1 X66.361 Y86.799 E14.03391
G1 X66.767 Y86.457 E14.06039
M205 X10 Y10
G0 F6000 X67.259 Y86.583
M205 X8 Y8
G1 F1200 X67.397 Y86.478 E14.06904
G1 X69.146 Y85.206 E14.17694
G1 X69.69 Y84.822 E14.21016
G1 X70.126 Y84.542 E14.23601
G1 X70.534 Y84.306 E14.25952
G1 X72.417 Y83.274 E14.36665
G1 X73.047 Y82.941 E14.4022
G1 X73.523 Y82.716 E14.42847
G1 X74.05 Y82.496 E14.45696
G1 X75.927 Y81.765 E14.55745
G1 X76.608 Y81.509 E14.59375
G1 X77.14 Y81.336 E14.62166
G1 X77.7 Y81.185 E14.6506
G1 X79.68 Y80.694 E14.75237
G1 X80.345 Y80.538 E14.78645
G1 X80.866 Y80.439 E14.81291
G1 X81.387 Y80.368 E14.83914
G1 X83.444 Y80.13 E14.94245
G1 X84.172 Y80.056 E14.97896
G1 X84.713 Y80.025 E15.00599
G1 X85.221 Y80.021 E15.03134
G1 X87.332 Y80.049 E15.13666
G1 X88.027 Y80.069 E15.17135
G1 X88.833 Y80.139 E15.21171
G1 X89.012 Y80.162 E15.22072
G1 X91.156 Y80.467 E15.32876
G1 X91.823 Y80.572 E15.36245
G1 X92.649 Y80.751 E15.40461
G1 X92.84 Y80.801 E15.41446
G1 X94.911 Y81.376 E15.52169
G1 X95.548 Y81.563 E15.55481
G1 X96.022 Y81.724 E15.57979
G1 X96.515 Y81.917 E15.6062
G1 X98.429 Y82.723 E15.70981
G1 X99.102 Y83.017 E15.74645
G1 X99.567 Y83.244 E15.77227
G1 X100.02 Y83.493 E15.79806
G1 X101.829 Y84.545 E15.90246
G1 X103.513 Y85.556 E16.00046
G1 X105.855 Y86.916 E16.13557
G1 X108.195 Y88.189 E16.26847
G1 X110.572 Y89.395 E16.40145
G1 X112.985 Y90.536 E16.53461
G1 X115.412 Y91.599 E16.6668
G1 X117.861 Y92.593 E16.79866
G1 X120.342 Y93.517 E16.93075
G1 X122.901 Y94.389 E17.06563
G1 X125.417 Y95.167 E17.19701
G1 X127.997 Y95.886 E17.33063
G1 X130.582 Y96.529 E17.46353
G1 X133.157 Y97.09 E17.59501
G1 X135.749 Y97.581 E17.72663
G1 X138.42 Y98.008 E17.86158
G1 X141.007 Y98.347 E17.99174
G1 X143.683 Y98.622 E18.12595
G1 X146.328 Y98.817 E18.25827
G1 X148.997 Y98.939 E18.39157
G1 X151.962 Y98.985 E18.53951
G1 X162.385 Y98.986 E19.05952
G1 X163.083 Y98.997 E19.09434
G1 X163.773 Y99.048 E19.12886
G1 X164.453 Y99.178 E19.1634
G1 X165.114 Y99.385 E19.19796
G1 X165.746 Y99.668 E19.23251
G1 X166.342 Y100.021 E19.26706
G1 X166.893 Y100.441 E19.30163
G1 X167.392 Y100.921 E19.33617
G1 X167.832 Y101.456 E19.37073
G1 X168.208 Y102.037 E19.40526
G1 X168.514 Y102.659 E19.43984
G1 X168.746 Y103.311 E19.47437
G1 X168.902 Y103.986 E19.50893
G1 X168.986 Y104.827 E19.5511
G1 X168.997 Y105.315 E19.57545
G1 X168.996 Y108.333 E19.72602
G1 X168.986 Y109.051 E19.76184
G1 X168.937 Y109.741 E19.79635
G1 X168.808 Y110.422 E19.83093
G1 X168.602 Y111.083 E19.86548
G1 X168.32 Y111.716 E19.90005
G1 X167.968 Y112.312 E19.93458
G1 X167.549 Y112.864 E19.96916
G1 X167.07 Y113.363 E20.00366
G1 X166.536 Y113.805 E20.03825
G1 X165.955 Y114.181 E20.07278
G1 X165.122 Y114.574 E20.11873
G1 X164.083 Y114.968 E20.17416
G1 X151.594 Y119.428 E20.83578
G1 X150.931 Y119.654 E20.87073
G1 X150.264 Y119.839 E20.90526
G1 X149.357 Y119.964 E20.95094
G1 X146.661 Y120.127 E21.08569
G1 X143.968 Y120.366 E21.22057
G1 X141.366 Y120.671 E21.35127
G1 X138.717 Y121.058 E21.48484
G1 X136.097 Y121.516 E21.61753
G1 X133.536 Y122.038 E21.74793
G1 X130.898 Y122.657 E21.88311
G1 X128.347 Y123.331 E22.01475
G1 X125.794 Y124.082 E22.14752
G1 X123.26 Y124.908 E22.28048
G1 X120.747 Y125.805 E22.41361
G1 X118.284 Y126.764 E22.54547
G1 X115.833 Y127.799 E22.67821
G1 X113.41 Y128.904 E22.81107
G1 X111.034 Y130.07 E22.94311
G1 X108.659 Y131.321 E23.07703
G1 X106.371 Y132.608 E23.208
G1 X102.961 Y134.689 E23.4073
G1 X101.395 Y135.689 E23.5
G1 X100.729 Y136.1 E23.53905
G1 X100.034 Y136.476 E23.57847
G1 X99.876 Y136.553 E23.58724
G1 X97.935 Y137.468 E23.6943
G1 X97.304 Y137.755 E23.72888
G1 X96.815 Y137.951 E23.75516
G1 X96.281 Y138.137 E23.78338
G1 X94.36 Y138.756 E23.88407
G1 X93.636 Y138.978 E23.92185
G1 X92.824 Y139.177 E23.96356
G1 X92.64 Y139.214 E23.97292
G1 X90.555 Y139.601 E24.07872
G1 X89.868 Y139.718 E24.11349
G1 X89.021 Y139.811 E24.156
G1 X88.842 Y139.824 E24.16495
G1 X86.716 Y139.941 E24.27118
G1 X86.04 Y139.969 E24.30493
G1 X85.528 Y139.968 E24.33048
G1 X84.99 Y139.942 E24.35735
G1 X82.882 Y139.787 E24.4628
G1 X82.19 Y139.727 E24.49746
G1 X81.654 Y139.656 E24.52443
G1 X81.135 Y139.561 E24.55075
G1 X79.095 Y139.143 E24.65464
G1 X78.404 Y138.991 E24.68994
G1 X77.604 Y138.765 E24.73142
G1 X77.434 Y138.71 E24.74033
G1 X75.383 Y138.008 E24.84848
G1 X74.78 Y137.791 E24.88046
G1 X74.001 Y137.458 E24.92272
G1 X73.827 Y137.376 E24.93232
G1 X71.871 Y136.411 E25.04113
G1 X71.29 Y136.114 E25.07369
G1 X70.849 Y135.865 E25.09895
G1 X70.417 Y135.592 E25.12445
G1 X68.648 Y134.415 E25.23046
G1 X68.071 Y134.02 E25.26534
G1 X67.646 Y133.701 E25.29185
G1 X67.265 Y133.386 E25.31652
G1 X65.638 Y131.971 E25.42409
G1 X65.133 Y131.518 E25.45794
G1 X64.572 Y130.957 E25.49752
G1 X64.432 Y130.805 E25.50783
G1 X62.97 Y129.16 E25.61763
G1 X62.546 Y128.668 E25.65003
G1 X62.044 Y128.013 E25.6912
G1 X61.942 Y127.867 E25.70009
G1 X60.753 Y126.126 E25.80527
G1 X60.339 Y125.499 E25.84275
G1 X60.064 Y125.039 E25.86949
G1 X59.817 Y124.576 E25.89567
G1 X58.9 Y122.772 E25.99663
G1 X58.57 Y122.098 E26.03407
G1 X58.268 Y121.383 E26.0728
G1 X58.202 Y121.207 E26.08217
G1 X57.465 Y119.139 E26.1917
G1 X57.246 Y118.49 E26.22588
G1 X57.106 Y118.01 E26.25082
G1 X56.972 Y117.456 E26.27926
G1 X56.532 Y115.43 E26.38269
G1 X56.395 Y114.756 E26.41701
G1 X56.315 Y114.256 E26.44227
G1 X56.262 Y113.773 E26.46651
G1 X56.079 Y111.632 E26.57371
G1 X56.028 Y110.912 E26.60972
G1 X56.014 Y110.408 E26.63488
G1 X56.022 Y109.931 E26.65868
G1 X56.117 Y107.734 E26.76839
G1 X56.155 Y107.077 E26.80122
G1 X56.208 Y106.556 E26.82735
G1 X56.292 Y105.995 E26.85565
G1 X56.655 Y103.904 E26.96153
G1 X56.773 Y103.278 E26.99331
G1 X56.963 Y102.51 E27.03278
G1 X57.015 Y102.333 E27.04199
G1 X57.638 Y100.315 E27.14735
G1 X57.87 Y99.596 E27.18505
G1 X58.056 Y99.097 E27.21162
G1 X58.25 Y98.644 E27.2362
G1 X59.135 Y96.708 E27.3424
G1 X59.438 Y96.069 E27.37768
G1 X59.681 Y95.608 E27.40368
G1 X59.942 Y95.167 E27.42925
G1 X61.054 Y93.38 E27.53425
G1 X61.436 Y92.785 E27.56953
G1 X61.74 Y92.355 E27.5958
G1 X62.099 Y91.898 E27.6248
G1 X63.32 Y90.402 E27.72114
G1 X63.832 Y89.793 E27.76083
G1 X64.174 Y89.419 E27.78611
G1 X64.54 Y89.055 E27.81187
G1 X66.088 Y87.591 E27.91816
G1 X66.631 Y87.094 E27.95489
G1 X67.259 Y86.583 E27.99528
M205 X10 Y10
G0 F6000 X67.503 Y86.899
M205 X8 Y8
G1 F1200 X67.633 Y86.802 E28.00337
G1 X69.377 Y85.533 E28.11098
G1 X69.921 Y85.149 E28.1442
G1 X70.596 Y84.73 E28.18384
G1 X72.604 Y83.628 E28.29811
G1 X73.234 Y83.295 E28.33366
G1 X74.058 Y82.925 E28.37873
G1 X74.196 Y82.869 E28.38616
G1 X76.067 Y82.139 E28.48635
G1 X76.748 Y81.883 E28.52265
G1 X77.246 Y81.722 E28.54876
G1 X77.797 Y81.574 E28.57722
G1 X79.771 Y81.083 E28.67871
G1 X80.436 Y80.927 E28.71279
G1 X81.196 Y80.796 E28.75126
G1 X81.5 Y80.757 E28.76655
G1 X83.485 Y80.528 E28.86624
G1 X84.213 Y80.454 E28.90275
G1 X84.718 Y80.425 E28.92799
G1 X85.216 Y80.421 E28.95283
G1 X87.32 Y80.449 E29.05781
G1 X88.015 Y80.469 E29.0925
G1 X88.788 Y80.536 E29.13121
G1 X88.956 Y80.558 E29.13966
G1 X91.094 Y80.862 E29.2474
G1 X91.761 Y80.967 E29.28109
G1 X92.555 Y81.14 E29.32163
G1 X92.733 Y81.187 E29.33081
G1 X94.798 Y81.76 E29.43773
G1 X95.435 Y81.947 E29.47085
G1 X96.209 Y82.225 E29.51188
G1 X96.36 Y82.286 E29.52
G1 X98.269 Y83.089 E29.62333
G1 X98.942 Y83.383 E29.65997
G1 X99.683 Y83.763 E29.70151
G1 X99.819 Y83.839 E29.70929
G1 X101.623 Y84.888 E29.8134
G1 X103.312 Y85.902 E29.91168
G1 X105.669 Y87.271 E30.04767
G1 X108.002 Y88.54 E30.18017
G1 X110.412 Y89.763 E30.315
G1 X112.805 Y90.895 E30.44707
G1 X115.25 Y91.966 E30.58024
G1 X117.708 Y92.963 E30.71258
G1 X120.222 Y93.899 E30.84641
G1 X122.759 Y94.763 E30.98012
G1 X125.297 Y95.548 E31.11266
G1 X127.907 Y96.276 E31.24784
G1 X130.465 Y96.912 E31.37935
G1 X133.11 Y97.489 E31.51441
G1 X135.676 Y97.974 E31.6447
G1 X138.342 Y98.401 E31.7794
G1 X140.985 Y98.747 E31.91238
G1 X143.646 Y99.02 E32.04584
G1 X146.317 Y99.217 E32.17946
G1 X148.973 Y99.338 E32.3121
G1 X151.955 Y99.385 E32.46089
G1 X162.378 Y99.386 E32.9809
G1 X163.076 Y99.397 E33.01573
G1 X163.743 Y99.447 E33.0491
G1 X164.4 Y99.577 E33.08251
G1 X165.036 Y99.784 E33.11588
G1 X165.643 Y100.065 E33.14925
G1 X166.212 Y100.417 E33.18263
G1 X166.735 Y100.834 E33.216
G1 X167.205 Y101.311 E33.24941
G1 X167.614 Y101.84 E33.28277
G1 X167.957 Y102.414 E33.31613
G1 X168.23 Y103.025 E33.34952
G1 X168.427 Y103.664 E33.38288
G1 X168.547 Y104.323 E33.4163
G1 X168.586 Y104.838 E33.44206
G1 X168.597 Y105.315 E33.46587
G1 X168.596 Y108.327 E33.61614
G1 X168.586 Y109.045 E33.65196
G1 X168.537 Y109.712 E33.68533
G1 X168.409 Y110.369 E33.71872
G1 X168.203 Y111.005 E33.75208
