;FLAVOR:Marlin
;TIME:1152
;Filament used: 0.881148m
;Layer height: 0.2
;MINX:85.2
;MINY:102.7
;MINZ:0.3
;MAXX:139.8
;MAXY:117.3
;MAXZ:4.175
;Generated with Cura_SteamEngine 4.13.1
M140 S60
M105
M190 S60
M104 S200
M105
M109 S200
M82 ;absolute extrusion mode
G21                                        ; metric values
G90                                        ; absolute positioning
M82                                        ; set extruder to absolute mode
M107                                       ; start with the fan off
M190 S60                                   ; preheat and wait for bed
M109 S210                                  ; preheat and wait for hotend
M300 S1000 P500                            ; BEEP heating done
G28 X0 Y10 Z0                              ; move X/Y to min endstops
M420 S1                                    ; enable mesh leveling
G0 Z0.15                                   ; lift nozzle a bit
G0 X2                                      ; move away from clips
G92 E0                                     ; zero the extruded length
G1 Y50 E25 F500                            ; Extrude 25mm of filament in a 5cm line.
G92 E0                                     ; zero the extruded length again
G1 E-2 F500                                ; Retract a little
G1 Y120 F4000                              ; Quickly wipe away from the filament line
G92 E0
G92 E0
G1 F1500 E-6
;LAYER_COUNT:20
;LAYER:0
M106 S76.5
M205 X10 Y10
G1 F600 Z0.375
G0 F6000 X116.583 Y107.59 Z0.375
M205 X8 Y8
;TYPE:SKIRT
G1 F600 Z0.3
G1 F1500 E0
G1 F1200 X116.766 Y107.657 E0.00972
G1 X116.636 Y108.085 E0.03204
G1 X116.575 Y108.571 E0.05648
G1 X116.47 Y108.596 E0.06186
G1 X116.498 Y108.434 E0.07006
G1 X116.509 Y107.895 E0.09696
G1 X116.489 Y107.74 E0.10476
G1 X116.583 Y107.59 E0.11359
M205 X10 Y10
G0 F6000 X116.644 Y107.186
M205 X8 Y8
G1 F1200 X117.366 Y107.45 E0.15194
G1 X117.081 Y107.938 E0.18014
G1 X117.034 Y108.599 E0.2132
G1 X117.183 Y109.016 E0.23529
G1 X116.763 Y108.957 E0.25645
G1 X116.123 Y109.134 E0.28958
G1 X116.008 Y108.911 E0.30209
G1 X116.103 Y108.365 E0.32974
G1 X116.073 Y107.649 E0.3655
G1 X116.415 Y107.061 E0.39943
G1 X116.644 Y107.186 E0.41245
M205 X10 Y10
G0 F6000 X116.782 Y106.81
M205 X8 Y8
G1 F1200 X117.632 Y107.121 E0.4576
G1 X117.802 Y107.26 E0.46856
G1 X117.802 Y107.565 E0.48378
G1 X117.539 Y107.881 E0.50429
G1 X117.416 Y108.426 E0.53216
G1 X117.605 Y108.954 E0.56014
G1 X118.049 Y109.564 E0.59778
G1 X117.993 Y109.839 E0.61178
G1 X117.823 Y110.045 E0.62511
G1 X117.405 Y109.555 E0.65724
G1 X116.882 Y109.359 E0.68511
G1 X116.336 Y109.474 E0.71294
G1 X115.936 Y109.863 E0.74078
G1 X115.807 Y110.407 E0.76867
G1 X115.891 Y110.759 E0.78673
G1 X116.223 Y111.514 E0.82788
G1 X116.581 Y111.942 E0.85571
G1 X117.114 Y112.111 E0.88361
G1 X117.654 Y111.968 E0.91148
G1 X117.999 Y111.658 E0.93462
G1 X118.059 Y111.753 E0.94022
G1 X117.95 Y112.309 E0.96849
G1 X117.799 Y112.851 E0.99656
G1 X117.498 Y113.035 E1.01416
G1 X116.992 Y112.924 E1.04001
G1 X116.435 Y112.962 E1.06786
G1 X116.017 Y113.252 E1.09324
G1 X115.921 Y113.364 E1.1006
G1 X116.08 Y112.503 E1.14428
G1 X116.179 Y111.861 E1.17669
G1 X116.112 Y111.319 E1.20394
G1 X115.735 Y110.428 E1.25221
G1 X115.827 Y109.929 E1.27752
G1 X115.762 Y109.351 E1.30654
G1 X115.594 Y108.961 E1.32772
G1 X115.709 Y108.297 E1.36134
G1 X115.659 Y107.557 E1.39835
G1 X115.993 Y107.024 E1.42973
G1 X116.146 Y106.487 E1.45759
G1 X116.043 Y106.066 E1.47921
G1 X116.378 Y106.536 E1.508
G1 X116.782 Y106.81 E1.53236
M205 X10 Y10
G0 F6000 X116.919 Y106.435
M205 X8 Y8
G1 F1200 X117.835 Y106.77 E1.58102
G1 X118.202 Y107.071 E1.6047
G1 X118.202 Y107.731 E1.63763
G1 X117.867 Y108.119 E1.6632
G1 X117.842 Y108.548 E1.68464
G1 X117.929 Y108.719 E1.69421
G1 X118.476 Y109.472 E1.74064
G1 X118.365 Y110.016 E1.76834
G1 X118.008 Y110.514 E1.79891
G1 X117.978 Y110.73 E1.80979
G1 X118.071 Y111.025 E1.82522
G1 X118.482 Y111.671 E1.86342
G1 X118.338 Y112.406 E1.90079
G1 X118.142 Y113.11 E1.93725
G1 X117.569 Y113.46 E1.97075
G1 X116.906 Y113.315 E2.00461
G1 X116.482 Y113.379 E2.026
G1 X116.322 Y113.512 E2.03638
G1 X115.955 Y113.942 E2.06458
G1 X115.549 Y113.81 E2.08588
G1 X115.495 Y113.471 E2.10301
G1 X115.685 Y112.442 E2.15521
G1 X115.784 Y111.8 E2.18762
G1 X115.744 Y111.475 E2.20396
G1 X115.32 Y110.473 E2.25824
G1 X115.434 Y109.856 E2.28954
G1 X115.395 Y109.51 E2.30691
G1 X115.18 Y109.01 E2.33407
G1 X115.315 Y108.229 E2.37361
G1 X115.319 Y108.049 E2.38259
G1 X115.244 Y107.467 E2.41187
G1 X115.654 Y106.812 E2.45042
G1 X115.737 Y106.391 E2.47183
G1 X115.663 Y106.189 E2.48256
G1 X115.394 Y105.732 E2.50902
G1 X115.686 Y105.33 E2.53381
G1 X115.79 Y105.33 E2.53899
G1 X116.478 Y105.909 E2.58386
G1 X116.711 Y106.306 E2.60682
G1 X116.919 Y106.435 E2.61903
M205 X10 Y10
G0 F6000 X117.056 Y106.059
M205 X8 Y8
G1 F1200 X118.036 Y106.417 E2.67109
G1 X118.602 Y106.882 E2.70763
G1 X118.602 Y107.898 E2.75832
G1 X118.216 Y108.335 E2.78741
G1 X118.252 Y108.484 E2.79506
G1 X118.903 Y109.38 E2.85031
G1 X118.737 Y110.192 E2.89166
G1 X118.377 Y110.693 E2.92244
G1 X118.408 Y110.81 E2.92848
G1 X118.906 Y111.592 E2.97473
G1 X118.73 Y112.489 E3.02034
G1 X118.484 Y113.37 E3.06597
G1 X117.641 Y113.886 E3.11528
G1 X116.821 Y113.706 E3.15716
G1 X116.626 Y113.771 E3.16742
G1 X116.085 Y114.406 E3.20904
G1 X115.192 Y114.115 E3.2559
G1 X115.089 Y113.466 E3.28868
G1 X115.29 Y112.381 E3.34373
G1 X115.389 Y111.739 E3.37614
G1 X115.375 Y111.631 E3.38157
G1 X114.905 Y110.52 E3.44176
G1 X115.041 Y109.783 E3.47915
G1 X115.028 Y109.668 E3.48492
G1 X114.765 Y109.058 E3.51806
G1 X114.921 Y108.16 E3.56353
G1 X114.922 Y108.1 E3.56653
G1 X114.828 Y107.376 E3.60295
G1 X115.315 Y106.599 E3.6487
G1 X115.318 Y106.392 E3.65903
G1 X114.917 Y105.709 E3.69854
G1 X115.483 Y104.93 E3.74658
G1 X115.936 Y104.93 E3.76918
G1 X116.802 Y105.66 E3.82569
G1 X117.056 Y106.059 E3.84929
M205 X10 Y10
G1 F1500 E-2.15071
G1 F600 Z0.375
G0 F6000 X116.508 Y112.356 Z0.375
M205 X8 Y8
G1 F600 Z0.3
G1 F1500 E3.84929
G1 F1200 X116.86 Y112.483 E3.86796
G1 X117.492 Y112.462 E3.89951
G1 X117.427 Y112.61 E3.90757
G1 X116.745 Y112.501 E3.94203
G1 X116.48 Y112.539 E3.95538
G1 X116.508 Y112.356 E3.96462
M205 X10 Y10
G1 F1500 E-2.03538
G1 F600 Z0.375
;MESH:paper-cutter-a4_test1.stl
G0 F6000 X104 Y116.5 Z0.375
M205 X8 Y8
;TYPE:WALL-INNER
G1 F600 Z0.3
G1 F1500 E3.96462
G1 F1200 X86 Y116.5 E4.86264
G1 X86 Y103.5 E5.51122
G1 X104 Y103.5 E6.40924
G1 X104 Y116.5 E7.05781
M205 X10 Y10
G0 F6000 X104.4 Y116.9
M205 X8 Y8
G1 F1200 X85.6 Y116.9 E7.99575
G1 X85.6 Y103.1 E8.68423
G1 X104.4 Y103.1 E9.62217
G1 X104.4 Y116.9 E10.31065
M205 X10 Y10
G0 F6000 X104.8 Y117.3
M205 X8 Y8
;TYPE:WALL-OUTER
G1 F1200 X85.2 Y117.3 E11.2885
G1 X85.2 Y102.7 E12.0169
G1 X104.8 Y102.7 E12.99475
G1 X104.8 Y117.3 E13.72314
M205 X10 Y10
G0 F6000 X104.6 Y117.3
G0 X104.36 Y116.86
G0 X103.61 Y116.11
M205 X8 Y8
;TYPE:SKIN
G1 F1200 X86.39 Y116.11 E14.58225
G1 X86.39 Y103.89 E15.19191
G1 X103.61 Y103.89 E16.05102
G1 X103.61 Y116.11 E16.66068
M205 X10 Y10
G1 F1500 E10.66068
G1 F600 Z0.375
G0 F6000 X103.429 Y104.561 Z0.375
M205 X8 Y8
G1 F600 Z0.3
G1 F1500 E16.66068
G1 F1200 X102.937 Y104.069 E16.69539
M205 X10 Y10
G0 F6000 X102.372 Y104.069
M205 X8 Y8
G1 F1200 X103.429 Y105.126 E16.76997
M205 X10 Y10
G0 F6000 X103.429 Y105.692
M205 X8 Y8
G1 F1200 X101.806 Y104.069 E16.88448
M205 X10 Y10
G0 F6000 X101.24 Y104.069
M205 X8 Y8
G1 F1200 X103.429 Y106.258 E17.03893
M205 X10 Y10
G0 F6000 X103.429 Y106.824
M205 X8 Y8
G1 F1200 X100.675 Y104.069 E17.23327
M205 X10 Y10
G0 F6000 X100.109 Y104.069
M205 X8 Y8
G1 F1200 X103.429 Y107.389 E17.46751
M205 X10 Y10
G0 F6000 X103.429 Y107.955
M205 X8 Y8
G1 F1200 X99.543 Y104.069 E17.74169
M205 X10 Y10
G0 F6000 X98.977 Y104.069
M205 X8 Y8
G1 F1200 X103.429 Y108.521 E18.05581
M205 X10 Y10
G0 F6000 X103.429 Y109.086
M205 X8 Y8
G1 F1200 X98.412 Y104.069 E18.40978
M205 X10 Y10
G0 F6000 X97.846 Y104.069
M205 X8 Y8
G1 F1200 X103.429 Y109.652 E18.80369
M205 X10 Y10
G0 F6000 X103.429 Y110.218
M205 X8 Y8
G1 F1200 X97.28 Y104.069 E19.23754
M205 X10 Y10
G0 F6000 X96.715 Y104.069
M205 X8 Y8
G1 F1200 X103.429 Y110.783 E19.71125
M205 X10 Y10
G0 F6000 X103.429 Y111.349
M205 X8 Y8
G1 F1200 X96.149 Y104.069 E20.22489
M205 X10 Y10
G0 F6000 X95.583 Y104.069
M205 X8 Y8
G1 F1200 X103.429 Y111.915 E20.77847
M205 X10 Y10
G0 F6000 X103.429 Y112.48
M205 X8 Y8
G1 F1200 X95.018 Y104.069 E21.37191
M205 X10 Y10
G0 F6000 X94.452 Y104.069
M205 X8 Y8
G1 F1200 X103.429 Y113.046 E22.00529
M205 X10 Y10
G0 F6000 X103.429 Y113.612
M205 X8 Y8
G1 F1200 X93.886 Y104.069 E22.6786
M205 X10 Y10
G0 F6000 X93.321 Y104.069
M205 X8 Y8
G1 F1200 X103.429 Y114.177 E23.39177
M205 X10 Y10
G0 F6000 X103.429 Y114.743
M205 X8 Y8
G1 F1200 X92.755 Y104.069 E24.14488
M205 X10 Y10
G0 F6000 X92.189 Y104.069
M205 X8 Y8
G1 F1200 X103.429 Y115.309 E24.93792
M205 X10 Y10
G0 F6000 X103.429 Y115.875
M205 X8 Y8
G1 F1200 X91.624 Y104.069 E25.77086
M205 X10 Y10
G0 F6000 X91.058 Y104.069
M205 X8 Y8
G1 F1200 X102.917 Y115.928 E26.60758
M205 X10 Y10
G0 F6000 X102.352 Y115.928
M205 X8 Y8
G1 F1200 X90.492 Y104.069 E27.44433
M205 X10 Y10
G0 F6000 X89.927 Y104.069
M205 X8 Y8
G1 F1200 X101.786 Y115.928 E28.28105
M205 X10 Y10
G0 F6000 X101.22 Y115.928
M205 X8 Y8
G1 F1200 X89.361 Y104.069 E29.11776
M205 X10 Y10
G0 F6000 X88.795 Y104.069
M205 X8 Y8
G1 F1200 X100.655 Y115.928 E29.95452
M205 X10 Y10
G0 F6000 X100.089 Y115.928
M205 X8 Y8
G1 F1200 X88.229 Y104.069 E30.79127
M205 X10 Y10
G0 F6000 X87.664 Y104.069
M205 X8 Y8
G1 F1200 X99.523 Y115.928 E31.62798
M205 X10 Y10
G0 F6000 X98.958 Y115.928
M205 X8 Y8
G1 F1200 X87.098 Y104.069 E32.46474
M205 X10 Y10
G0 F6000 X86.569 Y104.105
M205 X8 Y8
G1 F1200 X98.392 Y115.928 E33.29891
M205 X10 Y10
G0 F6000 X97.826 Y115.928
M205 X8 Y8
G1 F1200 X86.569 Y104.671 E34.09315
M205 X10 Y10
G0 F6000 X86.569 Y105.237
M205 X8 Y8
G1 F1200 X97.261 Y115.928 E34.8475
M205 X10 Y10
G0 F6000 X96.695 Y115.928
M205 X8 Y8
G1 F1200 X86.569 Y105.802 E35.56194
M205 X10 Y10
G0 F6000 X86.569 Y106.368
M205 X8 Y8
G1 F1200 X96.129 Y115.928 E36.23645
M205 X10 Y10
G0 F6000 X95.564 Y115.928
M205 X8 Y8
G1 F1200 X86.569 Y106.934 E36.87106
M205 X10 Y10
G0 F6000 X86.569 Y107.5
M205 X8 Y8
G1 F1200 X94.998 Y115.928 E37.46574
M205 X10 Y10
G0 F6000 X94.432 Y115.928
M205 X8 Y8
G1 F1200 X86.569 Y108.065 E38.02051
M205 X10 Y10
G0 F6000 X86.569 Y108.631
M205 X8 Y8
G1 F1200 X93.867 Y115.928 E38.53539
M205 X10 Y10
G0 F6000 X93.301 Y115.928
M205 X8 Y8
G1 F1200 X86.569 Y109.197 E39.01034
M205 X10 Y10
G0 F6000 X86.569 Y109.762
M205 X8 Y8
G1 F1200 X92.735 Y115.928 E39.44538
M205 X10 Y10
G0 F6000 X92.169 Y115.928
M205 X8 Y8
G1 F1200 X86.569 Y110.328 E39.84049
M205 X10 Y10
G0 F6000 X86.569 Y110.894
M205 X8 Y8
G1 F1200 X91.604 Y115.928 E40.1957
M205 X10 Y10
G0 F6000 X91.038 Y115.928
M205 X8 Y8
G1 F1200 X86.569 Y111.459 E40.51101
M205 X10 Y10
G0 F6000 X86.569 Y112.025
M205 X8 Y8
G1 F1200 X90.472 Y115.928 E40.78639
M205 X10 Y10
G0 F6000 X89.907 Y115.928
M205 X8 Y8
G1 F1200 X86.569 Y112.591 E41.02187
M205 X10 Y10
G0 F6000 X86.569 Y113.156
M205 X8 Y8
G1 F1200 X89.341 Y115.928 E41.21745
M205 X10 Y10
G0 F6000 X88.775 Y115.928
M205 X8 Y8
G1 F1200 X86.569 Y113.722 E41.3731
M205 X10 Y10
G0 F6000 X86.569 Y114.288
M205 X8 Y8
G1 F1200 X88.21 Y115.928 E41.48884
M205 X10 Y10
G0 F6000 X87.644 Y115.928
M205 X8 Y8
G1 F1200 X86.569 Y114.853 E41.56469
M205 X10 Y10
G0 F6000 X86.569 Y115.419
M205 X8 Y8
G1 F1200 X87.078 Y115.928 E41.6006
M205 X10 Y10
G1 F1500 E35.6006
G1 F600 Z0.375
G0 F6000 X139 Y116.5 Z0.375
M205 X8 Y8
;TYPE:WALL-INNER
G1 F600 Z0.3
G1 F1500 E41.6006
G1 F1200 X121 Y116.5 E42.49862
G1 X121 Y103.5 E43.1472
G1 X139 Y103.5 E44.04522
G1 X139 Y116.5 E44.69379
M205 X10 Y10
G0 F6000 X139.4 Y116.9
M205 X8 Y8
G1 F1200 X120.6 Y116.9 E45.63173
G1 X120.6 Y103.1 E46.32021
G1 X139.4 Y103.1 E47.25815
G1 X139.4 Y116.9 E47.94664
M205 X10 Y10
G0 F6000 X139.8 Y117.3
M205 X8 Y8
;TYPE:WALL-OUTER
G1 F1200 X120.2 Y117.3 E48.92448
G1 X120.2 Y102.7 E49.65288
G1 X139.8 Y102.7 E50.63073
G1 X139.8 Y117.3 E51.35912
M205 X10 Y10
G0 F6000 X139.6 Y117.3
G0 X139.36 Y116.86
G0 X138.61 Y116.11
M205 X8 Y8
;TYPE:SKIN
G1 F1200 X121.39 Y116.11 E52.21823
G1 X121.39 Y103.89 E52.82789
G1 X138.61 Y103.89 E53.687
G1 X138.61 Y116.11 E54.29666
M205 X10 Y10
G1 F1500 E48.29666
G1 F600 Z0.375
G0 F6000 X138.429 Y104.488 Z0.375
M205 X8 Y8
G1 F600 Z0.3
G1 F1500 E54.29666
G1 F1200 X138.01 Y104.069 E54.32622
M205 X10 Y10
G0 F6000 X137.445 Y104.069
M205 X8 Y8
G1 F1200 X138.429 Y105.054 E54.39568
M205 X10 Y10
G0 F6000 X138.429 Y105.619
M205 X8 Y8
G1 F1200 X136.879 Y104.069 E54.50505
M205 X10 Y10
G0 F6000 X136.313 Y104.069
M205 X8 Y8
G1 F1200 X138.429 Y106.185 E54.65434
M205 X10 Y10
G0 F6000 X138.429 Y106.751
M205 X8 Y8
G1 F1200 X135.748 Y104.069 E54.84354
M205 X10 Y10
G0 F6000 X135.182 Y104.069
M205 X8 Y8
G1 F1200 X138.429 Y107.316 E55.07263
M205 X10 Y10
G0 F6000 X138.429 Y107.882
M205 X8 Y8
G1 F1200 X134.616 Y104.069 E55.34166
M205 X10 Y10
G0 F6000 X134.051 Y104.069
M205 X8 Y8
G1 F1200 X138.429 Y108.448 E55.65058
M205 X10 Y10
G0 F6000 X138.429 Y109.013
M205 X8 Y8
G1 F1200 X133.485 Y104.069 E55.99941
M205 X10 Y10
G0 F6000 X132.919 Y104.069
M205 X8 Y8
G1 F1200 X138.429 Y109.579 E56.38817
M205 X10 Y10
G0 F6000 X138.429 Y110.145
M205 X8 Y8
G1 F1200 X132.354 Y104.069 E56.81683
M205 X10 Y10
G0 F6000 X131.788 Y104.069
M205 X8 Y8
G1 F1200 X138.429 Y110.711 E57.28542
M205 X10 Y10
G0 F6000 X138.429 Y111.276
M205 X8 Y8
G1 F1200 X131.222 Y104.069 E57.79391
M205 X10 Y10
G0 F6000 X130.657 Y104.069
M205 X8 Y8
G1 F1200 X138.429 Y111.842 E58.34231
M205 X10 Y10
G0 F6000 X138.429 Y112.408
M205 X8 Y8
G1 F1200 X130.091 Y104.069 E58.93063
M205 X10 Y10
G0 F6000 X129.525 Y104.069
M205 X8 Y8
G1 F1200 X138.429 Y112.973 E59.55886
M205 X10 Y10
G0 F6000 X138.429 Y113.539
M205 X8 Y8
G1 F1200 X128.96 Y104.069 E60.22698
M205 X10 Y10
G0 F6000 X128.394 Y104.069
M205 X8 Y8
G1 F1200 X138.429 Y114.105 E60.93504
M205 X10 Y10
G0 F6000 X138.429 Y114.67
M205 X8 Y8
G1 F1200 X127.828 Y104.069 E61.683
M205 X10 Y10
G0 F6000 X127.262 Y104.069
M205 X8 Y8
G1 F1200 X138.429 Y115.236 E62.47089
M205 X10 Y10
G0 F6000 X138.429 Y115.802
M205 X8 Y8
G1 F1200 X126.697 Y104.069 E63.29868
M205 X10 Y10
G0 F6000 X126.131 Y104.069
M205 X8 Y8
G1 F1200 X137.991 Y115.929 E64.13547
M205 X10 Y10
G0 F6000 X137.425 Y115.929
M205 X8 Y8
G1 F1200 X125.565 Y104.069 E64.97226
M205 X10 Y10
G0 F6000 X125 Y104.069
M205 X8 Y8
G1 F1200 X136.859 Y115.929 E65.80901
M205 X10 Y10
G0 F6000 X136.294 Y115.929
M205 X8 Y8
G1 F1200 X124.434 Y104.069 E66.6458
M205 X10 Y10
G0 F6000 X123.868 Y104.069
M205 X8 Y8
G1 F1200 X135.728 Y115.929 E67.48258
M205 X10 Y10
G0 F6000 X135.162 Y115.929
M205 X8 Y8
G1 F1200 X123.303 Y104.069 E68.31933
M205 X10 Y10
G0 F6000 X122.737 Y104.069
M205 X8 Y8
G1 F1200 X134.597 Y115.929 E69.15612
M205 X10 Y10
G0 F6000 X134.031 Y115.929
M205 X8 Y8
G1 F1200 X122.171 Y104.069 E69.99291
M205 X10 Y10
G0 F6000 X121.606 Y104.069
M205 X8 Y8
G1 F1200 X133.465 Y115.929 E70.82966
M205 X10 Y10
G0 F6000 X132.9 Y115.929
M205 X8 Y8
G1 F1200 X121.569 Y104.598 E71.62912
M205 X10 Y10
G0 F6000 X121.569 Y105.164
M205 X8 Y8
G1 F1200 X132.334 Y115.929 E72.38865
M205 X10 Y10
G0 F6000 X131.768 Y115.929
M205 X8 Y8
G1 F1200 X121.569 Y105.73 E73.10825
M205 X10 Y10
G0 F6000 X121.569 Y106.295
M205 X8 Y8
G1 F1200 X131.202 Y115.929 E73.78794
M205 X10 Y10
G0 F6000 X130.637 Y115.929
M205 X8 Y8
G1 F1200 X121.569 Y106.861 E74.42774
M205 X10 Y10
G0 F6000 X121.569 Y107.427
M205 X8 Y8
G1 F1200 X130.071 Y115.929 E75.0276
M205 X10 Y10
G0 F6000 X129.505 Y115.929
M205 X8 Y8
G1 F1200 X121.569 Y107.992 E75.58756
M205 X10 Y10
G0 F6000 X121.569 Y108.558
M205 X8 Y8
G1 F1200 X128.94 Y115.929 E76.10763
M205 X10 Y10
G0 F6000 X128.374 Y115.929
M205 X8 Y8
G1 F1200 X121.569 Y109.124 E76.58776
M205 X10 Y10
G0 F6000 X121.569 Y109.689
M205 X8 Y8
G1 F1200 X127.808 Y115.929 E77.02799
M205 X10 Y10
G0 F6000 X127.243 Y115.929
M205 X8 Y8
G1 F1200 X121.569 Y110.255 E77.42832
M205 X10 Y10
G0 F6000 X121.569 Y110.821
M205 X8 Y8
G1 F1200 X126.677 Y115.929 E77.78872
M205 X10 Y10
G0 F6000 X126.111 Y115.929
M205 X8 Y8
G1 F1200 X121.569 Y111.386 E78.10921
M205 X10 Y10
